;FLAVOR:Marlin
;TIME:689
;Filament used: 0.0704847m
;Layer height: 0.1
;MINX:96.053
;MINY:96.056
;MINZ:0.3
;MAXX:123.948
;MAXY:123.944
;MAXZ:5
;TARGET_MACHINE.NAME:Creality Ender-3
;Generated with Cura_SteamEngine 5.10.0
M140 S50
M105
M190 S50
M104 S230
M105
M109 S230
; Ender 3 Custom Start G-code
G92 E0 ; Reset Extruder
G28 ; Home all axes
G1 Z2.0 F3000 ; Move Z Axis up little to prevent scratching of Heat Bed
G1 X0.1 Y20 Z0.3 F5000.0 ; Move to start position
G1 X0.1 Y200.0 Z0.3 F1500.0 E15 ; Draw the first line
G1 X0.4 Y200.0 Z0.3 F5000.0 ; Move to side a little
G1 X0.4 Y20 Z0.3 F1500.0 E30 ; Draw the second line
G92 E0 ; Reset Extruder
G1 Z2.0 F3000 ; Move Z Axis up little to prevent scratching of Heat Bed
G1 X5 Y20 Z0.3 F5000.0 ; Move over to prevent blob squish
M82 ;absolute extrusion mode
G92 E0
G92 E0
G1 F900 E-5
;LAYER_COUNT:48
;LAYER:0
M107
G0 F6000 X100.045 Y100.227 Z0.3
;TYPE:SKIRT
G1 F900 E0
G1 F1200 X100.572 Y99.726 E0.01814
G1 X100.951 Y99.392 E0.03074
G1 X101.676 Y98.806 E0.05399
G1 X102.463 Y98.269 E0.07776
G1 X103.478 Y97.679 E0.10705
G1 X104.024 Y97.401 E0.12233
G1 X104.882 Y97.013 E0.14582
G1 X106.053 Y96.623 E0.17661
G1 X106.63 Y96.469 E0.19151
G1 X107.538 Y96.269 E0.2147
G1 X108.554 Y96.132 E0.24027
G1 X109.478 Y96.06 E0.26339
G1 X110.017 Y96.056 E0.27684
G1 X110.518 Y96.065 E0.28934
G1 X111.431 Y96.123 E0.31216
G1 X112.334 Y96.252 E0.33491
G1 X113.435 Y96.488 E0.363
G1 X113.818 Y96.591 E0.37289
G1 X114.995 Y96.987 E0.40387
G1 X115.575 Y97.223 E0.41949
G1 X116.405 Y97.606 E0.44229
G1 X117.035 Y97.959 E0.46031
G1 X117.385 Y98.172 E0.47053
G1 X118.315 Y98.807 E0.49862
G1 X118.791 Y99.173 E0.5136
G1 X119.509 Y99.779 E0.53703
G1 X120.379 Y100.683 E0.56833
G1 X120.8 Y101.179 E0.58456
G1 X121.606 Y102.27 E0.6184
G1 X121.813 Y102.591 E0.62792
G1 X122.373 Y103.58 E0.65628
G1 X122.658 Y104.153 E0.67224
G1 X123.028 Y104.99 E0.69507
G1 X123.332 Y105.885 E0.71865
G1 X123.467 Y106.393 E0.73176
G1 X123.639 Y107.12 E0.75039
G1 X123.813 Y108.044 E0.77385
G1 X123.896 Y108.816 E0.79322
G1 X123.927 Y109.288 E0.80502
G1 X123.948 Y110.219 E0.82825
G1 X123.891 Y111.215 E0.85313
G1 X123.786 Y112.137 E0.87628
G1 X123.684 Y112.685 E0.89019
G1 X123.58 Y113.17 E0.90256
G1 X123.353 Y114.039 E0.92496
G1 X123.164 Y114.595 E0.93961
G1 X122.978 Y115.096 E0.95294
G1 X122.618 Y115.949 E0.97604
G1 X122.377 Y116.425 E0.98935
G1 X122.118 Y116.906 E1.00298
G1 X121.656 Y117.677 E1.0254
G1 X121.009 Y118.557 E1.05264
G1 X120.58 Y119.08 E1.06952
G1 X119.958 Y119.771 E1.09271
G1 X119.43 Y120.272 E1.11086
G1 X119.05 Y120.607 E1.1235
G1 X118.325 Y121.193 E1.14676
G1 X117.537 Y121.731 E1.17056
G1 X116.559 Y122.303 E1.19882
G1 X116.025 Y122.577 E1.21379
G1 X115.17 Y122.968 E1.23724
G1 X113.968 Y123.371 E1.26887
G1 X113.378 Y123.529 E1.2841
G1 X112.47 Y123.73 E1.3073
G1 X111.446 Y123.868 E1.33308
G1 X110.522 Y123.94 E1.3562
G1 X109.983 Y123.944 E1.36964
G1 X109.482 Y123.935 E1.38214
G1 X108.569 Y123.877 E1.40496
G1 X107.666 Y123.748 E1.42772
G1 X106.565 Y123.512 E1.45581
G1 X106.182 Y123.409 E1.4657
G1 X105.028 Y123.022 E1.49606
G1 X104.505 Y122.809 E1.51015
G1 X103.329 Y122.242 E1.54271
G1 X102.988 Y122.051 E1.55246
G1 X101.902 Y121.347 E1.58475
G1 X101.333 Y120.923 E1.60245
G1 X100.608 Y120.331 E1.6258
G1 X99.947 Y119.683 E1.64889
G1 X99.587 Y119.279 E1.66239
G1 X99.183 Y118.799 E1.67804
G1 X98.405 Y117.746 E1.7107
G1 X98.196 Y117.422 E1.72031
G1 X97.618 Y116.401 E1.74958
G1 X97.321 Y115.796 E1.76639
G1 X96.946 Y114.941 E1.78968
G1 X96.652 Y114.061 E1.81283
G1 X96.533 Y113.604 E1.82461
G1 X96.363 Y112.881 E1.84313
G1 X96.188 Y111.964 E1.86642
G1 X96.103 Y111.161 E1.88657
G1 X96.072 Y110.673 E1.89876
G1 X96.053 Y109.743 E1.92197
G1 X96.11 Y108.765 E1.9464
G1 X96.216 Y107.844 E1.96953
G1 X96.32 Y107.295 E1.98347
G1 X96.427 Y106.806 E1.99596
G1 X96.664 Y105.909 E2.0191
G1 X96.847 Y105.376 E2.03316
G1 X97.036 Y104.869 E2.04665
G1 X97.399 Y104.015 E2.0698
G1 X97.636 Y103.55 E2.08282
G1 X97.892 Y103.08 E2.09617
G1 X98.375 Y102.278 E2.11953
G1 X98.992 Y101.442 E2.14544
G1 X99.422 Y100.918 E2.16235
G1 X100.045 Y100.227 E2.18556
G0 F6000 X100.183 Y100.372
G1 F1200 X100.704 Y99.876 E2.20351
G1 X101.077 Y99.547 E2.21591
G1 X101.789 Y98.971 E2.23876
G1 X102.564 Y98.442 E2.26216
G1 X103.569 Y97.857 E2.29117
G1 X104.107 Y97.583 E2.30623
G1 X104.945 Y97.203 E2.32919
G1 X106.105 Y96.816 E2.35969
G1 X106.673 Y96.664 E2.37436
G1 X107.565 Y96.467 E2.39714
G1 X108.57 Y96.331 E2.42244
G1 X109.48 Y96.26 E2.44521
G1 X110.013 Y96.256 E2.45851
G1 X110.505 Y96.265 E2.47078
G1 X111.418 Y96.323 E2.4936
G1 X112.292 Y96.448 E2.51563
G1 X113.383 Y96.681 E2.54346
G1 X113.754 Y96.781 E2.55304
G1 X114.931 Y97.177 E2.58402
G1 X115.491 Y97.405 E2.5991
G1 X116.321 Y97.788 E2.6219
G1 X116.931 Y98.13 E2.63935
G1 X117.272 Y98.337 E2.6493
G1 X118.193 Y98.966 E2.67712
G1 X118.662 Y99.326 E2.69187
G1 X119.365 Y99.918 E2.7148
G1 X120.235 Y100.822 E2.74609
G1 X120.639 Y101.298 E2.76167
G1 X121.438 Y102.378 E2.79518
G1 X121.639 Y102.69 E2.80444
G1 X122.194 Y103.669 E2.83251
G1 X122.475 Y104.234 E2.84825
G1 X122.845 Y105.071 E2.87108
G1 X123.139 Y105.936 E2.89387
G1 X123.272 Y106.439 E2.90685
G1 X123.442 Y107.157 E2.92525
G1 X123.614 Y108.065 E2.94831
G1 X123.696 Y108.829 E2.96747
G1 X123.727 Y109.293 E2.97907
G1 X123.748 Y110.208 E3.0019
G1 X123.692 Y111.192 E3.02649
G1 X123.589 Y112.1 E3.04929
G1 X123.488 Y112.643 E3.06306
G1 X123.386 Y113.119 E3.07521
G1 X123.159 Y113.988 E3.09761
G1 X122.977 Y114.525 E3.11175
G1 X122.794 Y115.018 E3.12487
G1 X122.439 Y115.859 E3.14764
G1 X122.201 Y116.33 E3.16081
G1 X121.946 Y116.803 E3.17421
G1 X121.484 Y117.574 E3.19663
G1 X120.854 Y118.43 E3.22315
G1 X120.431 Y118.946 E3.23979
G1 X119.82 Y119.626 E3.26259
G1 X119.298 Y120.122 E3.28056
G1 X118.924 Y120.452 E3.293
G1 X118.212 Y121.028 E3.31584
G1 X117.436 Y121.558 E3.33929
G1 X116.468 Y122.125 E3.36727
G1 X115.942 Y122.395 E3.38202
G1 X115.106 Y122.778 E3.40496
G1 X113.916 Y123.178 E3.43627
G1 X113.335 Y123.334 E3.45128
G1 X112.443 Y123.532 E3.47407
G1 X111.43 Y123.669 E3.49957
G1 X110.52 Y123.74 E3.52234
G1 X109.987 Y123.744 E3.53564
G1 X109.495 Y123.735 E3.54791
G1 X108.582 Y123.677 E3.57073
G1 X107.708 Y123.552 E3.59276
G1 X106.617 Y123.319 E3.62059
G1 X106.246 Y123.219 E3.63017
G1 X105.092 Y122.832 E3.66053
G1 X104.592 Y122.629 E3.67399
G1 X103.427 Y122.068 E3.70625
G1 X103.097 Y121.883 E3.71569
G1 X102.011 Y121.179 E3.74797
G1 X101.459 Y120.768 E3.76514
G1 X100.748 Y120.188 E3.78803
G1 X100.096 Y119.55 E3.81078
G1 X99.74 Y119.15 E3.82414
G1 X99.344 Y118.68 E3.83947
G1 X98.573 Y117.638 E3.87181
G1 X98.37 Y117.323 E3.88115
G1 X97.792 Y116.302 E3.91042
G1 X97.504 Y115.716 E3.92671
G1 X97.136 Y114.877 E3.94956
G1 X96.846 Y114.011 E3.97234
G1 X96.728 Y113.558 E3.98402
G1 X96.559 Y112.843 E4.00235
G1 X96.387 Y111.943 E4.0252
G1 X96.303 Y111.148 E4.04515
G1 X96.272 Y110.669 E4.05712
G1 X96.253 Y109.755 E4.07992
G1 X96.309 Y108.788 E4.10409
G1 X96.413 Y107.881 E4.12686
G1 X96.515 Y107.338 E4.14064
G1 X96.62 Y106.857 E4.15292
G1 X96.853 Y105.974 E4.1757
G1 X97.034 Y105.446 E4.18963
G1 X97.22 Y104.947 E4.20291
G1 X97.577 Y104.106 E4.2257
G1 X97.812 Y103.645 E4.23861
G1 X98.063 Y103.183 E4.25173
G1 X98.536 Y102.397 E4.27461
G1 X99.147 Y101.569 E4.30028
G1 X99.571 Y101.052 E4.31696
G1 X100.183 Y100.372 E4.33978
G0 F6000 X100.321 Y100.517
G1 F1200 X100.837 Y100.026 E4.35755
G1 X101.203 Y99.702 E4.36974
G1 X101.902 Y99.136 E4.39218
G1 X102.665 Y98.615 E4.41522
G1 X103.66 Y98.035 E4.44395
G1 X104.19 Y97.765 E4.45879
G1 X105.008 Y97.393 E4.48121
G1 X106.157 Y97.009 E4.51143
G1 X106.716 Y96.859 E4.52586
G1 X107.594 Y96.665 E4.54829
G1 X108.099 Y96.59 E4.56103
G1 X108.586 Y96.53 E4.57327
G1 X109.482 Y96.46 E4.59569
G1 X110.009 Y96.456 E4.60883
G1 X110.493 Y96.465 E4.62091
G1 X111.39 Y96.521 E4.64333
G1 X112.25 Y96.644 E4.665
G1 X113.331 Y96.874 E4.69257
G1 X113.69 Y96.971 E4.70185
G1 X114.867 Y97.367 E4.73282
G1 X115.407 Y97.587 E4.74737
G1 X116.223 Y97.963 E4.76978
G1 X116.827 Y98.301 E4.78705
G1 X117.159 Y98.502 E4.79673
G1 X118.071 Y99.125 E4.82428
G1 X118.533 Y99.479 E4.8388
G1 X119.221 Y100.057 E4.86121
G1 X120.091 Y100.961 E4.89251
G1 X120.478 Y101.417 E4.90743
G1 X121.27 Y102.486 E4.94062
G1 X121.465 Y102.789 E4.94961
G1 X122.015 Y103.758 E4.9774
G1 X122.292 Y104.315 E4.99292
G1 X122.656 Y105.136 E5.01532
G1 X122.946 Y105.987 E5.03775
G1 X123.077 Y106.485 E5.05059
G1 X123.247 Y107.203 E5.069
G1 X123.415 Y108.086 E5.09142
G1 X123.496 Y108.843 E5.11041
G1 X123.527 Y109.298 E5.12179
G1 X123.548 Y110.197 E5.14422
G1 X123.493 Y111.17 E5.16853
G1 X123.392 Y112.063 E5.19095
G1 X123.292 Y112.601 E5.2046
G1 X123.192 Y113.068 E5.21651
G1 X122.965 Y113.937 E5.23892
G1 X122.789 Y114.456 E5.25259
G1 X122.61 Y114.94 E5.26546
G1 X122.261 Y115.769 E5.2879
G1 X122.025 Y116.235 E5.30093
G1 X121.774 Y116.7 E5.31411
G1 X121.312 Y117.471 E5.33653
G1 X120.699 Y118.303 E5.36231
G1 X120.282 Y118.812 E5.37872
G1 X119.682 Y119.481 E5.40114
G1 X119.165 Y119.972 E5.41893
G1 X118.798 Y120.297 E5.43115
G1 X118.099 Y120.863 E5.45359
G1 X117.335 Y121.385 E5.47667
G1 X116.376 Y121.947 E5.5044
G1 X115.859 Y122.213 E5.5189
G1 X115.042 Y122.588 E5.54133
G1 X113.864 Y122.985 E5.57234
G1 X113.292 Y123.139 E5.58711
G1 X112.414 Y123.334 E5.60955
G1 X111.901 Y123.41 E5.62248
G1 X111.414 Y123.47 E5.63472
G1 X110.518 Y123.54 E5.65714
G1 X109.991 Y123.544 E5.67029
G1 X109.507 Y123.535 E5.68237
G1 X108.61 Y123.479 E5.70479
G1 X107.75 Y123.356 E5.72646
G1 X106.669 Y123.126 E5.75403
G1 X106.31 Y123.029 E5.7633
G1 X105.156 Y122.642 E5.79366
G1 X104.679 Y122.449 E5.8065
G1 X103.525 Y121.894 E5.83844
G1 X103.206 Y121.715 E5.84757
G1 X102.12 Y121.011 E5.87985
G1 X101.585 Y120.613 E5.89649
G1 X100.888 Y120.045 E5.91891
G1 X100.245 Y119.417 E5.94133
G1 X99.893 Y119.021 E5.95455
G1 X99.505 Y118.561 E5.96956
G1 X98.741 Y117.529 E6.00159
G1 X98.544 Y117.224 E6.01065
G1 X97.966 Y116.203 E6.03992
G1 X97.687 Y115.636 E6.05568
G1 X97.326 Y114.813 E6.0781
G1 X97.04 Y113.961 E6.10052
G1 X96.923 Y113.512 E6.11209
G1 X96.755 Y112.805 E6.13022
G1 X96.586 Y111.922 E6.15265
G1 X96.503 Y111.135 E6.17239
G1 X96.472 Y110.665 E6.18414
G1 X96.453 Y109.766 E6.20657
G1 X96.508 Y108.811 E6.23043
G1 X96.61 Y107.918 E6.25285
G1 X96.712 Y107.375 E6.26663
G1 X96.813 Y106.908 E6.27855
G1 X97.042 Y106.039 E6.30097
G1 X97.221 Y105.516 E6.31476
G1 X97.404 Y105.025 E6.32783
G1 X97.755 Y104.197 E6.35026
G1 X97.988 Y103.74 E6.36306
G1 X98.234 Y103.286 E6.37594
G1 X98.697 Y102.516 E6.39835
G1 X99.302 Y101.696 E6.42377
G1 X99.72 Y101.186 E6.44022
G1 X100.321 Y100.517 E6.46265
G1 F900 E1.46265
;MESH:Skatewhel2.stl
G0 F6000 X108.022 Y109.354
G0 X110.12 Y111.994
;TYPE:WALL-INNER
G1 F900 E6.46265
G1 F1200 X109.7 Y111.977 E6.47314
G1 X109.37 Y111.895 E6.48162
G1 X109.093 Y111.781 E6.48909
G1 X108.756 Y111.566 E6.49907
G1 X108.462 Y111.28 E6.5093
G1 X108.234 Y110.939 E6.51953
G1 X108.065 Y110.543 E6.53027
G1 X108.001 Y110.137 E6.54052
G1 X108.018 Y109.712 E6.55113
G1 X108.097 Y109.382 E6.5596
G1 X108.23 Y109.066 E6.56815
G1 X108.429 Y108.757 E6.57732
G1 X108.736 Y108.446 E6.58822
G1 X109.078 Y108.223 E6.5984
G1 X109.477 Y108.06 E6.60915
G1 X109.86 Y108.001 E6.61882
G1 X110.299 Y108.019 E6.62978
G1 X110.624 Y108.101 E6.63814
G1 X110.904 Y108.213 E6.64567
G1 X111.255 Y108.442 E6.65612
G1 X111.553 Y108.74 E6.66663
G1 X111.765 Y109.06 E6.67621
G1 X111.934 Y109.455 E6.68692
G1 X111.995 Y109.946 E6.69927
G1 X111.979 Y110.284 E6.70771
G1 X111.897 Y110.622 E6.71638
G1 X111.783 Y110.906 E6.72402
G1 X111.568 Y111.239 E6.73391
G1 X111.26 Y111.55 E6.74482
G1 X110.905 Y111.781 E6.75539
G1 X110.516 Y111.941 E6.76588
G1 X110.136 Y111.995 E6.77546
G1 X110.12 Y111.994 E6.77586
G0 F6000 X110.167 Y112.785
G1 F1200 X110.446 Y112.755 E6.78286
G1 X110.825 Y112.668 E6.79256
G1 X111.117 Y112.557 E6.80035
G1 X111.465 Y112.387 E6.81001
G1 X111.844 Y112.095 E6.82194
G1 X112.121 Y111.814 E6.83179
G1 X112.369 Y111.49 E6.84197
G1 X112.544 Y111.15 E6.8515
G1 X112.683 Y110.773 E6.86153
G1 X112.747 Y110.498 E6.86857
G1 X112.791 Y110.089 E6.87883
G1 X112.773 Y109.612 E6.89074
G1 X112.684 Y109.222 E6.90072
G1 X112.512 Y108.759 E6.91304
G1 X112.338 Y108.472 E6.92141
G1 X112.058 Y108.097 E6.93309
G1 X111.698 Y107.78 E6.94505
G1 X111.363 Y107.562 E6.95502
G1 X111.096 Y107.432 E6.96243
G1 X110.726 Y107.292 E6.9723
G1 X110.245 Y107.216 E6.98444
G1 X109.857 Y107.208 E6.99413
G1 X109.551 Y107.24 E7.0018
G1 X109.17 Y107.333 E7.01158
G1 X108.895 Y107.433 E7.01888
G1 X108.533 Y107.613 E7.02897
G1 X108.152 Y107.906 E7.04096
G1 X107.879 Y108.182 E7.05064
G1 X107.63 Y108.507 E7.06085
G1 X107.452 Y108.846 E7.07041
G1 X107.317 Y109.223 E7.08039
G1 X107.223 Y109.612 E7.09038
G1 X107.209 Y110.088 E7.10226
G1 X107.253 Y110.498 E7.11254
G1 X107.316 Y110.773 E7.11958
G1 X107.488 Y111.237 E7.13192
G1 X107.707 Y111.603 E7.14256
G1 X107.876 Y111.811 E7.14925
G1 X108.152 Y112.09 E7.15904
G1 X108.533 Y112.384 E7.17104
G1 X108.9 Y112.567 E7.18127
G1 X109.272 Y112.703 E7.19115
G1 X109.751 Y112.78 E7.20326
G1 X110.139 Y112.788 E7.21294
G1 X110.167 Y112.785 E7.21364
G0 F6000 X110.179 Y112.985
;TYPE:WALL-OUTER
G1 F1200 X110.479 Y112.953 E7.22116
G1 X110.883 Y112.86 E7.23151
G1 X111.18 Y112.748 E7.23942
G1 X111.571 Y112.558 E7.25027
G1 X111.977 Y112.245 E7.26306
G1 X112.272 Y111.946 E7.27353
G1 X112.539 Y111.598 E7.28448
G1 X112.728 Y111.231 E7.29477
G1 X112.875 Y110.831 E7.3054
G1 X112.945 Y110.531 E7.31309
G1 X112.991 Y110.096 E7.324
G1 X112.972 Y109.586 E7.33673
G1 X112.876 Y109.165 E7.3475
G1 X112.693 Y108.672 E7.36062
G1 X112.504 Y108.36 E7.36972
G1 X112.206 Y107.961 E7.38214
G1 X111.819 Y107.62 E7.39501
G1 X111.462 Y107.388 E7.40563
G1 X111.176 Y107.248 E7.41357
G1 X110.778 Y107.098 E7.42418
G1 X110.263 Y107.016 E7.43719
G1 X109.849 Y107.008 E7.44752
G1 X109.517 Y107.043 E7.45585
G1 X109.113 Y107.141 E7.46622
G1 X108.816 Y107.249 E7.4741
G1 X108.426 Y107.442 E7.48496
G1 X108.019 Y107.756 E7.49778
G1 X107.728 Y108.05 E7.5081
G1 X107.461 Y108.399 E7.51906
G1 X107.268 Y108.765 E7.52938
G1 X107.125 Y109.165 E7.53998
G1 X107.024 Y109.586 E7.55078
G1 X107.009 Y110.096 E7.5635
G1 X107.055 Y110.531 E7.57442
G1 X107.124 Y110.831 E7.5821
G1 X107.307 Y111.324 E7.59521
G1 X107.543 Y111.718 E7.60667
G1 X107.727 Y111.945 E7.61396
G1 X108.019 Y112.24 E7.62431
G1 X108.426 Y112.554 E7.63714
G1 X108.82 Y112.751 E7.64812
G1 X109.222 Y112.898 E7.6588
G1 X109.733 Y112.98 E7.67171
G1 X110.147 Y112.988 E7.68204
G1 X110.179 Y112.985 E7.68284
G0 F6000 X110.158 Y112.779
G0 X110.104 Y112.073
G0 X110.108 Y111.796
G1 F1200 X109.724 Y111.778 E7.69243
G1 X109.46 Y111.714 E7.69921
G1 X109.183 Y111.602 E7.70666
G1 X108.878 Y111.408 E7.71568
G1 X108.606 Y111.14 E7.7252
G1 X108.399 Y110.823 E7.73465
G1 X108.256 Y110.483 E7.74385
G1 X108.201 Y110.119 E7.75303
G1 X108.216 Y109.736 E7.76259
G1 X108.287 Y109.446 E7.77004
G1 X108.395 Y109.181 E7.77718
G1 X108.588 Y108.879 E7.78612
G1 X108.858 Y108.604 E7.79573
G1 X109.173 Y108.399 E7.80511
G1 X109.524 Y108.254 E7.81458
G1 X109.881 Y108.2 E7.82359
G1 X110.276 Y108.218 E7.83345
G1 X110.55 Y108.287 E7.8405
G1 X110.816 Y108.393 E7.84764
G1 X111.123 Y108.592 E7.85677
G1 X111.383 Y108.848 E7.86587
G1 X111.601 Y109.177 E7.87572
G1 X111.744 Y109.517 E7.88492
G1 X111.796 Y109.976 E7.89644
G1 X111.78 Y110.263 E7.90361
G1 X111.71 Y110.549 E7.91096
G1 X111.61 Y110.805 E7.91781
G1 X111.408 Y111.117 E7.92708
G1 X111.138 Y111.392 E7.9367
G1 X110.827 Y111.597 E7.94599
G1 X110.471 Y111.746 E7.95562
G1 X110.115 Y111.796 E7.96458
G1 X110.108 Y111.796 E7.96476
G0 F6000 X110.156 Y112.604
;TYPE:SKIN
G1 F1200 X110.123 Y112.608 E7.96559
G1 X109.766 Y112.6 E7.97449
G1 X109.314 Y112.526 E7.98592
G1 X108.98 Y112.404 E7.99479
G1 X108.622 Y112.226 E8.00476
G1 X108.271 Y111.952 E8.01587
G1 X108.021 Y111.699 E8.02474
G1 X107.855 Y111.498 E8.03125
G1 X107.651 Y111.156 E8.04118
G1 X107.447 Y110.607 E8.05579
G1 X107.389 Y110.068 E8.06931
G1 X107.404 Y109.638 E8.08005
G1 X107.493 Y109.265 E8.08961
G1 X107.613 Y108.928 E8.09854
G1 X107.781 Y108.599 E8.10775
G1 X108.004 Y108.312 E8.11682
G1 X108.271 Y108.04 E8.12632
G1 X108.622 Y107.77 E8.13737
