;FLAVOR:Marlin
;TIME:22928
;Filament used:8.97775m
;Layer height: 0.2
;MINX:76.065
;MINY:56.37
;MINZ:0.15
;MAXX:143.935
;MAXY:163.63
;MAXZ:34.15
                             
;Creality Print GCode Generated by CXEngineDEV
;Generated Time:2022-06-30 15:03:09
;----------Machine Config--------------
;Machine Name:Creality Ender-3
;Machine Height:250
;Machine Width:220
;Machine Depth:220
;Material name:Castable
;Number of Extruders:1
;ExtruderParams[0] Nozzle Diameter1000
;----------Profile Config---------------
;Layer Height:0.2
;Wall Thickness:0.8
;Top/Bottom Thickness:1
;Out Wall Line Width:0.2
;Inner Wall Line Width:0.2
;Inital Layer Height:150
;Wall Line Count:4
;Infill Line Distance:2
;Infill Pattern:zigzag
;Infill Sparse Density:10
;Infill Wipe Distance:0
;Print Temperature:235
;Bed Temperature:74
;Support Enable:false
;Support Density:10
;Support Angle:0
;Adhesion Type:brim
;machine is belt:false
;machine belt offset:10
;machine belt offset Y:0
;Raft Base Line Spacing:1.6
;Wait Heatup Sync:true
;----------Shell Config----------------
;Outer Wall Wipe Distance:200
;Infill Before Walls:false
;Infill Overlap:0.08
;Fill Gaps Between Walls:everywhere
;Minimum Infill Area:1
;Top Surface Skin Layer:0
;Top Layers:3
;Z Seam Alignment:sharpest_corner
;Seam Corner Preference:z_seam_corner_inner
;Z Seam X:110
;Z Seam Y:110
;Horizontal Expansion:0
;Top/Bottom Pattern:zigzag
;Ironing Pattern:zigzag
;Vase Model:false
;----------Support Config----------------
;Support Type:everywhere
;Support Pattern:zigzag
;Support Infill Layer Thickness:0.2
;Minimum Support Area:5
;Enable Support Roof:false
;Support Roof Thickness:0.8
;Support Roof Pattern:lines
;Connect Support Lines:0
;Connect Support ZigZags:1
;Minimum Support X/Y Distance:0.2
;Support Line Distance:2
; ---------PrintSpeed & Travel----------
;Enable Print Cool:true
;Avoid Printed Parts Traveling:true
;Enable Retraction:true
;Retraction Distance:8
;Retraction Speed:100
;Retraction Prime Speed:100
;Maximum Retraction Count:100
;Minimum Extrusion Distance Window:1
;Z Hop When Retracted:false
;Z Hop Height:0.2
;Retract Before Outer Wall:true
;Print Speed:40
;Infill Speed:40

;Prime Tower Speed:40
;Travel Speed:120
;Initial Layer Speed:20
;Skirt/Brim Speed:20
;Combing Mode:off
; --------SpecialModel&Mesh Fixes--------
;Union Overlapping Volum:true
;Remove All Holes:false
;Maximum Travel Resolution:0.4
;Maximum Deviation:0.05
;Maximum Model Angle:0.872665
;IS Mold Print:false
;Make Overhang Printable:false
;Enable Coasting:false
;Coasting Volumes:0.06
;Coasting Speed:0.9
;Raft AirGap:0.25
;Layer0 ZOverLap:0.13
;---------------------End of Head--------------------------
M140 S74
M105
M104 S235
M105
M109 S235
M105
M190 S74
M82 ;absolute extrusion mode
M220 S100 ;Reset Feedrate
M221 S100 ;Reset Flowrate

G28 ;Home

G92 E0 ;Reset Extruder
G1 Z2.0 F3000 ;Move Z Axis up
G1 X10.1 Y20 Z0.28 F5000.0 ;Move to start position
G1 X10.1 Y145.0 Z0.28 F1500.0 E15 ;Draw the first line
G1 X10.4 Y145.0 Z0.28 F5000.0 ;Move to side a little
G1 X10.4 Y20 Z0.28 F1500.0 E30 ;Draw the second line
G92 E0  ;Reset Extruder
G1 E-1.0000 F1800 ;Retract a bit
G1 Z2.0 F3000 ;Move Z Axis up
G1 E0.0000 F1800 

G92 E0
G92 E0
G1 F6000 E-8

;LAYER_COUNT:171

;LAYER:0
M107
G0 F3600 X77.462 Y59.784 Z0.15
;;retract;;
G0 X136.135 Y155.73
;TYPE:SKIRT
G1 F6000 E0
G1 F1200 X136.035 Y155.83 E0.00194
G1 X83.965 Y155.83 E0.71633
G1 X83.865 Y155.73 E0.71827
G1 X83.865 Y64.27 E1.97308
G1 X83.965 Y64.17 E1.97502
G1 X136.035 Y64.17 E2.68941
G1 X136.135 Y64.27 E2.69136
G1 X136.135 Y155.73 E3.94617
G0 F3600 X136.335 Y155.73
G1 F1200 X136.188 Y155.988 E3.95024
G1 X136.035 Y156.03 E3.95242
G1 X83.965 Y156.03 E4.66681
G1 X83.707 Y155.883 E4.67088
G1 X83.665 Y155.73 E4.67306
G1 X83.665 Y64.27 E5.92787
G1 X83.812 Y64.012 E5.93195
G1 X83.965 Y63.97 E5.93412
G1 X136.035 Y63.97 E6.64851
G1 X136.293 Y64.117 E6.65259
G1 X136.335 Y64.27 E6.65477
G1 X136.335 Y155.73 E7.90958
G0 F3600 X136.535 Y155.73
G1 F1200 X136.383 Y156.089 E7.91493
G1 X136.035 Y156.23 E7.92008
G1 X83.965 Y156.23 E8.63447
G1 X83.606 Y156.078 E8.63982
G1 X83.465 Y155.73 E8.64497
G1 X83.465 Y64.27 E9.89978
G1 X83.617 Y63.911 E9.90513
G1 X83.965 Y63.77 E9.91028
G1 X136.035 Y63.77 E10.62467
G1 X136.394 Y63.922 E10.63002
G1 X136.535 Y64.27 E10.63517
G1 X136.535 Y155.73 E11.88999
G0 F3600 X136.735 Y155.73
G1 F1200 X136.581 Y156.168 E11.89636
G1 X136.186 Y156.414 E11.90274
G1 X136.035 Y156.43 E11.90482
G1 X83.965 Y156.43 E12.61921
G1 X83.527 Y156.276 E12.62558
G1 X83.281 Y155.881 E12.63197
G1 X83.265 Y155.73 E12.63405
G1 X83.265 Y64.27 E13.88887
G1 X83.419 Y63.832 E13.89524
G1 X83.814 Y63.586 E13.90162
G1 X83.965 Y63.57 E13.9037
G1 X136.035 Y63.57 E14.61809
G1 X136.473 Y63.724 E14.62446
G1 X136.719 Y64.119 E14.63085
G1 X136.735 Y64.27 E14.63293
G1 X136.735 Y155.73 E15.88774
G0 F3600 X136.935 Y155.73
G1 F1200 X136.895 Y155.995 E15.89142
G1 X136.779 Y156.236 E15.89509
G1 X136.598 Y156.432 E15.89875
G1 X136.366 Y156.567 E15.90243
G1 X136.035 Y156.63 E15.90706
G1 X83.965 Y156.63 E16.62145
G1 X83.7 Y156.59 E16.62512
G1 X83.459 Y156.474 E16.62879
G1 X83.263 Y156.293 E16.63245
G1 X83.128 Y156.061 E16.63614
G1 X83.065 Y155.73 E16.64076
G1 X83.065 Y64.27 E17.89557
G1 X83.105 Y64.005 E17.89925
G1 X83.221 Y63.764 E17.90292
G1 X83.402 Y63.568 E17.90658
G1 X83.634 Y63.433 E17.91026
G1 X83.965 Y63.37 E17.91489
G1 X136.035 Y63.37 E18.62928
G1 X136.3 Y63.41 E18.63295
G1 X136.541 Y63.526 E18.63662
G1 X136.737 Y63.707 E18.64028
G1 X136.872 Y63.939 E18.64396
G1 X136.935 Y64.27 E18.64859
G1 X136.935 Y155.73 E19.9034
G0 F3600 X137.135 Y155.73
G1 F1200 X137.095 Y156.023 E19.90746
G1 X136.979 Y156.295 E19.91152
G1 X136.794 Y156.526 E19.91558
G1 X136.554 Y156.7 E19.91964
G1 X136.277 Y156.803 E19.9237
G1 X136.035 Y156.83 E19.92704
G1 X83.965 Y156.83 E20.64143
G1 X83.672 Y156.79 E20.64549
G1 X83.4 Y156.674 E20.64954
G1 X83.169 Y156.489 E20.6536
G1 X82.995 Y156.249 E20.65767
G1 X82.892 Y155.972 E20.66172
G1 X82.865 Y155.73 E20.66507
G1 X82.865 Y64.27 E21.91988
G1 X82.905 Y63.977 E21.92394
G1 X83.021 Y63.705 E21.92799
G1 X83.206 Y63.474 E21.93205
G1 X83.446 Y63.3 E21.93612
G1 X83.723 Y63.197 E21.94018
G1 X83.965 Y63.17 E21.94352
G1 X136.035 Y63.17 E22.65791
G1 X136.328 Y63.21 E22.66196
G1 X136.6 Y63.326 E22.66602
G1 X136.831 Y63.511 E22.67008
G1 X137.005 Y63.751 E22.67415
G1 X137.108 Y64.028 E22.6782
G1 X137.135 Y64.27 E22.68154
G1 X137.135 Y155.73 E23.93636
G0 F3600 X137.335 Y155.73
G1 F1200 X137.295 Y156.049 E23.94077
G1 X137.178 Y156.349 E23.94519
G1 X136.991 Y156.611 E23.9496
G1 X136.745 Y156.819 E23.95402
G1 X136.456 Y156.96 E23.95843
G1 X136.035 Y157.03 E23.96429
G1 X83.965 Y157.03 E24.67868
G1 X83.646 Y156.99 E24.68309
G1 X83.346 Y156.873 E24.68751
G1 X83.084 Y156.686 E24.69192
G1 X82.876 Y156.44 E24.69634
G1 X82.735 Y156.151 E24.70076
G1 X82.665 Y155.73 E24.70661
G1 X82.665 Y64.27 E25.96142
G1 X82.705 Y63.951 E25.96584
G1 X82.822 Y63.651 E25.97025
G1 X83.009 Y63.389 E25.97467
G1 X83.255 Y63.181 E25.97909
G1 X83.544 Y63.04 E25.9835
G1 X83.965 Y62.97 E25.98936
G1 X136.035 Y62.97 E26.70375
G1 X136.354 Y63.01 E26.70816
G1 X136.654 Y63.127 E26.71258
G1 X136.916 Y63.314 E26.71699
G1 X137.124 Y63.56 E26.72141
G1 X137.265 Y63.849 E26.72582
G1 X137.335 Y64.27 E26.73168
G1 X137.335 Y155.73 E27.98649
G0 F3600 X137.535 Y155.73
G1 F1200 X137.495 Y156.074 E27.99124
G1 X137.378 Y156.399 E27.99598
G1 X137.189 Y156.689 E28.00073
G1 X136.939 Y156.927 E28.00547
G1 X136.64 Y157.102 E28.01022
G1 X136.31 Y157.205 E28.01496
G1 X136.035 Y157.23 E28.01875
G1 X83.965 Y157.23 E28.73314
G1 X83.621 Y157.19 E28.73789
G1 X83.296 Y157.073 E28.74263
G1 X83.006 Y156.884 E28.74738
G1 X82.768 Y156.634 E28.75212
G1 X82.593 Y156.335 E28.75687
G1 X82.49 Y156.005 E28.76161
G1 X82.465 Y155.73 E28.7654
G1 X82.465 Y64.27 E30.02022
G1 X82.505 Y63.926 E30.02497
G1 X82.622 Y63.601 E30.02971
G1 X82.811 Y63.311 E30.03446
G1 X83.061 Y63.073 E30.03919
G1 X83.36 Y62.898 E30.04394
G1 X83.69 Y62.795 E30.04869
G1 X83.965 Y62.77 E30.05248
G1 X136.035 Y62.77 E30.76687
G1 X136.379 Y62.81 E30.77162
G1 X136.704 Y62.927 E30.77636
G1 X136.994 Y63.116 E30.78111
G1 X137.232 Y63.366 E30.78584
G1 X137.407 Y63.665 E30.79059
G1 X137.51 Y63.995 E30.79534
G1 X137.535 Y64.27 E30.79913
G1 X137.535 Y155.73 E32.05394
G0 F3600 X137.735 Y155.73
G1 F1200 X137.695 Y156.096 E32.05899
G1 X137.577 Y156.445 E32.06405
G1 X137.387 Y156.76 E32.06909
G1 X137.134 Y157.027 E32.07414
G1 X136.828 Y157.233 E32.0792
G1 X136.486 Y157.369 E32.08425
G1 X136.035 Y157.43 E32.09049
G1 X83.965 Y157.43 E32.80488
G1 X83.599 Y157.39 E32.80993
G1 X83.25 Y157.272 E32.81499
G1 X82.935 Y157.082 E32.82004
G1 X82.668 Y156.829 E32.82508
G1 X82.462 Y156.523 E32.83014
G1 X82.326 Y156.181 E32.83519
G1 X82.265 Y155.73 E32.84144
G1 X82.265 Y64.27 E34.09625
G1 X82.305 Y63.904 E34.1013
G1 X82.423 Y63.555 E34.10636
G1 X82.613 Y63.24 E34.1114
G1 X82.866 Y62.973 E34.11645
G1 X83.172 Y62.767 E34.12151
G1 X83.514 Y62.631 E34.12656
G1 X83.965 Y62.57 E34.1328
G1 X136.035 Y62.57 E34.8472
G1 X136.401 Y62.61 E34.85225
G1 X136.75 Y62.728 E34.8573
G1 X137.065 Y62.918 E34.86235
G1 X137.332 Y63.171 E34.86739
G1 X137.538 Y63.477 E34.87246
G1 X137.674 Y63.819 E34.8775
G1 X137.735 Y64.27 E34.88375
G1 X137.735 Y155.73 E36.13856
G0 F3600 X137.935 Y155.73
G1 F1200 X137.895 Y156.117 E36.1439
G1 X137.777 Y156.488 E36.14924
G1 X137.586 Y156.828 E36.15459
G1 X137.33 Y157.121 E36.15993
G1 X137.019 Y157.355 E36.16527
G1 X136.667 Y157.522 E36.17062
G1 X136.288 Y157.613 E36.17596
G1 X136.035 Y157.63 E36.17944
G1 X83.965 Y157.63 E36.89383
G1 X83.578 Y157.59 E36.89917
G1 X83.207 Y157.472 E36.90451
G1 X82.867 Y157.281 E36.90986
G1 X82.574 Y157.025 E36.9152
G1 X82.34 Y156.714 E36.92054
G1 X82.173 Y156.362 E36.92588
G1 X82.082 Y155.983 E36.93123
G1 X82.065 Y155.73 E36.93471
G1 X82.065 Y64.27 E38.18952
G1 X82.105 Y63.883 E38.19486
G1 X82.223 Y63.512 E38.2002
G1 X82.414 Y63.172 E38.20555
G1 X82.67 Y62.879 E38.21089
G1 X82.981 Y62.645 E38.21623
G1 X83.333 Y62.478 E38.22158
G1 X83.712 Y62.387 E38.22693
G1 X83.965 Y62.37 E38.2304
G1 X136.035 Y62.37 E38.94479
G1 X136.422 Y62.41 E38.95013
G1 X136.793 Y62.528 E38.95547
G1 X137.133 Y62.719 E38.96082
G1 X137.426 Y62.975 E38.96616
G1 X137.66 Y63.286 E38.9715
G1 X137.827 Y63.638 E38.97685
G1 X137.918 Y64.017 E38.98219
G1 X137.935 Y64.27 E38.98567
G1 X137.935 Y155.73 E40.24049
G0 F3600 X138.135 Y155.73
G1 F1200 X138.095 Y156.137 E40.2461
G1 X137.977 Y156.529 E40.25171
G1 X137.785 Y156.891 E40.25734
G1 X137.526 Y157.208 E40.26295
G1 X137.211 Y157.47 E40.26857
G1 X136.851 Y157.665 E40.27419
G1 X136.46 Y157.786 E40.27981
G1 X136.035 Y157.83 E40.28567
G1 X83.965 Y157.83 E41.00006
G1 X83.558 Y157.79 E41.00567
G1 X83.166 Y157.672 E41.01129
G1 X82.804 Y157.48 E41.01691
G1 X82.487 Y157.221 E41.02252
G1 X82.225 Y156.906 E41.02815
G1 X82.03 Y156.546 E41.03376
G1 X81.909 Y156.155 E41.03938
G1 X81.865 Y155.73 E41.04524
G1 X81.865 Y64.27 E42.30005
G1 X81.905 Y63.863 E42.30566
G1 X82.023 Y63.471 E42.31128
G1 X82.215 Y63.109 E42.3169
G1 X82.474 Y62.792 E42.32252
G1 X82.789 Y62.53 E42.32814
G1 X83.149 Y62.335 E42.33376
G1 X83.54 Y62.214 E42.33937
G1 X83.965 Y62.17 E42.34524
G1 X136.035 Y62.17 E43.05963
G1 X136.442 Y62.21 E43.06524
G1 X136.834 Y62.328 E43.07085
G1 X137.196 Y62.52 E43.07647
G1 X137.513 Y62.779 E43.08209
G1 X137.775 Y63.094 E43.08771
G1 X137.97 Y63.454 E43.09333
G1 X138.091 Y63.845 E43.09894
G1 X138.135 Y64.27 E43.10481
G1 X138.135 Y155.73 E44.35962
G0 F3600 X138.335 Y155.73
G1 F1200 X138.295 Y156.157 E44.3655
G1 X138.177 Y156.568 E44.37137
G1 X137.984 Y156.951 E44.37726
G1 X137.724 Y157.291 E44.38313
G1 X137.405 Y157.578 E44.38901
G1 X137.038 Y157.8 E44.3949
G1 X136.637 Y157.95 E44.40077
G1 X136.035 Y158.03 E44.40911
G1 X83.965 Y158.03 E45.1235
G1 X83.538 Y157.99 E45.12938
G1 X83.127 Y157.872 E45.13525
G1 X82.744 Y157.679 E45.14113
G1 X82.404 Y157.419 E45.147
G1 X82.117 Y157.1 E45.15289
G1 X81.895 Y156.733 E45.15877
G1 X81.745 Y156.332 E45.16465
G1 X81.665 Y155.73 E45.17298
G1 X81.665 Y64.27 E46.42779
G1 X81.705 Y63.843 E46.43368
G1 X81.823 Y63.432 E46.43954
G1 X82.016 Y63.049 E46.44543
G1 X82.276 Y62.709 E46.4513
G1 X82.595 Y62.422 E46.45719
G1 X82.962 Y62.2 E46.46307
G1 X83.363 Y62.05 E46.46895
G1 X83.965 Y61.97 E46.47728
G1 X136.035 Y61.97 E47.19167
G1 X136.462 Y62.01 E47.19755
G1 X136.873 Y62.128 E47.20342
G1 X137.256 Y62.321 E47.2093
G1 X137.596 Y62.581 E47.21518
G1 X137.883 Y62.9 E47.22106
G1 X138.105 Y63.267 E47.22695
G1 X138.255 Y63.668 E47.23282
G1 X138.335 Y64.27 E47.24115
G1 X138.335 Y155.73 E48.49597
G0 F3600 X138.535 Y155.73
G1 F1200 X138.495 Y156.175 E48.5021
G1 X138.377 Y156.606 E48.50823
G1 X138.183 Y157.009 E48.51436
G1 X137.921 Y157.371 E48.5205
G1 X137.599 Y157.68 E48.52662
G1 X137.227 Y157.927 E48.53274
G1 X136.817 Y158.105 E48.53888
G1 X136.382 Y158.206 E48.545
G1 X136.035 Y158.23 E48.54978
G1 X83.965 Y158.23 E49.26417
G1 X83.52 Y158.19 E49.2703
G1 X83.089 Y158.072 E49.27643
G1 X82.686 Y157.878 E49.28256
G1 X82.324 Y157.616 E49.28869
G1 X82.015 Y157.294 E49.29482
G1 X81.768 Y156.922 E49.30094
G1 X81.59 Y156.512 E49.30708
G1 X81.489 Y156.077 E49.3132
G1 X81.465 Y155.73 E49.31798
G1 X81.465 Y64.27 E50.57279
G1 X81.505 Y63.825 E50.57892
G1 X81.623 Y63.394 E50.58505
G1 X81.817 Y62.991 E50.59119
G1 X82.079 Y62.629 E50.59732
G1 X82.401 Y62.32 E50.60344
G1 X82.773 Y62.073 E50.60957
G1 X83.183 Y61.895 E50.6157
G1 X83.618 Y61.794 E50.62183
G1 X83.965 Y61.77 E50.6266
G1 X136.035 Y61.77 E51.34099
G1 X136.48 Y61.81 E51.34712
G1 X136.911 Y61.928 E51.35325
G1 X137.314 Y62.122 E51.35938
G1 X137.676 Y62.384 E51.36552
G1 X137.985 Y62.706 E51.37164
G1 X138.232 Y63.078 E51.37776
G1 X138.41 Y63.488 E51.3839
G1 X138.511 Y63.923 E51.39002
G1 X138.535 Y64.27 E51.3948
G1 X138.535 Y155.73 E52.64961
G0 F3600 X138.735 Y155.73
G1 F1200 X138.695 Y156.193 E52.65599
G1 X138.576 Y156.642 E52.66236
G1 X138.383 Y157.064 E52.66873
G1 X138.12 Y157.446 E52.67509
G1 X137.795 Y157.778 E52.68146
G1 X137.418 Y158.049 E52.68783
G1 X137 Y158.252 E52.69421
G1 X136.554 Y158.38 E52.70057
G1 X136.035 Y158.43 E52.70773
G1 X83.965 Y158.43 E53.42212
G1 X83.502 Y158.39 E53.42849
G1 X83.053 Y158.271 E53.43487
G1 X82.631 Y158.078 E53.44123
G1 X82.249 Y157.815 E53.4476
G1 X81.917 Y157.49 E53.45397
G1 X81.646 Y157.113 E53.46034
G1 X81.443 Y156.695 E53.46672
G1 X81.315 Y156.249 E53.47308
G1 X81.265 Y155.73 E53.48024
G1 X81.265 Y64.27 E54.73505
G1 X81.305 Y63.807 E54.74142
G1 X81.424 Y63.358 E54.7478
G1 X81.617 Y62.936 E54.75416
G1 X81.88 Y62.554 E54.76053
G1 X82.205 Y62.222 E54.7669
G1 X82.582 Y61.951 E54.77327
G1 X83 Y61.748 E54.77965
G1 X83.446 Y61.62 E54.78601
G1 X83.965 Y61.57 E54.79317
G1 X136.035 Y61.57 E55.50756
G1 X136.498 Y61.61 E55.51393
G1 X136.947 Y61.729 E55.52031
G1 X137.369 Y61.922 E55.52667
G1 X137.751 Y62.185 E55.53303
G1 X138.083 Y62.51 E55.53941
G1 X138.354 Y62.887 E55.54578
G1 X138.557 Y63.305 E55.55215
G1 X138.685 Y63.751 E55.55852
G1 X138.735 Y64.27 E55.56567
G1 X138.735 Y155.73 E56.82049
G0 F3600 X138.935 Y155.73
G1 F1200 X138.895 Y156.21 E56.8271
G1 X138.776 Y156.676 E56.83369
G1 X138.582 Y157.116 E56.84029
G1 X138.318 Y157.518 E56.84689
G1 X137.991 Y157.871 E56.85349
G1 X137.61 Y158.165 E56.86009
G1 X137.185 Y158.392 E56.8667
G1 X136.729 Y158.546 E56.87331
G1 X136.035 Y158.63 E56.8829
G1 X83.965 Y158.63 E57.59729
G1 X83.485 Y158.59 E57.6039
G1 X83.019 Y158.471 E57.6105
G1 X82.579 Y158.277 E57.61709
G1 X82.177 Y158.013 E57.62369
G1 X81.824 Y157.686 E57.63029
G1 X81.53 Y157.305 E57.6369
G1 X81.303 Y156.88 E57.64351
G1 X81.149 Y156.424 E57.65011
G1 X81.065 Y155.73 E57.6597
G1 X81.065 Y64.27 E58.91451
G1 X81.105 Y63.79 E58.92112
G1 X81.224 Y63.324 E58.92772
G1 X81.418 Y62.884 E58.93432
G1 X81.682 Y62.482 E58.94092
G1 X82.009 Y62.129 E58.94752
G1 X82.39 Y61.835 E58.95412
G1 X82.815 Y61.608 E58.96073
G1 X83.271 Y61.454 E58.96734
G1 X83.965 Y61.37 E58.97693
G1 X136.035 Y61.37 E59.69132
G1 X136.515 Y61.41 E59.69793
G1 X136.981 Y61.529 E59.70452
G1 X137.421 Y61.723 E59.71112
G1 X137.823 Y61.987 E59.71772
G1 X138.176 Y62.314 E59.72432
G1 X138.47 Y62.695 E59.73092
G1 X138.697 Y63.12 E59.73753
