;FLAVOR:Marlin
;TIME:33700
;Filament used:12.6135m
;Layer height: 0.2
;MINX:34.79
;MINY:66.54
;MINZ:0.15
;MAXX:185.21
;MAXY:153.46
;MAXZ:26.35
                               
;Creality Print GCode Generated by CXEngineDEV
;Generated Time:2022-06-30 15:03:09
;----------Machine Config--------------
;Machine Name:Creality Ender-3
;Machine Height:250
;Machine Width:220
;Machine Depth:220
;Material name:Castable
;Number of Extruders:1
;ExtruderParams[0] Nozzle Diameter1000
;----------Profile Config---------------
;Layer Height:0.2
;Wall Thickness:0.8
;Top/Bottom Thickness:1
;Out Wall Line Width:0.2
;Inner Wall Line Width:0.2
;Inital Layer Height:150
;Wall Line Count:4
;Infill Line Distance:2.5
;Infill Pattern:zigzag
;Infill Sparse Density:8
;Infill Wipe Distance:0
;Print Temperature:235
;Bed Temperature:74
;Support Enable:false
;Support Density:10
;Support Angle:0
;Adhesion Type:brim
;machine is belt:false
;machine belt offset:10
;machine belt offset Y:0
;Raft Base Line Spacing:1.6
;Wait Heatup Sync:true
;----------Shell Config----------------
;Outer Wall Wipe Distance:200
;Infill Before Walls:false
;Infill Overlap:0.08
;Fill Gaps Between Walls:everywhere
;Minimum Infill Area:1
;Top Surface Skin Layer:0
;Top Layers:3
;Z Seam Alignment:sharpest_corner
;Seam Corner Preference:z_seam_corner_inner
;Z Seam X:110
;Z Seam Y:110
;Horizontal Expansion:0
;Top/Bottom Pattern:zigzag
;Ironing Pattern:zigzag
;Vase Model:false
;----------Support Config----------------
;Support Type:everywhere
;Support Pattern:zigzag
;Support Infill Layer Thickness:0.2
;Minimum Support Area:5
;Enable Support Roof:false
;Support Roof Thickness:0.8
;Support Roof Pattern:lines
;Connect Support Lines:0
;Connect Support ZigZags:1
;Minimum Support X/Y Distance:0.2
;Support Line Distance:2
; ---------PrintSpeed & Travel----------
;Enable Print Cool:true
;Avoid Printed Parts Traveling:true
;Enable Retraction:true
;Retraction Distance:8
;Retraction Speed:100
;Retraction Prime Speed:100
;Maximum Retraction Count:100
;Minimum Extrusion Distance Window:1
;Z Hop When Retracted:false
;Z Hop Height:0.2
;Retract Before Outer Wall:true
;Print Speed:40
;Infill Speed:40

;Prime Tower Speed:40
;Travel Speed:120
;Initial Layer Speed:20
;Skirt/Brim Speed:20
;Combing Mode:off
; --------SpecialModel&Mesh Fixes--------
;Union Overlapping Volum:true
;Remove All Holes:false
;Maximum Travel Resolution:0.4
;Maximum Deviation:0.05
;Maximum Model Angle:0.872665
;IS Mold Print:false
;Make Overhang Printable:false
;Enable Coasting:false
;Coasting Volumes:0.06
;Coasting Speed:0.9
;Raft AirGap:0.25
;Layer0 ZOverLap:0.13
;---------------------End of Head--------------------------
M140 S74
M105
M104 S235
M105
M109 S235
M105
M190 S74
M82 ;absolute extrusion mode
M220 S100 ;Reset Feedrate
M221 S100 ;Reset Flowrate

G28 ;Home

G92 E0 ;Reset Extruder
G1 Z2.0 F3000 ;Move Z Axis up
G1 X10.1 Y20 Z0.28 F5000.0 ;Move to start position
G1 X10.1 Y145.0 Z0.28 F1500.0 E15 ;Draw the first line
G1 X10.4 Y145.0 Z0.28 F5000.0 ;Move to side a little
G1 X10.4 Y20 Z0.28 F1500.0 E30 ;Draw the second line
G92 E0  ;Reset Extruder
G1 E-1.0000 F1800 ;Retract a bit
G1 Z2.0 F3000 ;Move Z Axis up
G1 E0.0000 F1800 

G92 E0
G92 E0
G1 F6000 E-8

;LAYER_COUNT:132

;LAYER:0
M107
G0 F3600 X38.464 Y67.765 Z0.15
;;retract;;
G0 X42.144 Y74.002
;TYPE:SKIRT
G1 F6000 E0
G1 F1200 X42.539 Y73.756 E0.00638
G1 X42.69 Y73.74 E0.00847
G1 X177.31 Y73.74 E1.85543
G1 X177.748 Y73.894 E1.8618
G1 X177.994 Y74.289 E1.86818
G1 X178.01 Y74.44 E1.87027
G1 X178.01 Y145.56 E2.84602
G1 X177.856 Y145.998 E2.85239
G1 X177.461 Y146.244 E2.85877
G1 X177.31 Y146.26 E2.86086
G1 X111.198 Y146.245 E3.7679
G1 X42.69 Y146.243 E4.70782
G1 X42.251 Y146.089 E4.7142
G1 X42.006 Y145.694 E4.72058
G1 X41.99 Y145.543 E4.72266
G1 X41.99 Y74.44 E5.69818
G1 X42.144 Y74.002 E5.70455
G0 F3600 X42.342 Y74.081
G1 F1200 X42.69 Y73.94 E5.7097
G1 X177.31 Y73.94 E7.55666
G1 X177.669 Y74.092 E7.56201
G1 X177.81 Y74.44 E7.56716
G1 X177.81 Y145.56 E8.54291
G1 X177.658 Y145.919 E8.54826
G1 X177.31 Y146.06 E8.55341
G1 X111.198 Y146.045 E9.46046
G1 X42.69 Y146.043 E10.40037
G1 X42.331 Y145.891 E10.40572
G1 X42.19 Y145.543 E10.41087
G1 X42.19 Y74.44 E11.38639
G1 X42.342 Y74.081 E11.39174
G0 F3600 X42.537 Y74.182
G1 F1200 X42.69 Y74.14 E11.39392
G1 X177.31 Y74.14 E13.24088
G1 X177.568 Y74.287 E13.24495
G1 X177.61 Y74.44 E13.24713
G1 X177.61 Y145.56 E14.22288
G1 X177.463 Y145.818 E14.22696
G1 X177.31 Y145.86 E14.22913
G1 X111.198 Y145.845 E15.13618
G1 X42.69 Y145.843 E16.07609
G1 X42.432 Y145.696 E16.08017
G1 X42.39 Y145.543 E16.08234
G1 X42.39 Y74.44 E17.05786
G1 X42.537 Y74.182 E17.06194
G0 F3600 X42.69 Y74.34
G1 F1200 X177.31 Y74.34 E18.9089
G1 X177.41 Y74.44 E18.91084
G1 X177.41 Y145.56 E19.88659
G1 X177.31 Y145.66 E19.88853
G1 X111.198 Y145.645 E20.79557
G1 X42.69 Y145.643 E21.73549
G1 X42.59 Y145.543 E21.73743
G1 X42.59 Y74.44 E22.71295
G1 X42.69 Y74.34 E22.71489
;;retract;;
G1 F6000 E14.71489
G0 F3600 X111.198 Y146.445
G1 F6000 E22.71489
G1 F1200 X42.69 Y146.443 E23.65481
G1 X42.425 Y146.403 E23.65848
G1 X42.184 Y146.287 E23.66215
G1 X41.988 Y146.106 E23.66581
G1 X41.853 Y145.874 E23.6695
G1 X41.79 Y145.543 E23.67412
G1 X41.79 Y74.44 E24.64964
G1 X41.83 Y74.175 E24.65332
G1 X41.946 Y73.934 E24.65699
G1 X42.127 Y73.738 E24.66065
G1 X42.359 Y73.603 E24.66433
G1 X42.69 Y73.54 E24.66895
G1 X177.31 Y73.54 E26.51591
G1 X177.575 Y73.58 E26.51959
G1 X177.816 Y73.696 E26.52326
G1 X178.012 Y73.877 E26.52692
G1 X178.147 Y74.109 E26.5306
G1 X178.21 Y74.44 E26.53522
G1 X178.21 Y145.56 E27.51098
G1 X178.17 Y145.825 E27.51465
G1 X178.054 Y146.066 E27.51832
G1 X177.873 Y146.262 E27.52198
G1 X177.641 Y146.397 E27.52567
G1 X177.31 Y146.46 E27.53029
G1 X111.198 Y146.445 E28.43733
G0 F3600 X111.198 Y146.645
G1 F1200 X42.69 Y146.643 E29.37725
G1 X42.396 Y146.603 E29.38132
G1 X42.124 Y146.486 E29.38538
G1 X41.893 Y146.302 E29.38943
G1 X41.72 Y146.062 E29.39349
G1 X41.617 Y145.784 E29.39756
G1 X41.59 Y145.543 E29.40089
G1 X41.59 Y74.44 E30.37641
G1 X41.63 Y74.147 E30.38046
G1 X41.746 Y73.875 E30.38452
G1 X41.931 Y73.644 E30.38858
G1 X42.171 Y73.47 E30.39265
G1 X42.448 Y73.367 E30.3967
G1 X42.69 Y73.34 E30.40004
G1 X177.31 Y73.34 E32.247
G1 X177.603 Y73.38 E32.25106
G1 X177.875 Y73.496 E32.25512
G1 X178.106 Y73.681 E32.25918
G1 X178.28 Y73.921 E32.26325
G1 X178.383 Y74.198 E32.2673
G1 X178.41 Y74.44 E32.27064
G1 X178.41 Y145.56 E33.24639
G1 X178.37 Y145.853 E33.25045
G1 X178.254 Y146.125 E33.25451
G1 X178.069 Y146.356 E33.25857
G1 X177.829 Y146.53 E33.26263
G1 X177.552 Y146.633 E33.26669
G1 X177.31 Y146.66 E33.27003
G1 X111.198 Y146.645 E34.17707
G0 F3600 X111.198 Y146.845
G1 F1200 X42.69 Y146.843 E35.11699
G1 X42.37 Y146.803 E35.12142
G1 X42.071 Y146.686 E35.12582
G1 X41.809 Y146.499 E35.13024
G1 X41.601 Y146.253 E35.13466
G1 X41.46 Y145.964 E35.13907
G1 X41.39 Y145.543 E35.14492
G1 X41.39 Y74.44 E36.12044
G1 X41.43 Y74.121 E36.12485
G1 X41.547 Y73.821 E36.12927
G1 X41.734 Y73.559 E36.13369
G1 X41.98 Y73.351 E36.13811
G1 X42.269 Y73.21 E36.14252
G1 X42.69 Y73.14 E36.14837
G1 X177.31 Y73.14 E37.99533
G1 X177.629 Y73.18 E37.99975
G1 X177.929 Y73.297 E38.00416
G1 X178.191 Y73.484 E38.00858
G1 X178.399 Y73.73 E38.013
G1 X178.54 Y74.019 E38.01741
G1 X178.61 Y74.44 E38.02327
G1 X178.61 Y145.56 E38.99902
G1 X178.57 Y145.879 E39.00343
G1 X178.453 Y146.179 E39.00785
G1 X178.266 Y146.441 E39.01226
G1 X178.02 Y146.649 E39.01668
G1 X177.731 Y146.79 E39.0211
G1 X177.31 Y146.86 E39.02695
G1 X111.198 Y146.845 E39.934
G0 F3600 X111.198 Y147.045
G1 F1200 X42.69 Y147.043 E40.87391
G1 X42.346 Y147.003 E40.87866
G1 X42.021 Y146.886 E40.8834
G1 X41.731 Y146.697 E40.88815
G1 X41.493 Y146.446 E40.8929
G1 X41.317 Y146.148 E40.89765
G1 X41.215 Y145.818 E40.90238
G1 X41.19 Y145.543 E40.90617
G1 X41.19 Y74.44 E41.88169
G1 X41.23 Y74.096 E41.88644
G1 X41.347 Y73.771 E41.89118
G1 X41.536 Y73.481 E41.89593
G1 X41.786 Y73.243 E41.90067
G1 X42.085 Y73.068 E41.90542
G1 X42.415 Y72.965 E41.91016
G1 X42.69 Y72.94 E41.91395
G1 X177.31 Y72.94 E43.76091
G1 X177.654 Y72.98 E43.76566
G1 X177.979 Y73.097 E43.7704
G1 X178.269 Y73.286 E43.77515
G1 X178.507 Y73.536 E43.77989
G1 X178.682 Y73.835 E43.78464
G1 X178.785 Y74.165 E43.78938
G1 X178.81 Y74.44 E43.79317
G1 X178.81 Y145.56 E44.76892
G1 X178.77 Y145.904 E44.77368
G1 X178.653 Y146.229 E44.77842
G1 X178.464 Y146.519 E44.78316
G1 X178.214 Y146.757 E44.7879
G1 X177.915 Y146.932 E44.79265
G1 X177.585 Y147.035 E44.7974
G1 X177.31 Y147.06 E44.80118
G1 X111.198 Y147.045 E45.70823
G0 F3600 X111.198 Y147.245
G1 F1200 X42.69 Y147.243 E46.64815
G1 X42.324 Y147.203 E46.6532
G1 X41.975 Y147.085 E46.65825
G1 X41.659 Y146.895 E46.66331
G1 X41.392 Y146.641 E46.66837
G1 X41.186 Y146.336 E46.67342
G1 X41.051 Y145.994 E46.67846
G1 X40.99 Y145.543 E46.6847
G1 X40.99 Y74.44 E47.66022
G1 X41.03 Y74.074 E47.66527
G1 X41.148 Y73.725 E47.67033
G1 X41.338 Y73.41 E47.67538
G1 X41.591 Y73.143 E47.68042
G1 X41.897 Y72.937 E47.68548
G1 X42.239 Y72.801 E47.69053
G1 X42.69 Y72.74 E47.69678
G1 X177.31 Y72.74 E49.54374
G1 X177.676 Y72.78 E49.54879
G1 X178.025 Y72.898 E49.55384
G1 X178.34 Y73.088 E49.55889
G1 X178.607 Y73.341 E49.56394
G1 X178.813 Y73.647 E49.569
G1 X178.949 Y73.989 E49.57405
G1 X179.01 Y74.44 E49.58029
G1 X179.01 Y145.56 E50.55604
G1 X178.97 Y145.926 E50.5611
G1 X178.852 Y146.275 E50.56615
G1 X178.662 Y146.59 E50.5712
G1 X178.409 Y146.857 E50.57624
G1 X178.103 Y147.063 E50.5813
G1 X177.761 Y147.199 E50.58635
G1 X177.31 Y147.26 E50.5926
G1 X111.198 Y147.245 E51.49964
G0 F3600 X111.198 Y147.445
G1 F1200 X42.69 Y147.443 E52.43956
G1 X42.302 Y147.403 E52.44491
G1 X41.931 Y147.285 E52.45025
G1 X41.592 Y147.094 E52.45559
G1 X41.299 Y146.837 E52.46094
G1 X41.064 Y146.527 E52.46627
G1 X40.898 Y146.175 E52.47161
G1 X40.807 Y145.796 E52.47696
G1 X40.79 Y145.543 E52.48044
G1 X40.79 Y74.44 E53.45596
G1 X40.83 Y74.053 E53.4613
G1 X40.948 Y73.682 E53.46664
G1 X41.139 Y73.342 E53.47199
G1 X41.395 Y73.049 E53.47733
G1 X41.706 Y72.815 E53.48267
G1 X42.058 Y72.648 E53.48801
G1 X42.437 Y72.557 E53.49336
G1 X42.69 Y72.54 E53.49684
G1 X177.31 Y72.54 E55.3438
G1 X177.697 Y72.58 E55.34914
G1 X178.068 Y72.698 E55.35448
G1 X178.408 Y72.889 E55.35983
G1 X178.701 Y73.145 E55.36517
G1 X178.935 Y73.456 E55.37051
G1 X179.102 Y73.808 E55.37585
G1 X179.193 Y74.187 E55.3812
G1 X179.21 Y74.44 E55.38468
G1 X179.21 Y145.56 E56.36043
G1 X179.17 Y145.947 E56.36577
G1 X179.052 Y146.318 E56.37111
G1 X178.861 Y146.658 E56.37646
G1 X178.605 Y146.951 E56.3818
G1 X178.294 Y147.185 E56.38714
G1 X177.942 Y147.352 E56.39248
G1 X177.563 Y147.443 E56.39783
G1 X177.31 Y147.46 E56.40131
G1 X111.198 Y147.445 E57.30835
G0 F3600 X111.198 Y147.645
G1 F1200 X42.69 Y147.643 E58.24827
G1 X42.282 Y147.603 E58.25389
G1 X41.89 Y147.485 E58.25951
G1 X41.529 Y147.293 E58.26512
G1 X41.211 Y147.034 E58.27075
G1 X40.95 Y146.719 E58.27636
G1 X40.755 Y146.359 E58.28198
G1 X40.633 Y145.968 E58.2876
G1 X40.59 Y145.543 E58.29346
G1 X40.59 Y74.44 E59.26898
G1 X40.63 Y74.033 E59.27459
G1 X40.748 Y73.641 E59.2802
G1 X40.94 Y73.279 E59.28583
G1 X41.199 Y72.962 E59.29144
G1 X41.514 Y72.7 E59.29706
G1 X41.874 Y72.505 E59.30268
G1 X42.265 Y72.384 E59.3083
G1 X42.69 Y72.34 E59.31416
G1 X177.31 Y72.34 E61.16112
G1 X177.717 Y72.38 E61.16673
G1 X178.109 Y72.498 E61.17235
G1 X178.471 Y72.69 E61.17797
G1 X178.788 Y72.949 E61.18358
G1 X179.05 Y73.264 E61.18921
G1 X179.245 Y73.624 E61.19482
G1 X179.366 Y74.015 E61.20044
G1 X179.41 Y74.44 E61.2063
G1 X179.41 Y145.56 E62.18205
G1 X179.37 Y145.967 E62.18766
G1 X179.252 Y146.359 E62.19328
G1 X179.06 Y146.721 E62.1989
G1 X178.801 Y147.038 E62.20452
G1 X178.486 Y147.3 E62.21014
G1 X178.126 Y147.495 E62.21576
G1 X177.735 Y147.616 E62.22137
G1 X177.31 Y147.66 E62.22723
G1 X111.198 Y147.645 E63.13428
G0 F3600 X111.197 Y147.845
G1 F1200 X42.689 Y147.843 E64.07419
G1 X42.263 Y147.803 E64.08006
G1 X41.851 Y147.685 E64.08594
G1 X41.468 Y147.492 E64.09183
G1 X41.128 Y147.231 E64.09771
G1 X40.842 Y146.912 E64.10359
G1 X40.62 Y146.546 E64.10946
G1 X40.47 Y146.144 E64.11535
G1 X40.39 Y145.543 E64.12367
G1 X40.39 Y74.44 E65.09918
G1 X40.43 Y74.013 E65.10507
G1 X40.548 Y73.602 E65.11094
G1 X40.741 Y73.219 E65.11682
G1 X41.001 Y72.879 E65.12269
G1 X41.32 Y72.592 E65.12858
G1 X41.687 Y72.37 E65.13446
G1 X42.088 Y72.22 E65.14034
G1 X42.69 Y72.14 E65.14867
G1 X177.31 Y72.14 E66.99563
G1 X177.737 Y72.18 E67.00151
G1 X178.148 Y72.298 E67.00738
G1 X178.531 Y72.491 E67.01326
G1 X178.871 Y72.751 E67.01914
G1 X179.158 Y73.07 E67.02502
G1 X179.38 Y73.437 E67.03091
G1 X179.53 Y73.838 E67.03678
G1 X179.61 Y74.44 E67.04511
G1 X179.61 Y145.56 E68.02087
G1 X179.57 Y145.987 E68.02675
G1 X179.452 Y146.398 E68.03262
G1 X179.259 Y146.781 E68.0385
G1 X178.999 Y147.121 E68.04437
G1 X178.68 Y147.408 E68.05026
G1 X178.313 Y147.63 E68.05615
G1 X177.912 Y147.78 E68.06202
G1 X177.309 Y147.86 E68.07037
G1 X111.197 Y147.845 E68.97741
G0 F3600 X111.197 Y148.045
G1 F1200 X42.689 Y148.043 E69.91733
G1 X42.244 Y148.003 E69.92346
G1 X41.814 Y147.884 E69.92958
G1 X41.411 Y147.691 E69.93571
G1 X41.049 Y147.429 E69.94184
G1 X40.74 Y147.107 E69.94796
G1 X40.492 Y146.735 E69.9541
G1 X40.315 Y146.325 E69.96022
G1 X40.214 Y145.889 E69.96636
G1 X40.19 Y145.543 E69.97112
G1 X40.19 Y74.44 E70.94664
G1 X40.23 Y73.995 E70.95277
G1 X40.348 Y73.564 E70.9589
G1 X40.542 Y73.161 E70.96504
G1 X40.804 Y72.799 E70.97117
G1 X41.126 Y72.49 E70.97729
G1 X41.498 Y72.243 E70.98342
G1 X41.908 Y72.065 E70.98955
G1 X42.343 Y71.964 E70.99568
G1 X42.69 Y71.94 E71.00045
G1 X177.31 Y71.94 E72.84741
G1 X177.755 Y71.98 E72.85354
G1 X178.186 Y72.098 E72.85967
G1 X178.589 Y72.292 E72.86581
G1 X178.951 Y72.554 E72.87194
G1 X179.26 Y72.876 E72.87806
G1 X179.507 Y73.248 E72.88419
G1 X179.685 Y73.658 E72.89032
G1 X179.786 Y74.093 E72.89645
G1 X179.81 Y74.44 E72.90122
G1 X179.81 Y145.56 E73.87697
G1 X179.77 Y146.005 E73.8831
G1 X179.652 Y146.436 E73.88923
G1 X179.458 Y146.839 E73.89537
G1 X179.196 Y147.201 E73.9015
G1 X178.874 Y147.51 E73.90762
G1 X178.502 Y147.757 E73.91375
G1 X178.092 Y147.935 E73.91988
G1 X177.657 Y148.036 E73.92601
G1 X177.309 Y148.06 E73.93079
G1 X111.197 Y148.045 E74.83784
G0 F3600 X111.197 Y148.245
G1 F1200 X42.689 Y148.243 E75.77775
G1 X42.227 Y148.203 E75.78412
G1 X41.778 Y148.084 E75.79049
G1 X41.356 Y147.89 E75.79686
G1 X40.973 Y147.627 E75.80323
G1 X40.642 Y147.302 E75.8096
G1 X40.371 Y146.925 E75.81597
G1 X40.168 Y146.507 E75.82234
G1 X40.04 Y146.061 E75.82871
G1 X39.99 Y145.543 E75.83585
G1 X39.99 Y74.44 E76.81137
G1 X40.03 Y73.977 E76.81775
G1 X40.149 Y73.528 E76.82412
G1 X40.342 Y73.106 E76.83049
G1 X40.605 Y72.724 E76.83685
G1 X40.93 Y72.392 E76.84322
G1 X41.307 Y72.121 E76.84959
G1 X41.725 Y71.918 E76.85597
G1 X42.171 Y71.79 E76.86233
G1 X42.69 Y71.74 E76.86949
G1 X177.31 Y71.74 E78.71645
G1 X177.773 Y71.78 E78.72282
G1 X178.222 Y71.899 E78.7292
G1 X178.644 Y72.092 E78.73556
G1 X179.026 Y72.355 E78.74193
G1 X179.358 Y72.68 E78.7483
G1 X179.629 Y73.057 E78.75467
G1 X179.832 Y73.475 E78.76105
G1 X179.96 Y73.921 E78.76741
G1 X180.01 Y74.44 E78.77457
G1 X180.01 Y145.56 E79.75032
G1 X179.97 Y146.023 E79.75669
G1 X179.851 Y146.472 E79.76307
G1 X179.658 Y146.894 E79.76943
G1 X179.395 Y147.276 E79.7758
G1 X179.07 Y147.608 E79.78217
G1 X178.693 Y147.879 E79.78854
G1 X178.275 Y148.082 E79.79492
G1 X177.829 Y148.21 E79.80128
G1 X177.309 Y148.26 E79.80845
G1 X111.197 Y148.245 E80.71549
G0 F3600 X111.197 Y148.445
G1 F1200 X42.689 Y148.443 E81.65541
G1 X42.21 Y148.403 E81.662
G1 X41.743 Y148.284 E81.66862
G1 X41.303 Y148.09 E81.67521
G1 X40.901 Y147.825 E81.68182
G1 X40.548 Y147.498 E81.68842
G1 X40.254 Y147.117 E81.69502
G1 X40.028 Y146.693 E81.70162
G1 X39.874 Y146.236 E81.70823
G1 X39.79 Y145.543 E81.71781
G1 X39.79 Y74.44 E82.69333
G1 X39.83 Y73.96 E82.69994
G1 X39.949 Y73.494 E82.70654
G1 X40.143 Y73.054 E82.71313
G1 X40.407 Y72.652 E82.71973
G1 X40.734 Y72.299 E82.72633
G1 X41.115 Y72.005 E82.73294
G1 X41.54 Y71.778 E82.73955
G1 X41.996 Y71.624 E82.74615
G1 X42.69 Y71.54 E82.75574
G1 X177.31 Y71.54 E84.6027
G1 X177.79 Y71.58 E84.60931
G1 X178.256 Y71.699 E84.61591
