;FLAVOR:Marlin
;TIME:14514
;Filament used:5.18783m
;Layer height: 0.2
;MINX:76.702
;MINY:64.226
;MINZ:0.15
;MAXX:143.3
;MAXY:155.995
;MAXZ:24.75
                             
;Creality Print GCode Generated by CXEngineDEV
;Generated Time:2022-06-30 15:03:09
;----------Machine Config--------------
;Machine Name:Creality Ender-3
;Machine Height:250
;Machine Width:220
;Machine Depth:220
;Material name:Castable
;Number of Extruders:1
;ExtruderParams[0] Nozzle Diameter1000
;----------Profile Config---------------
;Layer Height:0.2
;Wall Thickness:0.8
;Top/Bottom Thickness:1
;Out Wall Line Width:0.2
;Inner Wall Line Width:0.2
;Inital Layer Height:150
;Wall Line Count:4
;Infill Line Distance:2
;Infill Pattern:zigzag
;Infill Sparse Density:10
;Infill Wipe Distance:0
;Print Temperature:235
;Bed Temperature:74
;Support Enable:false
;Support Density:10
;Support Angle:0
;Adhesion Type:brim
;machine is belt:false
;machine belt offset:10
;machine belt offset Y:0
;Raft Base Line Spacing:1.6
;Wait Heatup Sync:true
;----------Shell Config----------------
;Outer Wall Wipe Distance:200
;Infill Before Walls:false
;Infill Overlap:0.08
;Fill Gaps Between Walls:everywhere
;Minimum Infill Area:1
;Top Surface Skin Layer:0
;Top Layers:3
;Z Seam Alignment:sharpest_corner
;Seam Corner Preference:z_seam_corner_inner
;Z Seam X:110
;Z Seam Y:110
;Horizontal Expansion:0
;Top/Bottom Pattern:zigzag
;Ironing Pattern:zigzag
;Vase Model:false
;----------Support Config----------------
;Support Type:everywhere
;Support Pattern:zigzag
;Support Infill Layer Thickness:0.2
;Minimum Support Area:5
;Enable Support Roof:false
;Support Roof Thickness:0.8
;Support Roof Pattern:lines
;Connect Support Lines:0
;Connect Support ZigZags:1
;Minimum Support X/Y Distance:0.2
;Support Line Distance:2
; ---------PrintSpeed & Travel----------
;Enable Print Cool:true
;Avoid Printed Parts Traveling:true
;Enable Retraction:true
;Retraction Distance:8
;Retraction Speed:100
;Retraction Prime Speed:100
;Maximum Retraction Count:100
;Minimum Extrusion Distance Window:1
;Z Hop When Retracted:false
;Z Hop Height:0.2
;Retract Before Outer Wall:true
;Print Speed:40
;Infill Speed:40

;Prime Tower Speed:40
;Travel Speed:120
;Initial Layer Speed:20
;Skirt/Brim Speed:20
;Combing Mode:off
; --------SpecialModel&Mesh Fixes--------
;Union Overlapping Volum:true
;Remove All Holes:false
;Maximum Travel Resolution:0.4
;Maximum Deviation:0.05
;Maximum Model Angle:0.872665
;IS Mold Print:false
;Make Overhang Printable:false
;Enable Coasting:false
;Coasting Volumes:0.06
;Coasting Speed:0.9
;Raft AirGap:0.25
;Layer0 ZOverLap:0.13
;---------------------End of Head--------------------------
M140 S74
M105
M104 S235
M105
M109 S235
M105
M190 S74
M82 ;absolute extrusion mode
M220 S100 ;Reset Feedrate
M221 S100 ;Reset Flowrate

G28 ;Home

G92 E0 ;Reset Extruder
G1 Z2.0 F3000 ;Move Z Axis up
G1 X10.1 Y20 Z0.28 F5000.0 ;Move to start position
G1 X10.1 Y145.0 Z0.28 F1500.0 E15 ;Draw the first line
G1 X10.4 Y145.0 Z0.28 F5000.0 ;Move to side a little
G1 X10.4 Y20 Z0.28 F1500.0 E30 ;Draw the second line
G92 E0  ;Reset Extruder
G1 E-1.0000 F1800 ;Retract a bit
G1 Z2.0 F3000 ;Move Z Axis up
G1 E0.0000 F1800 

G92 E0
G92 E0
G1 F6000 E-8

;LAYER_COUNT:125

;LAYER:0
M107
G0 F3600 X78.583 Y67.01 Z0.15
;;retract;;
G0 X135.5 Y148.095
;TYPE:SKIRT
G1 F6000 E0
G1 F1200 X135.4 Y148.195 E0.00194
G1 X84.602 Y148.195 E0.69888
G1 X84.502 Y148.095 E0.70082
G1 X84.502 Y72.126 E1.7431
G1 X84.602 Y72.026 E1.74504
G1 X135.4 Y72.026 E2.44198
G1 X135.5 Y72.126 E2.44392
G1 X135.5 Y148.095 E3.4862
G0 F3600 X135.7 Y148.095
G1 F1200 X135.553 Y148.353 E3.49027
G1 X135.4 Y148.395 E3.49245
G1 X84.602 Y148.395 E4.18939
G1 X84.344 Y148.248 E4.19346
G1 X84.302 Y148.095 E4.19564
G1 X84.302 Y72.126 E5.23792
G1 X84.449 Y71.868 E5.24199
G1 X84.602 Y71.826 E5.24417
G1 X135.4 Y71.826 E5.94111
G1 X135.658 Y71.973 E5.94518
G1 X135.7 Y72.126 E5.94736
G1 X135.7 Y148.095 E6.98964
G0 F3600 X135.9 Y148.095
G1 F1200 X135.748 Y148.454 E6.99499
G1 X135.4 Y148.595 E7.00014
G1 X84.602 Y148.595 E7.69708
G1 X84.243 Y148.443 E7.70243
G1 X84.102 Y148.095 E7.70758
G1 X84.102 Y72.126 E8.74986
G1 X84.254 Y71.767 E8.75521
G1 X84.602 Y71.626 E8.76036
G1 X135.4 Y71.626 E9.4573
G1 X135.759 Y71.778 E9.46265
G1 X135.9 Y72.126 E9.4678
G1 X135.9 Y148.095 E10.51008
G0 F3600 X136.1 Y148.095
G1 F1200 X135.946 Y148.533 E10.51645
G1 X135.551 Y148.779 E10.52283
G1 X135.4 Y148.795 E10.52491
G1 X84.602 Y148.795 E11.22185
G1 X84.164 Y148.641 E11.22822
G1 X83.918 Y148.246 E11.23461
G1 X83.902 Y148.095 E11.23669
G1 X83.902 Y72.126 E12.27897
G1 X84.056 Y71.688 E12.28534
G1 X84.451 Y71.442 E12.29172
G1 X84.602 Y71.426 E12.29381
G1 X135.4 Y71.426 E12.99075
G1 X135.838 Y71.58 E12.99712
G1 X136.084 Y71.975 E13.0035
G1 X136.1 Y72.126 E13.00558
G1 X136.1 Y148.095 E14.04786
G0 F3600 X136.3 Y148.095
G1 F1200 X136.26 Y148.36 E14.05154
G1 X136.144 Y148.601 E14.05521
G1 X135.963 Y148.797 E14.05887
G1 X135.731 Y148.932 E14.06255
G1 X135.4 Y148.995 E14.06718
G1 X84.602 Y148.995 E14.76411
G1 X84.337 Y148.955 E14.76779
G1 X84.096 Y148.839 E14.77146
G1 X83.9 Y148.658 E14.77512
G1 X83.765 Y148.426 E14.7788
G1 X83.702 Y148.095 E14.78343
G1 X83.702 Y72.126 E15.82571
G1 X83.742 Y71.861 E15.82938
G1 X83.858 Y71.62 E15.83305
G1 X84.039 Y71.424 E15.83671
G1 X84.271 Y71.289 E15.8404
G1 X84.602 Y71.226 E15.84502
G1 X135.4 Y71.226 E16.54196
G1 X135.665 Y71.266 E16.54563
G1 X135.906 Y71.382 E16.5493
G1 X136.102 Y71.563 E16.55296
G1 X136.237 Y71.795 E16.55665
G1 X136.3 Y72.126 E16.56127
G1 X136.3 Y148.095 E17.60355
G0 F3600 X136.5 Y148.095
G1 F1200 X136.46 Y148.388 E17.60761
G1 X136.344 Y148.66 E17.61166
G1 X136.159 Y148.891 E17.61572
G1 X135.919 Y149.065 E17.61979
G1 X135.642 Y149.168 E17.62385
G1 X135.4 Y149.195 E17.62719
G1 X84.602 Y149.195 E18.32413
G1 X84.309 Y149.155 E18.32818
G1 X84.037 Y149.039 E18.33224
G1 X83.806 Y148.854 E18.3363
G1 X83.632 Y148.614 E18.34037
G1 X83.529 Y148.337 E18.34442
G1 X83.502 Y148.095 E18.34776
G1 X83.502 Y72.126 E19.39004
G1 X83.542 Y71.833 E19.3941
G1 X83.658 Y71.561 E19.39816
G1 X83.843 Y71.33 E19.40222
G1 X84.083 Y71.156 E19.40628
G1 X84.36 Y71.053 E19.41034
G1 X84.602 Y71.026 E19.41368
G1 X135.4 Y71.026 E20.11062
G1 X135.693 Y71.066 E20.11468
G1 X135.965 Y71.182 E20.11873
G1 X136.196 Y71.367 E20.12279
G1 X136.37 Y71.607 E20.12686
G1 X136.473 Y71.884 E20.13091
G1 X136.5 Y72.126 E20.13426
G1 X136.5 Y148.095 E21.17654
G0 F3600 X136.7 Y148.095
G1 F1200 X136.66 Y148.414 E21.18095
G1 X136.543 Y148.714 E21.18536
G1 X136.356 Y148.976 E21.18978
G1 X136.11 Y149.184 E21.1942
G1 X135.821 Y149.325 E21.19861
G1 X135.4 Y149.395 E21.20447
G1 X84.602 Y149.395 E21.90141
G1 X84.283 Y149.355 E21.90582
G1 X83.983 Y149.238 E21.91023
G1 X83.721 Y149.051 E21.91465
G1 X83.513 Y148.805 E21.91907
G1 X83.372 Y148.516 E21.92348
G1 X83.302 Y148.095 E21.92934
G1 X83.302 Y72.126 E22.97162
G1 X83.342 Y71.807 E22.97603
G1 X83.459 Y71.507 E22.98045
G1 X83.646 Y71.245 E22.98486
G1 X83.892 Y71.037 E22.98928
G1 X84.181 Y70.896 E22.99369
G1 X84.602 Y70.826 E22.99955
G1 X135.4 Y70.826 E23.69649
G1 X135.719 Y70.866 E23.7009
G1 X136.019 Y70.983 E23.70532
G1 X136.281 Y71.17 E23.70973
G1 X136.489 Y71.416 E23.71415
G1 X136.63 Y71.705 E23.71857
G1 X136.7 Y72.126 E23.72442
G1 X136.7 Y148.095 E24.7667
G0 F3600 X136.9 Y148.095
G1 F1200 X136.86 Y148.439 E24.77145
G1 X136.743 Y148.764 E24.77619
G1 X136.554 Y149.054 E24.78094
G1 X136.304 Y149.292 E24.78568
G1 X136.005 Y149.467 E24.79043
G1 X135.675 Y149.57 E24.79517
G1 X135.4 Y149.595 E24.79896
G1 X84.602 Y149.595 E25.4959
G1 X84.258 Y149.555 E25.50065
G1 X83.933 Y149.438 E25.50539
G1 X83.643 Y149.249 E25.51014
G1 X83.405 Y148.999 E25.51487
G1 X83.23 Y148.7 E25.51963
G1 X83.127 Y148.37 E25.52437
G1 X83.102 Y148.095 E25.52816
G1 X83.102 Y72.126 E26.57044
G1 X83.142 Y71.782 E26.57519
G1 X83.259 Y71.457 E26.57993
G1 X83.448 Y71.167 E26.58468
G1 X83.698 Y70.929 E26.58941
G1 X83.997 Y70.754 E26.59417
G1 X84.327 Y70.651 E26.59891
G1 X84.602 Y70.626 E26.6027
G1 X135.4 Y70.626 E27.29964
G1 X135.744 Y70.666 E27.30439
G1 X136.069 Y70.783 E27.30913
G1 X136.359 Y70.972 E27.31388
G1 X136.597 Y71.222 E27.31861
G1 X136.772 Y71.521 E27.32337
G1 X136.875 Y71.851 E27.32811
G1 X136.9 Y72.126 E27.3319
G1 X136.9 Y148.095 E28.37418
G0 F3600 X137.1 Y148.095
G1 F1200 X137.06 Y148.461 E28.37923
G1 X136.942 Y148.81 E28.38428
G1 X136.752 Y149.125 E28.38933
G1 X136.499 Y149.392 E28.39438
G1 X136.193 Y149.598 E28.39944
G1 X135.851 Y149.734 E28.40449
G1 X135.4 Y149.795 E28.41073
G1 X84.602 Y149.795 E29.10767
G1 X84.236 Y149.755 E29.11272
G1 X83.887 Y149.637 E29.11778
G1 X83.572 Y149.447 E29.12282
G1 X83.305 Y149.194 E29.12787
G1 X83.099 Y148.888 E29.13293
G1 X82.963 Y148.546 E29.13798
G1 X82.902 Y148.095 E29.14422
G1 X82.902 Y72.126 E30.1865
G1 X82.942 Y71.76 E30.19156
G1 X83.06 Y71.411 E30.19661
G1 X83.25 Y71.096 E30.20166
G1 X83.503 Y70.829 E30.2067
G1 X83.809 Y70.623 E30.21176
G1 X84.151 Y70.487 E30.21681
G1 X84.602 Y70.426 E30.22306
G1 X135.4 Y70.426 E30.92
G1 X135.766 Y70.466 E30.92505
G1 X136.115 Y70.584 E30.9301
G1 X136.43 Y70.774 E30.93515
G1 X136.697 Y71.027 E30.9402
G1 X136.903 Y71.333 E30.94526
G1 X137.039 Y71.675 E30.95031
G1 X137.1 Y72.126 E30.95655
G1 X137.1 Y148.095 E31.99883
G0 F3600 X137.3 Y148.095
G1 F1200 X137.26 Y148.482 E32.00417
G1 X137.142 Y148.853 E32.00951
G1 X136.951 Y149.193 E32.01486
G1 X136.695 Y149.486 E32.0202
G1 X136.384 Y149.72 E32.02554
G1 X136.032 Y149.887 E32.03088
G1 X135.653 Y149.978 E32.03623
G1 X135.4 Y149.995 E32.03971
G1 X84.602 Y149.995 E32.73665
G1 X84.215 Y149.955 E32.74199
G1 X83.844 Y149.837 E32.74733
G1 X83.504 Y149.646 E32.75268
G1 X83.211 Y149.39 E32.75802
G1 X82.977 Y149.079 E32.76336
G1 X82.81 Y148.727 E32.7687
G1 X82.719 Y148.348 E32.77405
G1 X82.702 Y148.095 E32.77753
G1 X82.702 Y72.126 E33.81981
G1 X82.742 Y71.739 E33.82515
G1 X82.86 Y71.368 E33.83049
G1 X83.051 Y71.028 E33.83584
G1 X83.307 Y70.735 E33.84118
G1 X83.618 Y70.501 E33.84652
G1 X83.97 Y70.334 E33.85186
G1 X84.349 Y70.243 E33.85721
G1 X84.602 Y70.226 E33.86069
G1 X135.4 Y70.226 E34.55763
G1 X135.787 Y70.266 E34.56296
G1 X136.158 Y70.384 E34.5683
G1 X136.498 Y70.575 E34.57366
G1 X136.791 Y70.831 E34.57899
G1 X137.025 Y71.142 E34.58433
G1 X137.192 Y71.494 E34.58968
G1 X137.283 Y71.873 E34.59503
G1 X137.3 Y72.126 E34.5985
G1 X137.3 Y148.095 E35.64078
G0 F3600 X137.5 Y148.095
G1 F1200 X137.46 Y148.502 E35.6464
G1 X137.342 Y148.894 E35.65201
G1 X137.15 Y149.256 E35.65763
G1 X136.891 Y149.573 E35.66325
G1 X136.576 Y149.835 E35.66887
G1 X136.216 Y150.03 E35.67449
G1 X135.825 Y150.151 E35.6801
G1 X135.4 Y150.195 E35.68597
G1 X84.602 Y150.195 E36.38291
G1 X84.195 Y150.155 E36.38852
G1 X83.803 Y150.037 E36.39413
G1 X83.441 Y149.845 E36.39975
G1 X83.124 Y149.586 E36.40537
G1 X82.862 Y149.271 E36.41099
G1 X82.667 Y148.911 E36.41661
G1 X82.546 Y148.52 E36.42222
G1 X82.502 Y148.095 E36.42809
G1 X82.502 Y72.126 E37.47037
G1 X82.542 Y71.719 E37.47598
G1 X82.66 Y71.327 E37.48159
G1 X82.852 Y70.965 E37.48722
G1 X83.111 Y70.648 E37.49283
G1 X83.426 Y70.386 E37.49845
G1 X83.786 Y70.191 E37.50407
G1 X84.177 Y70.07 E37.50969
G1 X84.602 Y70.026 E37.51555
G1 X135.4 Y70.026 E38.21249
G1 X135.807 Y70.066 E38.2181
G1 X136.199 Y70.184 E38.22371
G1 X136.561 Y70.376 E38.22934
G1 X136.878 Y70.635 E38.23495
G1 X137.14 Y70.95 E38.24057
G1 X137.335 Y71.31 E38.24619
G1 X137.456 Y71.701 E38.25181
G1 X137.5 Y72.126 E38.25767
G1 X137.5 Y148.095 E39.29995
G0 F3600 X137.7 Y148.095
G1 F1200 X137.66 Y148.522 E39.30583
G1 X137.542 Y148.933 E39.3117
G1 X137.349 Y149.316 E39.31758
G1 X137.089 Y149.656 E39.32346
G1 X136.77 Y149.943 E39.32934
G1 X136.403 Y150.165 E39.33523
G1 X136.002 Y150.315 E39.3411
G1 X135.4 Y150.395 E39.34943
G1 X84.602 Y150.395 E40.04637
G1 X84.175 Y150.355 E40.05226
G1 X83.764 Y150.237 E40.05812
G1 X83.381 Y150.044 E40.06401
G1 X83.041 Y149.784 E40.06988
G1 X82.754 Y149.465 E40.07577
G1 X82.532 Y149.098 E40.08165
G1 X82.382 Y148.697 E40.08752
G1 X82.302 Y148.095 E40.09586
G1 X82.302 Y72.126 E41.13814
G1 X82.342 Y71.699 E41.14402
G1 X82.46 Y71.288 E41.14989
G1 X82.653 Y70.905 E41.15577
G1 X82.913 Y70.565 E41.16164
G1 X83.232 Y70.278 E41.16753
G1 X83.599 Y70.056 E41.17342
G1 X84 Y69.906 E41.17929
G1 X84.602 Y69.826 E41.18762
G1 X135.4 Y69.826 E41.88456
G1 X135.827 Y69.866 E41.89044
G1 X136.238 Y69.984 E41.89631
G1 X136.621 Y70.177 E41.9022
G1 X136.961 Y70.437 E41.90807
G1 X137.248 Y70.756 E41.91395
G1 X137.47 Y71.123 E41.91984
G1 X137.62 Y71.524 E41.92571
G1 X137.7 Y72.126 E41.93405
G1 X137.7 Y148.095 E42.97633
G0 F3600 X137.9 Y148.095
G1 F1200 X137.86 Y148.54 E42.98246
G1 X137.742 Y148.971 E42.98859
G1 X137.548 Y149.374 E42.99472
G1 X137.286 Y149.736 E43.00085
G1 X136.964 Y150.045 E43.00698
G1 X136.592 Y150.292 E43.0131
G1 X136.182 Y150.47 E43.01923
G1 X135.747 Y150.571 E43.02536
G1 X135.4 Y150.595 E43.03013
G1 X84.602 Y150.595 E43.72707
G1 X84.157 Y150.555 E43.7332
G1 X83.726 Y150.437 E43.73933
G1 X83.323 Y150.243 E43.74547
G1 X82.961 Y149.981 E43.7516
G1 X82.652 Y149.659 E43.75772
G1 X82.405 Y149.287 E43.76385
G1 X82.227 Y148.877 E43.76998
G1 X82.126 Y148.442 E43.77611
G1 X82.102 Y148.095 E43.78088
G1 X82.102 Y72.126 E44.82316
G1 X82.142 Y71.681 E44.82929
G1 X82.26 Y71.25 E44.83542
G1 X82.454 Y70.847 E44.84156
G1 X82.716 Y70.485 E44.84769
G1 X83.038 Y70.176 E44.85381
G1 X83.41 Y69.929 E44.85994
G1 X83.82 Y69.751 E44.86607
G1 X84.255 Y69.65 E44.8722
G1 X84.602 Y69.626 E44.87697
G1 X135.4 Y69.626 E45.57391
G1 X135.845 Y69.666 E45.58004
G1 X136.276 Y69.784 E45.58617
G1 X136.679 Y69.978 E45.59231
G1 X137.041 Y70.24 E45.59844
G1 X137.35 Y70.562 E45.60456
G1 X137.597 Y70.934 E45.61069
G1 X137.775 Y71.344 E45.61682
G1 X137.876 Y71.779 E45.62294
G1 X137.9 Y72.126 E45.62772
G1 X137.9 Y148.095 E46.67
G0 F3600 X138.1 Y148.095
G1 F1200 X138.06 Y148.558 E46.67637
G1 X137.941 Y149.007 E46.68275
G1 X137.748 Y149.429 E46.68911
G1 X137.485 Y149.811 E46.69548
G1 X137.16 Y150.143 E46.70185
G1 X136.783 Y150.414 E46.70822
G1 X136.365 Y150.617 E46.71459
G1 X135.919 Y150.745 E46.72096
G1 X135.4 Y150.795 E46.72811
G1 X84.602 Y150.795 E47.42505
G1 X84.139 Y150.755 E47.43143
G1 X83.69 Y150.636 E47.4378
G1 X83.268 Y150.443 E47.44417
G1 X82.886 Y150.18 E47.45053
G1 X82.554 Y149.855 E47.45691
G1 X82.283 Y149.478 E47.46328
G1 X82.08 Y149.06 E47.46965
G1 X81.952 Y148.614 E47.47602
G1 X81.902 Y148.095 E47.48317
G1 X81.902 Y72.126 E48.52545
G1 X81.942 Y71.663 E48.53183
G1 X82.061 Y71.214 E48.5382
G1 X82.254 Y70.792 E48.54457
G1 X82.517 Y70.41 E48.55093
G1 X82.842 Y70.078 E48.5573
G1 X83.219 Y69.807 E48.56367
G1 X83.637 Y69.604 E48.57005
G1 X84.083 Y69.476 E48.57641
G1 X84.602 Y69.426 E48.58357
G1 X135.4 Y69.426 E49.28051
G1 X135.863 Y69.466 E49.28688
G1 X136.312 Y69.585 E49.29326
G1 X136.734 Y69.778 E49.29962
G1 X137.116 Y70.041 E49.30599
G1 X137.448 Y70.366 E49.31236
G1 X137.719 Y70.743 E49.31873
G1 X137.922 Y71.161 E49.3251
G1 X138.05 Y71.607 E49.33147
G1 X138.1 Y72.126 E49.33862
G1 X138.1 Y148.095 E50.3809
G0 F3600 X138.3 Y148.095
G1 F1200 X138.26 Y148.575 E50.38751
G1 X138.141 Y149.041 E50.39411
G1 X137.947 Y149.481 E50.40071
G1 X137.683 Y149.883 E50.40731
G1 X137.356 Y150.236 E50.41391
G1 X136.975 Y150.53 E50.42051
G1 X136.55 Y150.757 E50.42712
G1 X136.094 Y150.911 E50.43373
G1 X135.4 Y150.995 E50.44332
G1 X84.602 Y150.995 E51.14026
G1 X84.122 Y150.955 E51.14686
G1 X83.656 Y150.836 E51.15346
G1 X83.216 Y150.642 E51.16006
G1 X82.814 Y150.378 E51.16666
G1 X82.461 Y150.051 E51.17326
G1 X82.167 Y149.67 E51.17986
G1 X81.94 Y149.245 E51.18647
G1 X81.786 Y148.789 E51.19308
G1 X81.702 Y148.095 E51.20267
G1 X81.702 Y72.126 E52.24495
G1 X81.742 Y71.646 E52.25156
G1 X81.861 Y71.18 E52.25815
G1 X82.055 Y70.74 E52.26475
G1 X82.319 Y70.338 E52.27135
G1 X82.646 Y69.985 E52.27795
G1 X83.027 Y69.691 E52.28455
G1 X83.452 Y69.464 E52.29116
G1 X83.908 Y69.31 E52.29777
G1 X84.602 Y69.226 E52.30736
G1 X135.4 Y69.226 E53.0043
G1 X135.88 Y69.266 E53.01091
G1 X136.346 Y69.385 E53.0175
G1 X136.786 Y69.579 E53.0241
G1 X137.188 Y69.843 E53.0307
G1 X137.541 Y70.17 E53.0373
G1 X137.835 Y70.551 E53.0439
G1 X138.062 Y70.976 E53.05052
