;FLAVOR:Marlin
;TIME:6583
;Filament used:2.18898m
;Layer height: 0.2
;MINX:84.32
;MINY:76.7
;MINZ:0.15
;MAXX:135.68
;MAXY:143.086
;MAXZ:17.55
                                
;Creality Print GCode Generated by CXEngineDEV
;Generated Time:2022-06-30 15:03:09
;----------Machine Config--------------
;Machine Name:Creality Ender-3
;Machine Height:250
;Machine Width:220
;Machine Depth:220
;Material name:Castable
;Number of Extruders:1
;ExtruderParams[0] Nozzle Diameter1000
;----------Profile Config---------------
;Layer Height:0.2
;Wall Thickness:0.8
;Top/Bottom Thickness:1
;Out Wall Line Width:0.2
;Inner Wall Line Width:0.2
;Inital Layer Height:150
;Wall Line Count:4
;Infill Line Distance:2
;Infill Pattern:zigzag
;Infill Sparse Density:10
;Infill Wipe Distance:0
;Print Temperature:235
;Bed Temperature:74
;Support Enable:false
;Support Density:10
;Support Angle:0
;Adhesion Type:brim
;machine is belt:false
;machine belt offset:10
;machine belt offset Y:0
;Raft Base Line Spacing:1.6
;Wait Heatup Sync:true
;----------Shell Config----------------
;Outer Wall Wipe Distance:200
;Infill Before Walls:false
;Infill Overlap:0.08
;Fill Gaps Between Walls:everywhere
;Minimum Infill Area:1
;Top Surface Skin Layer:0
;Top Layers:3
;Z Seam Alignment:sharpest_corner
;Seam Corner Preference:z_seam_corner_inner
;Z Seam X:110
;Z Seam Y:110
;Horizontal Expansion:0
;Top/Bottom Pattern:zigzag
;Ironing Pattern:zigzag
;Vase Model:false
;----------Support Config----------------
;Support Type:everywhere
;Support Pattern:zigzag
;Support Infill Layer Thickness:0.2
;Minimum Support Area:5
;Enable Support Roof:false
;Support Roof Thickness:0.8
;Support Roof Pattern:lines
;Connect Support Lines:0
;Connect Support ZigZags:1
;Minimum Support X/Y Distance:0.2
;Support Line Distance:2
; ---------PrintSpeed & Travel----------
;Enable Print Cool:true
;Avoid Printed Parts Traveling:true
;Enable Retraction:true
;Retraction Distance:8
;Retraction Speed:100
;Retraction Prime Speed:100
;Maximum Retraction Count:100
;Minimum Extrusion Distance Window:1
;Z Hop When Retracted:false
;Z Hop Height:0.2
;Retract Before Outer Wall:true
;Print Speed:40
;Infill Speed:40

;Prime Tower Speed:40
;Travel Speed:120
;Initial Layer Speed:20
;Skirt/Brim Speed:20
;Combing Mode:off
; --------SpecialModel&Mesh Fixes--------
;Union Overlapping Volum:true
;Remove All Holes:false
;Maximum Travel Resolution:0.4
;Maximum Deviation:0.05
;Maximum Model Angle:0.872665
;IS Mold Print:false
;Make Overhang Printable:false
;Enable Coasting:false
;Coasting Volumes:0.06
;Coasting Speed:0.9
;Raft AirGap:0.25
;Layer0 ZOverLap:0.13
;---------------------End of Head--------------------------
M140 S74
M105
M104 S235
M105
M109 S235
M105
M190 S74
M82 ;absolute extrusion mode
M220 S100 ;Reset Feedrate
M221 S100 ;Reset Flowrate

G28 ;Home

G92 E0 ;Reset Extruder
G1 Z2.0 F3000 ;Move Z Axis up
G1 X10.1 Y20 Z0.28 F5000.0 ;Move to start position
G1 X10.1 Y145.0 Z0.28 F1500.0 E15 ;Draw the first line
G1 X10.4 Y145.0 Z0.28 F5000.0 ;Move to side a little
G1 X10.4 Y20 Z0.28 F1500.0 E30 ;Draw the second line
G92 E0  ;Reset Extruder
G1 E-1.0000 F1800 ;Retract a bit
G1 Z2.0 F3000 ;Move Z Axis up
G1 E0.0000 F1800 

G92 E0
G92 E0
G1 F6000 E-8

;LAYER_COUNT:89

;LAYER:0
M107
G0 F3600 X86.201 Y79.484 Z0.15
;;retract;;
G0 X127.78 Y135.286
;TYPE:SKIRT
G1 F6000 E0
G1 F1200 X92.22 Y135.285 E0.48788
G1 X92.12 Y135.185 E0.48982
G1 X92.12 Y84.6 E1.18383
G1 X92.22 Y84.5 E1.18577
G1 X127.78 Y84.5 E1.67365
G1 X127.88 Y84.6 E1.67559
G1 X127.88 Y135.186 E2.36962
G1 X127.78 Y135.286 E2.37156
G0 F3600 X127.78 Y135.486
G1 F1200 X92.22 Y135.485 E2.85944
G1 X91.962 Y135.338 E2.86351
G1 X91.92 Y135.185 E2.86569
G1 X91.92 Y84.6 E3.5597
G1 X92.067 Y84.342 E3.56378
G1 X92.22 Y84.3 E3.56595
G1 X127.78 Y84.3 E4.05383
G1 X128.038 Y84.447 E4.0579
G1 X128.08 Y84.6 E4.06008
G1 X128.08 Y135.186 E4.75411
G1 X127.933 Y135.444 E4.75819
G1 X127.78 Y135.486 E4.76036
G0 F3600 X127.78 Y135.686
G1 F1200 X92.22 Y135.685 E5.24824
G1 X91.861 Y135.533 E5.25359
G1 X91.72 Y135.185 E5.25874
G1 X91.72 Y84.6 E5.95275
G1 X91.872 Y84.241 E5.9581
G1 X92.22 Y84.1 E5.96326
G1 X127.78 Y84.1 E6.45113
G1 X128.139 Y84.252 E6.45648
G1 X128.28 Y84.6 E6.46163
G1 X128.28 Y135.186 E7.15566
G1 X128.128 Y135.545 E7.16101
G1 X127.78 Y135.686 E7.16616
G0 F3600 X127.78 Y135.886
G1 F1200 X92.22 Y135.885 E7.65404
G1 X91.782 Y135.731 E7.66041
G1 X91.536 Y135.336 E7.66679
G1 X91.52 Y135.185 E7.66888
G1 X91.52 Y84.6 E8.36289
G1 X91.674 Y84.162 E8.36926
G1 X92.069 Y83.916 E8.37565
G1 X92.22 Y83.9 E8.37773
G1 X127.78 Y83.9 E8.86561
G1 X128.218 Y84.054 E8.87198
G1 X128.464 Y84.449 E8.87836
G1 X128.48 Y84.6 E8.88044
G1 X128.48 Y135.186 E9.57447
G1 X128.326 Y135.624 E9.58084
G1 X127.931 Y135.87 E9.58723
G1 X127.78 Y135.886 E9.58931
G0 F3600 X127.78 Y136.086
G1 F1200 X92.22 Y136.085 E10.07719
G1 X91.955 Y136.045 E10.08086
G1 X91.714 Y135.929 E10.08453
G1 X91.518 Y135.748 E10.08819
G1 X91.383 Y135.516 E10.09188
G1 X91.32 Y135.185 E10.0965
G1 X91.32 Y84.6 E10.79052
G1 X91.36 Y84.335 E10.79419
G1 X91.476 Y84.094 E10.79786
G1 X91.657 Y83.898 E10.80152
G1 X91.889 Y83.763 E10.80521
G1 X92.22 Y83.7 E10.80983
G1 X127.78 Y83.7 E11.2977
G1 X128.045 Y83.74 E11.30138
G1 X128.286 Y83.856 E11.30505
G1 X128.482 Y84.037 E11.30871
G1 X128.617 Y84.269 E11.31239
G1 X128.68 Y84.6 E11.31702
G1 X128.68 Y135.186 E12.01105
G1 X128.64 Y135.451 E12.01472
G1 X128.524 Y135.692 E12.01839
G1 X128.343 Y135.888 E12.02205
G1 X128.111 Y136.023 E12.02574
G1 X127.78 Y136.086 E12.03036
G0 F3600 X127.78 Y136.286
G1 F1200 X92.22 Y136.285 E12.51824
G1 X91.927 Y136.245 E12.52229
G1 X91.655 Y136.129 E12.52635
G1 X91.424 Y135.944 E12.53041
G1 X91.25 Y135.704 E12.53448
G1 X91.147 Y135.426 E12.53854
G1 X91.12 Y135.185 E12.54187
G1 X91.12 Y84.6 E13.23589
G1 X91.16 Y84.307 E13.23995
G1 X91.276 Y84.035 E13.244
G1 X91.461 Y83.804 E13.24806
G1 X91.701 Y83.63 E13.25213
G1 X91.978 Y83.527 E13.25618
G1 X92.22 Y83.5 E13.25953
G1 X127.78 Y83.5 E13.7474
G1 X128.073 Y83.54 E13.75146
G1 X128.345 Y83.656 E13.75552
G1 X128.576 Y83.841 E13.75958
G1 X128.75 Y84.081 E13.76364
G1 X128.853 Y84.358 E13.7677
G1 X128.88 Y84.6 E13.77104
G1 X128.88 Y135.186 E14.46507
G1 X128.84 Y135.479 E14.46913
G1 X128.724 Y135.751 E14.47318
G1 X128.539 Y135.982 E14.47724
G1 X128.299 Y136.156 E14.48131
G1 X128.022 Y136.259 E14.48536
G1 X127.78 Y136.286 E14.48871
G0 F3600 X127.78 Y136.486
G1 F1200 X92.22 Y136.485 E14.97658
G1 X91.901 Y136.445 E14.98099
G1 X91.601 Y136.328 E14.98541
G1 X91.339 Y136.141 E14.98983
G1 X91.131 Y135.895 E14.99425
G1 X90.99 Y135.606 E14.99866
G1 X90.92 Y135.185 E15.00451
G1 X90.92 Y84.6 E15.69853
G1 X90.96 Y84.281 E15.70294
G1 X91.077 Y83.981 E15.70736
G1 X91.264 Y83.719 E15.71178
G1 X91.51 Y83.511 E15.7162
G1 X91.799 Y83.37 E15.72061
G1 X92.22 Y83.3 E15.72646
G1 X127.78 Y83.3 E16.21434
G1 X128.099 Y83.34 E16.21875
G1 X128.399 Y83.457 E16.22317
G1 X128.661 Y83.644 E16.22758
G1 X128.869 Y83.89 E16.232
G1 X129.01 Y84.179 E16.23642
G1 X129.08 Y84.6 E16.24227
G1 X129.08 Y135.186 E16.9363
G1 X129.04 Y135.505 E16.94071
G1 X128.923 Y135.805 E16.94513
G1 X128.736 Y136.067 E16.94955
G1 X128.49 Y136.275 E16.95397
G1 X128.201 Y136.416 E16.95838
G1 X127.78 Y136.486 E16.96423
G0 F3600 X127.78 Y136.686
G1 F1200 X92.22 Y136.685 E17.45211
G1 X91.876 Y136.645 E17.45686
G1 X91.551 Y136.528 E17.4616
G1 X91.261 Y136.339 E17.46635
G1 X91.023 Y136.089 E17.47108
G1 X90.848 Y135.79 E17.47584
G1 X90.745 Y135.46 E17.48058
G1 X90.72 Y135.185 E17.48437
G1 X90.72 Y84.6 E18.17839
G1 X90.76 Y84.256 E18.18314
G1 X90.877 Y83.931 E18.18788
G1 X91.066 Y83.641 E18.19262
G1 X91.316 Y83.403 E18.19736
G1 X91.615 Y83.228 E18.20211
G1 X91.945 Y83.125 E18.20686
G1 X92.22 Y83.1 E18.21065
G1 X127.78 Y83.1 E18.69852
G1 X128.124 Y83.14 E18.70327
G1 X128.449 Y83.257 E18.70801
G1 X128.739 Y83.446 E18.71276
G1 X128.977 Y83.696 E18.7175
G1 X129.152 Y83.995 E18.72225
G1 X129.255 Y84.325 E18.72699
G1 X129.28 Y84.6 E18.73078
G1 X129.28 Y135.186 E19.42481
G1 X129.24 Y135.53 E19.42956
G1 X129.123 Y135.855 E19.4343
G1 X128.934 Y136.145 E19.43905
G1 X128.684 Y136.383 E19.44379
G1 X128.385 Y136.558 E19.44854
G1 X128.055 Y136.661 E19.45328
G1 X127.78 Y136.686 E19.45707
G0 F3600 X127.78 Y136.886
G1 F1200 X92.22 Y136.885 E19.94495
G1 X91.854 Y136.845 E19.95
G1 X91.505 Y136.727 E19.95505
G1 X91.19 Y136.537 E19.9601
G1 X90.923 Y136.284 E19.96515
G1 X90.717 Y135.978 E19.97021
G1 X90.581 Y135.636 E19.97526
G1 X90.52 Y135.185 E19.9815
G1 X90.52 Y84.6 E20.67552
G1 X90.56 Y84.234 E20.68057
G1 X90.678 Y83.885 E20.68562
G1 X90.868 Y83.57 E20.69067
G1 X91.121 Y83.303 E20.69572
G1 X91.427 Y83.097 E20.70078
G1 X91.769 Y82.961 E20.70583
G1 X92.22 Y82.9 E20.71207
G1 X127.78 Y82.9 E21.19995
G1 X128.146 Y82.94 E21.205
G1 X128.495 Y83.058 E21.21005
G1 X128.81 Y83.248 E21.2151
G1 X129.077 Y83.501 E21.22015
G1 X129.283 Y83.807 E21.22521
G1 X129.419 Y84.149 E21.23026
G1 X129.48 Y84.6 E21.2365
G1 X129.48 Y135.186 E21.93053
G1 X129.44 Y135.552 E21.93558
G1 X129.322 Y135.901 E21.94064
G1 X129.132 Y136.216 E21.94569
G1 X128.879 Y136.483 E21.95073
G1 X128.573 Y136.689 E21.95579
G1 X128.231 Y136.825 E21.96084
G1 X127.78 Y136.886 E21.96709
G0 F3600 X127.78 Y137.086
G1 F1200 X92.22 Y137.085 E22.45496
G1 X91.833 Y137.045 E22.4603
G1 X91.462 Y136.927 E22.46564
G1 X91.122 Y136.736 E22.47099
G1 X90.829 Y136.48 E22.47633
G1 X90.595 Y136.169 E22.48167
G1 X90.428 Y135.817 E22.48702
G1 X90.337 Y135.438 E22.49236
G1 X90.32 Y135.185 E22.49584
G1 X90.32 Y84.6 E23.18986
G1 X90.36 Y84.213 E23.1952
G1 X90.478 Y83.842 E23.20054
G1 X90.669 Y83.502 E23.20589
G1 X90.925 Y83.209 E23.21123
G1 X91.236 Y82.975 E23.21657
G1 X91.588 Y82.808 E23.22191
G1 X91.967 Y82.717 E23.22726
G1 X92.22 Y82.7 E23.23074
G1 X127.78 Y82.7 E23.71861
G1 X128.167 Y82.74 E23.72395
G1 X128.538 Y82.858 E23.72929
G1 X128.878 Y83.049 E23.73464
G1 X129.171 Y83.305 E23.73998
G1 X129.405 Y83.616 E23.74532
G1 X129.572 Y83.968 E23.75067
G1 X129.663 Y84.347 E23.75601
G1 X129.68 Y84.6 E23.75949
G1 X129.68 Y135.186 E24.45352
G1 X129.64 Y135.573 E24.45886
G1 X129.522 Y135.944 E24.4642
G1 X129.331 Y136.284 E24.46955
G1 X129.075 Y136.577 E24.47489
G1 X128.764 Y136.811 E24.48023
G1 X128.412 Y136.978 E24.48558
G1 X128.033 Y137.069 E24.49092
G1 X127.78 Y137.086 E24.4944
G0 F3600 X127.78 Y137.286
G1 F1200 X92.22 Y137.285 E24.98228
G1 X91.813 Y137.245 E24.98789
G1 X91.421 Y137.127 E24.99351
G1 X91.059 Y136.935 E24.99913
G1 X90.742 Y136.676 E25.00474
G1 X90.48 Y136.361 E25.01037
G1 X90.285 Y136.001 E25.01598
G1 X90.164 Y135.61 E25.0216
G1 X90.12 Y135.185 E25.02746
G1 X90.12 Y84.6 E25.72148
G1 X90.16 Y84.193 E25.72709
G1 X90.278 Y83.801 E25.7327
G1 X90.47 Y83.439 E25.73833
G1 X90.729 Y83.122 E25.74394
G1 X91.044 Y82.86 E25.74956
G1 X91.404 Y82.665 E25.75518
G1 X91.795 Y82.544 E25.7608
G1 X92.22 Y82.5 E25.76666
G1 X127.78 Y82.5 E26.25453
G1 X128.187 Y82.54 E26.26015
G1 X128.579 Y82.658 E26.26576
G1 X128.941 Y82.85 E26.27138
G1 X129.258 Y83.109 E26.277
G1 X129.52 Y83.424 E26.28262
G1 X129.715 Y83.784 E26.28824
G1 X129.836 Y84.175 E26.29385
G1 X129.88 Y84.6 E26.29972
G1 X129.88 Y135.186 E26.99375
G1 X129.84 Y135.593 E26.99936
G1 X129.722 Y135.985 E27.00497
G1 X129.53 Y136.347 E27.0106
G1 X129.271 Y136.664 E27.01621
G1 X128.956 Y136.926 E27.02183
G1 X128.596 Y137.121 E27.02745
G1 X128.205 Y137.242 E27.03307
G1 X127.78 Y137.286 E27.03893
G0 F3600 X127.78 Y137.486
G1 F1200 X92.22 Y137.485 E27.5268
G1 X91.793 Y137.445 E27.53269
G1 X91.382 Y137.327 E27.53855
G1 X90.999 Y137.134 E27.54444
G1 X90.658 Y136.874 E27.55032
G1 X90.372 Y136.555 E27.5562
G1 X90.15 Y136.188 E27.56208
G1 X90 Y135.787 E27.56796
G1 X89.92 Y135.185 E27.57629
G1 X89.92 Y84.6 E28.27031
G1 X89.96 Y84.173 E28.27619
G1 X90.078 Y83.762 E28.28206
G1 X90.271 Y83.379 E28.28794
G1 X90.531 Y83.039 E28.29381
G1 X90.85 Y82.752 E28.2997
G1 X91.217 Y82.53 E28.30559
G1 X91.618 Y82.38 E28.31146
G1 X92.22 Y82.3 E28.31979
G1 X127.78 Y82.3 E28.80767
G1 X128.207 Y82.34 E28.81355
G1 X128.618 Y82.458 E28.81942
G1 X129.001 Y82.651 E28.8253
G1 X129.341 Y82.911 E28.83118
G1 X129.628 Y83.23 E28.83706
G1 X129.85 Y83.597 E28.84295
G1 X130 Y83.998 E28.84882
G1 X130.08 Y84.6 E28.85715
G1 X130.08 Y135.186 E29.55118
G1 X130.04 Y135.613 E29.55707
G1 X129.922 Y136.024 E29.56293
G1 X129.729 Y136.407 E29.56882
G1 X129.469 Y136.747 E29.57469
G1 X129.15 Y137.034 E29.58058
G1 X128.783 Y137.256 E29.58646
G1 X128.382 Y137.406 E29.59234
G1 X127.78 Y137.486 E29.60067
G0 F3600 X127.78 Y137.686
G1 F1200 X92.22 Y137.685 E30.08854
G1 X91.775 Y137.645 E30.09467
G1 X91.344 Y137.527 E30.10081
G1 X90.941 Y137.333 E30.10694
G1 X90.579 Y137.071 E30.11307
G1 X90.27 Y136.749 E30.1192
G1 X90.023 Y136.377 E30.12532
G1 X89.845 Y135.967 E30.13145
G1 X89.744 Y135.532 E30.13758
G1 X89.72 Y135.185 E30.14235
G1 X89.72 Y84.6 E30.83637
G1 X89.76 Y84.155 E30.8425
G1 X89.878 Y83.724 E30.84863
G1 X90.072 Y83.321 E30.85477
G1 X90.334 Y82.959 E30.8609
G1 X90.656 Y82.65 E30.86702
G1 X91.028 Y82.403 E30.87315
G1 X91.438 Y82.225 E30.87928
G1 X91.873 Y82.124 E30.88541
G1 X92.22 Y82.1 E30.89018
G1 X127.78 Y82.1 E31.37805
G1 X128.225 Y82.14 E31.38418
G1 X128.656 Y82.258 E31.39032
G1 X129.059 Y82.452 E31.39645
G1 X129.421 Y82.714 E31.40258
G1 X129.73 Y83.036 E31.40871
G1 X129.977 Y83.408 E31.41483
G1 X130.155 Y83.818 E31.42096
G1 X130.256 Y84.253 E31.42709
G1 X130.28 Y84.6 E31.43186
G1 X130.28 Y135.186 E32.12589
G1 X130.24 Y135.631 E32.13202
G1 X130.122 Y136.062 E32.13815
G1 X129.928 Y136.465 E32.14429
G1 X129.666 Y136.827 E32.15042
G1 X129.344 Y137.136 E32.15654
G1 X128.972 Y137.383 E32.16267
G1 X128.562 Y137.561 E32.1688
G1 X128.127 Y137.662 E32.17493
G1 X127.78 Y137.686 E32.1797
G0 F3600 X127.78 Y137.886
G1 F1200 X92.22 Y137.885 E32.66758
G1 X91.757 Y137.845 E32.67395
G1 X91.308 Y137.726 E32.68033
G1 X90.886 Y137.533 E32.68669
G1 X90.504 Y137.269 E32.69306
G1 X90.172 Y136.945 E32.69943
G1 X89.901 Y136.568 E32.7058
G1 X89.698 Y136.15 E32.71217
G1 X89.57 Y135.704 E32.71854
G1 X89.52 Y135.185 E32.72569
G1 X89.52 Y84.6 E33.41971
G1 X89.56 Y84.137 E33.42609
G1 X89.679 Y83.688 E33.43246
G1 X89.872 Y83.266 E33.43883
G1 X90.135 Y82.884 E33.44519
G1 X90.46 Y82.552 E33.45156
G1 X90.837 Y82.281 E33.45793
G1 X91.255 Y82.078 E33.46431
G1 X91.701 Y81.95 E33.47067
G1 X92.22 Y81.9 E33.47783
G1 X127.78 Y81.9 E33.9657
G1 X128.243 Y81.94 E33.97208
G1 X128.692 Y82.059 E33.97845
G1 X129.114 Y82.252 E33.98482
G1 X129.496 Y82.515 E33.99118
G1 X129.828 Y82.84 E33.99756
G1 X130.099 Y83.217 E34.00393
G1 X130.302 Y83.635 E34.0103
G1 X130.43 Y84.081 E34.01667
G1 X130.48 Y84.6 E34.02382
G1 X130.48 Y135.186 E34.71785
G1 X130.44 Y135.649 E34.72423
G1 X130.321 Y136.098 E34.7306
G1 X130.128 Y136.52 E34.73697
G1 X129.865 Y136.902 E34.74333
G1 X129.54 Y137.234 E34.7497
G1 X129.163 Y137.505 E34.75607
G1 X128.745 Y137.708 E34.76245
G1 X128.299 Y137.836 E34.76882
G1 X127.78 Y137.886 E34.77597
G0 F3600 X127.78 Y138.086
G1 F1200 X92.22 Y138.085 E35.26385
G1 X91.74 Y138.045 E35.27045
G1 X91.274 Y137.926 E35.27705
G1 X90.834 Y137.732 E35.28365
G1 X90.431 Y137.468 E35.29026
G1 X90.079 Y137.141 E35.29685
G1 X89.785 Y136.76 E35.30345
G1 X89.558 Y136.335 E35.31006
G1 X89.404 Y135.879 E35.31667
G1 X89.32 Y135.185 E35.32626
G1 X89.32 Y84.6 E36.02028
G1 X89.36 Y84.12 E36.02688
G1 X89.479 Y83.654 E36.03348
G1 X89.673 Y83.214 E36.04008
G1 X89.937 Y82.812 E36.04668
G1 X90.264 Y82.459 E36.05328
G1 X90.645 Y82.165 E36.05988
G1 X91.07 Y81.938 E36.06649
G1 X91.526 Y81.784 E36.0731
G1 X92.22 Y81.7 E36.08269
G1 X127.78 Y81.7 E36.57056
G1 X128.26 Y81.74 E36.57717
G1 X128.726 Y81.859 E36.58377
G1 X129.166 Y82.053 E36.59037
G1 X129.568 Y82.317 E36.59697
G1 X129.921 Y82.644 E36.60357
G1 X130.215 Y83.025 E36.61017
G1 X130.442 Y83.45 E36.61678
G1 X130.596 Y83.906 E36.62338
G1 X130.68 Y84.6 E36.63298
G1 X130.68 Y135.186 E37.32701
G1 X130.64 Y135.666 E37.33361
G1 X130.521 Y136.132 E37.34021
G1 X130.327 Y136.572 E37.34681
G1 X130.063 Y136.974 E37.35341
G1 X129.736 Y137.327 E37.36001
G1 X129.355 Y137.621 E37.36661
G1 X128.93 Y137.848 E37.37322
G1 X128.474 Y138.002 E37.37983
G1 X127.78 Y138.086 E37.38942
G0 F3600 X127.78 Y138.286
