;FLAVOR:Marlin
;TIME:25859
;Filament used:9.59729m
;Layer height: 0.2
;MINX:70.1
;MINY:32.34
;MINZ:0.15
;MAXX:148.62
;MAXY:184.424
;MAXZ:17.55
                               
;Creality Print GCode Generated by CXEngineDEV
;Generated Time:2022-06-30 15:03:09
;----------Machine Config--------------
;Machine Name:Creality Ender-3
;Machine Height:250
;Machine Width:220
;Machine Depth:220
;Material name:Castable
;Number of Extruders:1
;ExtruderParams[0] Nozzle Diameter1000
;----------Profile Config---------------
;Layer Height:0.2
;Wall Thickness:0.8
;Top/Bottom Thickness:1
;Out Wall Line Width:0.2
;Inner Wall Line Width:0.2
;Inital Layer Height:150
;Wall Line Count:4
;Infill Line Distance:2
;Infill Pattern:zigzag
;Infill Sparse Density:10
;Infill Wipe Distance:0
;Print Temperature:235
;Bed Temperature:74
;Support Enable:false
;Support Density:10
;Support Angle:0
;Adhesion Type:brim
;machine is belt:false
;machine belt offset:10
;machine belt offset Y:1.4
;Raft Base Line Spacing:1.6
;Wait Heatup Sync:true
;----------Shell Config----------------
;Outer Wall Wipe Distance:200
;Infill Before Walls:false
;Infill Overlap:0.08
;Fill Gaps Between Walls:everywhere
;Minimum Infill Area:1
;Top Surface Skin Layer:0
;Top Layers:3
;Z Seam Alignment:sharpest_corner
;Seam Corner Preference:z_seam_corner_inner
;Z Seam X:110
;Z Seam Y:110
;Horizontal Expansion:0
;Top/Bottom Pattern:zigzag
;Ironing Pattern:zigzag
;Vase Model:false
;----------Support Config----------------
;Support Type:everywhere
;Support Pattern:zigzag
;Support Infill Layer Thickness:0.2
;Minimum Support Area:5
;Enable Support Roof:false
;Support Roof Thickness:0.8
;Support Roof Pattern:lines
;Connect Support Lines:0
;Connect Support ZigZags:1
;Minimum Support X/Y Distance:0.2
;Support Line Distance:2
; ---------PrintSpeed & Travel----------
;Enable Print Cool:true
;Avoid Printed Parts Traveling:true
;Enable Retraction:true
;Retraction Distance:8
;Retraction Speed:100
;Retraction Prime Speed:100
;Maximum Retraction Count:100
;Minimum Extrusion Distance Window:1
;Z Hop When Retracted:false
;Z Hop Height:0.2
;Retract Before Outer Wall:true
;Print Speed:40
;Infill Speed:40

;Prime Tower Speed:40
;Travel Speed:120
;Initial Layer Speed:20
;Skirt/Brim Speed:20
;Combing Mode:off
; --------SpecialModel&Mesh Fixes--------
;Union Overlapping Volum:true
;Remove All Holes:false
;Maximum Travel Resolution:0.4
;Maximum Deviation:0.05
;Maximum Model Angle:0.872665
;IS Mold Print:false
;Make Overhang Printable:false
;Enable Coasting:false
;Coasting Volumes:0.06
;Coasting Speed:0.9
;Raft AirGap:0.25
;Layer0 ZOverLap:0.13
;---------------------End of Head--------------------------
M140 S74
M105
M104 S235
M105
M109 S235
M105
M190 S74
M82 ;absolute extrusion mode
M220 S100 ;Reset Feedrate
M221 S100 ;Reset Flowrate

G28 ;Home

G92 E0 ;Reset Extruder
G1 Z2.0 F3000 ;Move Z Axis up
G1 X10.1 Y20 Z0.28 F5000.0 ;Move to start position
G1 X10.1 Y145.0 Z0.28 F1500.0 E15 ;Draw the first line
G1 X10.4 Y145.0 Z0.28 F5000.0 ;Move to side a little
G1 X10.4 Y20 Z0.28 F1500.0 E30 ;Draw the second line
G92 E0  ;Reset Extruder
G1 E-1.0000 F1800 ;Retract a bit
G1 Z2.0 F3000 ;Move Z Axis up
G1 E0.0000 F1800 

G92 E0
G92 E0
G1 F6000 E-8

;LAYER_COUNT:88

;LAYER:0
M107
G0 F3600 X73.272 Y36.43 Z0.15
;;retract;;
G0 X140.82 Y40.24
;TYPE:SKIRT
G1 F6000 E0
G1 F1200 X140.82 Y176.524 E2.49305
G1 X140.72 Y176.624 E2.49564
G1 X80.193 Y176.623 E3.60287
G1 X80.093 Y176.523 E3.60545
G1 X80.093 Y96.5 E5.06932
G1 X78 Y96.5 E5.10761
G1 X77.9 Y96.4 E5.11019
G1 X77.9 Y83.92 E5.33849
G1 X78 Y83.82 E5.34108
G1 X80.092 Y83.82 E5.37935
G1 X80.093 Y40.24 E6.17656
G1 X80.193 Y40.14 E6.17915
G1 X140.72 Y40.14 E7.28637
G1 X140.82 Y40.24 E7.28896
G0 F3600 X141.02 Y40.24
G1 F1200 X141.02 Y176.524 E9.78201
G1 X140.873 Y176.782 E9.78744
G1 X140.72 Y176.824 E9.79035
G1 X80.193 Y176.823 E10.89757
G1 X79.935 Y176.676 E10.903
G1 X79.893 Y176.523 E10.90591
G1 X79.893 Y96.7 E12.36611
G1 X78 Y96.7 E12.40074
G1 X77.742 Y96.553 E12.40617
G1 X77.7 Y96.4 E12.40908
G1 X77.7 Y83.92 E12.63737
G1 X77.847 Y83.662 E12.64281
G1 X78 Y83.62 E12.64571
G1 X79.892 Y83.62 E12.68032
G1 X79.893 Y40.24 E13.47387
G1 X80.04 Y39.982 E13.4793
G1 X80.193 Y39.94 E13.48221
G1 X140.72 Y39.94 E14.58943
G1 X140.978 Y40.087 E14.59486
G1 X141.02 Y40.24 E14.59777
G0 F3600 X141.22 Y40.24
G1 F1200 X141.22 Y176.524 E17.09082
G1 X141.068 Y176.883 E17.09795
G1 X140.72 Y177.024 E17.10482
G1 X80.193 Y177.023 E18.21204
G1 X79.834 Y176.871 E18.21918
G1 X79.693 Y176.523 E18.22604
G1 X79.693 Y96.9 E19.68259
G1 X78 Y96.9 E19.71356
G1 X77.641 Y96.748 E19.7207
G1 X77.5 Y96.4 E19.72756
G1 X77.5 Y83.92 E19.95586
G1 X77.652 Y83.561 E19.96299
G1 X78 Y83.42 E19.96986
G1 X79.692 Y83.42 E20.00081
G1 X79.693 Y40.24 E20.79071
G1 X79.845 Y39.881 E20.79784
G1 X80.193 Y39.74 E20.80471
G1 X140.72 Y39.74 E21.91193
G1 X141.079 Y39.892 E21.91907
G1 X141.22 Y40.24 E21.92593
G0 F3600 X141.42 Y40.24
G1 F1200 X141.42 Y176.524 E24.41899
G1 X141.266 Y176.962 E24.42748
G1 X140.871 Y177.208 E24.43599
G1 X140.72 Y177.224 E24.43877
G1 X80.193 Y177.223 E25.546
G1 X79.755 Y177.069 E25.55449
G1 X79.509 Y176.674 E25.563
G1 X79.493 Y176.523 E25.56578
G1 X79.493 Y97.1 E27.01867
G1 X78 Y97.1 E27.04598
G1 X77.562 Y96.946 E27.05448
G1 X77.316 Y96.551 E27.06299
G1 X77.3 Y96.4 E27.06577
G1 X77.3 Y83.92 E27.29406
G1 X77.454 Y83.482 E27.30256
G1 X77.849 Y83.236 E27.31107
G1 X78 Y83.22 E27.31385
G1 X79.492 Y83.22 E27.34114
G1 X79.493 Y40.24 E28.12738
G1 X79.647 Y39.802 E28.13587
G1 X80.042 Y39.556 E28.14438
G1 X80.193 Y39.54 E28.14716
G1 X140.72 Y39.54 E29.25438
G1 X141.158 Y39.694 E29.26288
G1 X141.404 Y40.089 E29.27139
G1 X141.42 Y40.24 E29.27417
G0 F3600 X141.62 Y40.24
G1 F1200 X141.62 Y176.524 E31.76722
G1 X141.58 Y176.789 E31.77212
G1 X141.464 Y177.03 E31.77702
G1 X141.283 Y177.226 E31.7819
G1 X141.051 Y177.361 E31.78681
G1 X140.72 Y177.424 E31.79297
G1 X80.193 Y177.423 E32.9002
G1 X79.928 Y177.383 E32.9051
G1 X79.687 Y177.267 E32.90999
G1 X79.491 Y177.086 E32.91487
G1 X79.356 Y176.854 E32.91978
G1 X79.293 Y176.523 E32.92595
G1 X79.293 Y97.3 E34.37518
G1 X78 Y97.3 E34.39883
G1 X77.735 Y97.26 E34.40373
G1 X77.494 Y97.144 E34.40863
G1 X77.298 Y96.963 E34.41351
G1 X77.163 Y96.731 E34.41842
G1 X77.1 Y96.4 E34.42458
G1 X77.1 Y83.92 E34.65288
G1 X77.14 Y83.655 E34.65778
G1 X77.256 Y83.414 E34.66267
G1 X77.437 Y83.218 E34.66755
G1 X77.669 Y83.083 E34.67246
G1 X78 Y83.02 E34.67863
G1 X79.292 Y83.02 E34.70226
G1 X79.293 Y40.24 E35.48484
G1 X79.333 Y39.975 E35.48974
G1 X79.449 Y39.734 E35.49464
G1 X79.63 Y39.538 E35.49952
G1 X79.862 Y39.403 E35.50443
G1 X80.193 Y39.34 E35.51059
G1 X140.72 Y39.34 E36.61781
G1 X140.985 Y39.38 E36.62272
G1 X141.226 Y39.496 E36.62761
G1 X141.422 Y39.677 E36.63249
G1 X141.557 Y39.909 E36.6374
G1 X141.62 Y40.24 E36.64356
G0 F3600 X141.82 Y40.24
G1 F1200 X141.82 Y176.524 E39.13662
G1 X141.78 Y176.817 E39.14203
G1 X141.664 Y177.089 E39.14744
G1 X141.479 Y177.32 E39.15285
G1 X141.239 Y177.494 E39.15827
G1 X140.962 Y177.597 E39.16368
G1 X140.72 Y177.624 E39.16813
G1 X80.193 Y177.623 E40.27536
G1 X79.9 Y177.583 E40.28077
G1 X79.628 Y177.467 E40.28618
G1 X79.397 Y177.282 E40.29159
G1 X79.223 Y177.042 E40.29701
G1 X79.12 Y176.765 E40.30242
G1 X79.093 Y176.523 E40.30687
G1 X79.093 Y97.5 E41.75245
G1 X78 Y97.5 E41.77244
G1 X77.707 Y97.46 E41.77785
G1 X77.435 Y97.344 E41.78326
G1 X77.204 Y97.159 E41.78867
G1 X77.03 Y96.919 E41.7941
G1 X76.927 Y96.642 E41.7995
G1 X76.9 Y96.4 E41.80396
G1 X76.9 Y83.92 E42.03226
G1 X76.94 Y83.627 E42.03767
G1 X77.056 Y83.355 E42.04307
G1 X77.241 Y83.124 E42.04849
G1 X77.481 Y82.95 E42.05391
G1 X77.758 Y82.847 E42.05932
G1 X78 Y82.82 E42.06377
G1 X79.092 Y82.82 E42.08375
G1 X79.093 Y40.24 E42.86267
G1 X79.133 Y39.947 E42.86808
G1 X79.249 Y39.675 E42.87349
G1 X79.434 Y39.444 E42.8789
G1 X79.674 Y39.27 E42.88432
G1 X79.951 Y39.167 E42.88973
G1 X80.193 Y39.14 E42.89418
G1 X140.72 Y39.14 E44.00141
G1 X141.013 Y39.18 E44.00682
G1 X141.285 Y39.296 E44.01223
G1 X141.516 Y39.481 E44.01764
G1 X141.69 Y39.721 E44.02306
G1 X141.793 Y39.998 E44.02847
G1 X141.82 Y40.24 E44.03292
G0 F3600 X142.02 Y40.24
G1 F1200 X142.02 Y176.524 E46.52598
G1 X141.98 Y176.843 E46.53186
G1 X141.863 Y177.143 E46.53775
G1 X141.676 Y177.405 E46.54364
G1 X141.43 Y177.613 E46.54953
G1 X141.141 Y177.754 E46.55541
G1 X140.72 Y177.824 E46.56322
G1 X80.193 Y177.823 E47.67044
G1 X79.874 Y177.783 E47.67633
G1 X79.574 Y177.666 E47.68222
G1 X79.312 Y177.479 E47.6881
G1 X79.104 Y177.233 E47.694
G1 X78.963 Y176.944 E47.69988
G1 X78.893 Y176.523 E47.70769
G1 X78.893 Y97.7 E49.1496
G1 X78 Y97.7 E49.16594
G1 X77.681 Y97.66 E49.17182
G1 X77.381 Y97.543 E49.17771
G1 X77.119 Y97.356 E49.1836
G1 X76.911 Y97.11 E49.18949
G1 X76.77 Y96.821 E49.19537
G1 X76.7 Y96.4 E49.20318
G1 X76.7 Y83.92 E49.43148
G1 X76.74 Y83.601 E49.43736
G1 X76.857 Y83.301 E49.44325
G1 X77.044 Y83.039 E49.44914
G1 X77.29 Y82.831 E49.45503
G1 X77.579 Y82.69 E49.46091
G1 X78 Y82.62 E49.46872
G1 X78.892 Y82.62 E49.48504
G1 X78.893 Y40.24 E50.2603
G1 X78.933 Y39.921 E50.26618
G1 X79.05 Y39.621 E50.27207
G1 X79.237 Y39.359 E50.27796
G1 X79.483 Y39.151 E50.28385
G1 X79.772 Y39.01 E50.28973
G1 X80.193 Y38.94 E50.29754
G1 X140.72 Y38.94 E51.40477
G1 X141.039 Y38.98 E51.41065
G1 X141.339 Y39.097 E51.41654
G1 X141.601 Y39.284 E51.42243
G1 X141.809 Y39.53 E51.42832
G1 X141.95 Y39.819 E51.4342
G1 X142.02 Y40.24 E51.44201
G0 F3600 X142.22 Y40.24
G1 F1200 X142.22 Y176.524 E53.93506
G1 X142.18 Y176.868 E53.9414
G1 X142.063 Y177.193 E53.94772
G1 X141.874 Y177.483 E53.95405
G1 X141.624 Y177.721 E53.96036
G1 X141.325 Y177.896 E53.9667
G1 X140.995 Y177.999 E53.97302
G1 X140.72 Y178.024 E53.97808
G1 X80.193 Y178.023 E55.0853
G1 X79.849 Y177.983 E55.09164
G1 X79.524 Y177.866 E55.09795
G1 X79.234 Y177.677 E55.10429
G1 X78.996 Y177.427 E55.1106
G1 X78.821 Y177.128 E55.11694
G1 X78.718 Y176.798 E55.12326
G1 X78.693 Y176.523 E55.12831
G1 X78.693 Y97.9 E56.56657
G1 X78 Y97.9 E56.57925
G1 X77.656 Y97.86 E56.58558
G1 X77.331 Y97.743 E56.5919
G1 X77.041 Y97.554 E56.59823
G1 X76.803 Y97.304 E56.60455
G1 X76.628 Y97.005 E56.61089
G1 X76.525 Y96.675 E56.61721
G1 X76.5 Y96.4 E56.62226
G1 X76.5 Y83.92 E56.85056
G1 X76.54 Y83.576 E56.85689
G1 X76.657 Y83.251 E56.86321
G1 X76.846 Y82.961 E56.86954
G1 X77.096 Y82.723 E56.87586
G1 X77.395 Y82.548 E56.8822
G1 X77.725 Y82.445 E56.88852
G1 X78 Y82.42 E56.89357
G1 X78.692 Y82.42 E56.90623
G1 X78.693 Y40.24 E57.67783
G1 X78.733 Y39.896 E57.68417
G1 X78.85 Y39.571 E57.69049
G1 X79.039 Y39.281 E57.69682
G1 X79.289 Y39.043 E57.70313
G1 X79.588 Y38.868 E57.70947
G1 X79.918 Y38.765 E57.71579
G1 X80.193 Y38.74 E57.72085
G1 X140.72 Y38.74 E58.82807
G1 X141.064 Y38.78 E58.83441
G1 X141.389 Y38.897 E58.84072
G1 X141.679 Y39.086 E58.84706
G1 X141.917 Y39.336 E58.85337
G1 X142.092 Y39.635 E58.85971
G1 X142.195 Y39.965 E58.86603
G1 X142.22 Y40.24 E58.87108
G0 F3600 X142.42 Y40.24
G1 F1200 X142.42 Y176.524 E61.36414
G1 X142.38 Y176.89 E61.37087
G1 X142.262 Y177.239 E61.37761
G1 X142.072 Y177.554 E61.38434
G1 X141.819 Y177.821 E61.39107
G1 X141.513 Y178.027 E61.39782
G1 X141.171 Y178.163 E61.40455
G1 X140.72 Y178.224 E61.41288
G1 X80.193 Y178.223 E62.5201
G1 X79.827 Y178.183 E62.52684
G1 X79.478 Y178.065 E62.53357
G1 X79.163 Y177.875 E62.5403
G1 X78.896 Y177.622 E62.54703
G1 X78.69 Y177.316 E62.55378
G1 X78.554 Y176.974 E62.56051
G1 X78.493 Y176.523 E62.56884
G1 X78.493 Y98.1 E64.00344
G1 X78 Y98.1 E64.01246
G1 X77.634 Y98.06 E64.01919
G1 X77.285 Y97.942 E64.02593
G1 X76.97 Y97.752 E64.03266
G1 X76.703 Y97.499 E64.03939
G1 X76.497 Y97.193 E64.04614
G1 X76.361 Y96.851 E64.05287
G1 X76.3 Y96.4 E64.06119
G1 X76.3 Y83.92 E64.28949
G1 X76.34 Y83.554 E64.29623
G1 X76.458 Y83.205 E64.30297
G1 X76.648 Y82.89 E64.3097
G1 X76.901 Y82.623 E64.31642
G1 X77.207 Y82.417 E64.32317
G1 X77.549 Y82.281 E64.3299
G1 X78 Y82.22 E64.33823
G1 X78.492 Y82.22 E64.34723
G1 X78.493 Y40.24 E65.11517
G1 X78.533 Y39.874 E65.12191
G1 X78.651 Y39.525 E65.12865
G1 X78.841 Y39.21 E65.13538
G1 X79.094 Y38.943 E65.14211
G1 X79.4 Y38.737 E65.14885
G1 X79.742 Y38.601 E65.15559
G1 X80.193 Y38.54 E65.16391
G1 X140.72 Y38.54 E66.27114
G1 X141.086 Y38.58 E66.27787
G1 X141.435 Y38.698 E66.28461
G1 X141.75 Y38.888 E66.29134
G1 X142.017 Y39.141 E66.29807
G1 X142.223 Y39.447 E66.30482
G1 X142.359 Y39.789 E66.31155
G1 X142.42 Y40.24 E66.31988
G0 F3600 X142.62 Y40.24
G1 F1200 X142.62 Y176.524 E68.81293
G1 X142.58 Y176.911 E68.82005
G1 X142.462 Y177.282 E68.82717
G1 X142.271 Y177.622 E68.8343
G1 X142.015 Y177.915 E68.84142
G1 X141.704 Y178.149 E68.84854
G1 X141.352 Y178.316 E68.85567
G1 X140.973 Y178.407 E68.8628
G1 X140.72 Y178.424 E68.86743
G1 X80.193 Y178.423 E69.97466
G1 X79.806 Y178.383 E69.98178
G1 X79.435 Y178.265 E69.9889
G1 X79.095 Y178.074 E69.99603
G1 X78.802 Y177.818 E70.00315
G1 X78.568 Y177.507 E70.01027
G1 X78.401 Y177.155 E70.0174
G1 X78.31 Y176.776 E70.02453
G1 X78.293 Y176.523 E70.02917
G1 X78.293 Y98.3 E71.4601
G1 X78 Y98.3 E71.46546
G1 X77.613 Y98.26 E71.47258
G1 X77.242 Y98.142 E71.4797
G1 X76.902 Y97.951 E71.48684
G1 X76.609 Y97.695 E71.49395
G1 X76.375 Y97.384 E71.50107
G1 X76.208 Y97.032 E71.5082
G1 X76.117 Y96.653 E71.51533
G1 X76.1 Y96.4 E71.51997
G1 X76.1 Y83.92 E71.74827
G1 X76.14 Y83.533 E71.75538
G1 X76.258 Y83.162 E71.76251
G1 X76.449 Y82.822 E71.76964
G1 X76.705 Y82.529 E71.77676
G1 X77.016 Y82.295 E71.78388
G1 X77.368 Y82.128 E71.791
G1 X77.747 Y82.037 E71.79813
G1 X78 Y82.02 E71.80277
G1 X78.292 Y82.02 E71.80811
G1 X78.293 Y40.24 E72.5724
G1 X78.333 Y39.853 E72.57952
G1 X78.451 Y39.482 E72.58664
G1 X78.642 Y39.142 E72.59377
G1 X78.898 Y38.849 E72.60089
G1 X79.209 Y38.615 E72.60801
G1 X79.561 Y38.448 E72.61514
G1 X79.94 Y38.357 E72.62227
G1 X80.193 Y38.34 E72.6269
G1 X140.72 Y38.34 E73.73413
G1 X141.107 Y38.38 E73.74125
G1 X141.478 Y38.498 E73.74837
G1 X141.818 Y38.689 E73.7555
G1 X142.111 Y38.945 E73.76262
G1 X142.345 Y39.256 E73.76974
G1 X142.512 Y39.608 E73.77687
G1 X142.603 Y39.987 E73.784
G1 X142.62 Y40.24 E73.78864
G0 F3600 X142.82 Y40.24
G1 F1200 X142.82 Y176.524 E76.28169
G1 X142.78 Y176.931 E76.28917
G1 X142.662 Y177.323 E76.29666
G1 X142.47 Y177.685 E76.30415
G1 X142.211 Y178.002 E76.31164
G1 X141.896 Y178.264 E76.31914
G1 X141.536 Y178.459 E76.32663
G1 X141.145 Y178.58 E76.33411
G1 X140.72 Y178.624 E76.34193
G1 X80.193 Y178.623 E77.44916
G1 X79.786 Y178.583 E77.45664
G1 X79.394 Y178.465 E77.46413
G1 X79.032 Y178.273 E77.47162
G1 X78.715 Y178.014 E77.47911
G1 X78.453 Y177.699 E77.4866
G1 X78.258 Y177.339 E77.49409
G1 X78.137 Y176.948 E77.50158
G1 X78.093 Y176.523 E77.5094
G1 X78.093 Y98.5 E78.93668
G1 X78 Y98.5 E78.93838
G1 X77.593 Y98.46 E78.94586
G1 X77.201 Y98.342 E78.95335
G1 X76.839 Y98.15 E78.96085
G1 X76.522 Y97.891 E78.96833
G1 X76.26 Y97.576 E78.97583
G1 X76.065 Y97.216 E78.98332
G1 X75.944 Y96.825 E78.99081
G1 X75.9 Y96.4 E78.99862
G1 X75.9 Y83.92 E79.22692
G1 X75.94 Y83.513 E79.2344
G1 X76.058 Y83.121 E79.24189
G1 X76.25 Y82.759 E79.24938
G1 X76.509 Y82.442 E79.25687
G1 X76.824 Y82.18 E79.26437
G1 X77.184 Y81.985 E79.27186
G1 X77.575 Y81.864 E79.27935
G1 X78 Y81.82 E79.28716
G1 X78.092 Y81.82 E79.28884
G1 X78.093 Y40.24 E80.04947
G1 X78.133 Y39.833 E80.05695
G1 X78.251 Y39.441 E80.06444
G1 X78.443 Y39.079 E80.07194
G1 X78.702 Y38.762 E80.07942
G1 X79.017 Y38.5 E80.08692
G1 X79.377 Y38.305 E80.09441
G1 X79.768 Y38.184 E80.1019
G1 X80.193 Y38.14 E80.10971
G1 X140.72 Y38.14 E81.21694
G1 X141.127 Y38.18 E81.22442
G1 X141.519 Y38.298 E81.23191
G1 X141.881 Y38.49 E81.2394
G1 X142.198 Y38.749 E81.24689
G1 X142.46 Y39.064 E81.25439
G1 X142.655 Y39.424 E81.26188
G1 X142.776 Y39.815 E81.26936
G1 X142.82 Y40.24 E81.27718
G0 F3600 X143.02 Y40.24
G1 F1200 X143.02 Y176.524 E83.77023
G1 X142.98 Y176.951 E83.77808
G1 X142.862 Y177.362 E83.7859
G1 X142.669 Y177.745 E83.79375
G1 X142.409 Y178.085 E83.80158
G1 X142.09 Y178.372 E83.80942
G1 X141.723 Y178.594 E83.81727
G1 X141.322 Y178.744 E83.8251
G1 X140.72 Y178.824 E83.83621
G1 X80.193 Y178.823 E84.94344
G1 X79.766 Y178.783 E84.95128
G1 X79.355 Y178.665 E84.9591
G1 X78.972 Y178.472 E84.96695
