;FLAVOR:Marlin
;TIME:33144
;Filament used:13.1757m
;Layer height: 0.2
;MINX:61.306
;MINY:42.1
;MINZ:0.15
;MAXX:158.604
;MAXY:177.9
;MAXZ:34.75
                               
;Creality Print GCode Generated by CXEngineDEV
;Generated Time:2022-06-30 15:03:09
;----------Machine Config--------------
;Machine Name:Creality Ender-3
;Machine Height:250
;Machine Width:220
;Machine Depth:220
;Material name:Castable
;Number of Extruders:1
;ExtruderParams[0] Nozzle Diameter1000
;----------Profile Config---------------
;Layer Height:0.2
;Wall Thickness:0.8
;Top/Bottom Thickness:1
;Out Wall Line Width:0.2
;Inner Wall Line Width:0.2
;Inital Layer Height:150
;Wall Line Count:4
;Infill Line Distance:2.5
;Infill Pattern:zigzag
;Infill Sparse Density:8
;Infill Wipe Distance:0
;Print Temperature:235
;Bed Temperature:74
;Support Enable:false
;Support Density:10
;Support Angle:0
;Adhesion Type:brim
;machine is belt:false
;machine belt offset:10
;machine belt offset Y:0
;Raft Base Line Spacing:1.6
;Wait Heatup Sync:true
;----------Shell Config----------------
;Outer Wall Wipe Distance:200
;Infill Before Walls:false
;Infill Overlap:0.08
;Fill Gaps Between Walls:everywhere
;Minimum Infill Area:1
;Top Surface Skin Layer:0
;Top Layers:3
;Z Seam Alignment:sharpest_corner
;Seam Corner Preference:z_seam_corner_inner
;Z Seam X:110
;Z Seam Y:110
;Horizontal Expansion:0
;Top/Bottom Pattern:zigzag
;Ironing Pattern:zigzag
;Vase Model:false
;----------Support Config----------------
;Support Type:everywhere
;Support Pattern:zigzag
;Support Infill Layer Thickness:0.2
;Minimum Support Area:5
;Enable Support Roof:false
;Support Roof Thickness:0.8
;Support Roof Pattern:lines
;Connect Support Lines:0
;Connect Support ZigZags:1
;Minimum Support X/Y Distance:0.2
;Support Line Distance:2
; ---------PrintSpeed & Travel----------
;Enable Print Cool:true
;Avoid Printed Parts Traveling:true
;Enable Retraction:true
;Retraction Distance:8
;Retraction Speed:100
;Retraction Prime Speed:100
;Maximum Retraction Count:100
;Minimum Extrusion Distance Window:1
;Z Hop When Retracted:false
;Z Hop Height:0.2
;Retract Before Outer Wall:true
;Print Speed:40
;Infill Speed:40

;Prime Tower Speed:40
;Travel Speed:120
;Initial Layer Speed:20
;Skirt/Brim Speed:20
;Combing Mode:off
; --------SpecialModel&Mesh Fixes--------
;Union Overlapping Volum:true
;Remove All Holes:false
;Maximum Travel Resolution:0.4
;Maximum Deviation:0.05
;Maximum Model Angle:0.872665
;IS Mold Print:false
;Make Overhang Printable:false
;Enable Coasting:false
;Coasting Volumes:0.06
;Coasting Speed:0.9
;Raft AirGap:0.25
;Layer0 ZOverLap:0.13
;---------------------End of Head--------------------------
M140 S74
M105
M104 S235
M105
M109 S235
M105
M190 S74
M82 ;absolute extrusion mode
M220 S100 ;Reset Feedrate
M221 S100 ;Reset Flowrate

G28 ;Home

G92 E0 ;Reset Extruder
G1 Z2.0 F3000 ;Move Z Axis up
G1 X10.1 Y20 Z0.28 F5000.0 ;Move to start position
G1 X10.1 Y145.0 Z0.28 F1500.0 E15 ;Draw the first line
G1 X10.4 Y145.0 Z0.28 F5000.0 ;Move to side a little
G1 X10.4 Y20 Z0.28 F1500.0 E30 ;Draw the second line
G92 E0  ;Reset Extruder
G1 E-1.0000 F1800 ;Retract a bit
G1 Z2.0 F3000 ;Move Z Axis up
G1 E0.0000 F1800 

G92 E0
G92 E0
G1 F6000 E-8

;LAYER_COUNT:174

;LAYER:0
M107
G0 F3600 X62.898 Y45.237 Z0.15
;;retract;;
G0 X68.987 Y49.79
;TYPE:SKIRT
G1 F6000 E0
G1 F1200 X69.201 Y49.7 E0.00319
G1 X150.704 Y49.7 E1.12139
G1 X150.962 Y49.847 E1.12546
G1 X151.004 Y50 E1.12764
G1 X151.004 Y170 E2.77402
G1 X150.857 Y170.258 E2.77809
G1 X150.704 Y170.3 E2.78027
G1 X69.2 Y170.3 E3.89849
G1 X68.942 Y170.153 E3.90256
G1 X68.91 Y169.923 E3.90575
G1 X71.503 Y160.127 E4.04478
G1 X73.63 Y150.225 E4.18373
G1 X75.287 Y140.252 E4.32243
G1 X76.474 Y130.202 E4.46127
G1 X77.186 Y120.123 E4.5999
G1 X77.424 Y109.992 E4.73893
G1 X77.186 Y99.877 E4.87775
G1 X76.474 Y89.796 E5.0164
G1 X75.285 Y79.734 E5.15541
G1 X73.626 Y69.751 E5.29425
G1 X71.503 Y59.873 E5.43287
G1 X68.911 Y50.077 E5.5719
G1 X68.987 Y49.79 E5.57597
;;retract;;
G1 F6000 E-2.42403
G0 F3600 X150.704 Y170.1
G1 F6000 E5.57597
G1 F1200 X69.2 Y170.1 E6.69419
G1 X69.103 Y169.974 E6.69637
G1 X71.696 Y160.178 E6.8354
G1 X73.828 Y150.253 E6.97467
G1 X75.484 Y140.285 E7.11331
G1 X76.672 Y130.23 E7.25222
G1 X77.386 Y120.123 E7.39123
G1 X77.624 Y109.997 E7.5302
G1 X77.386 Y99.872 E7.66915
G1 X76.672 Y89.768 E7.80812
G1 X75.484 Y79.715 E7.947
G1 X73.823 Y69.718 E8.08604
G1 X71.695 Y59.817 E8.22498
G1 X69.104 Y50.026 E8.36394
G1 X69.201 Y49.9 E8.36612
G1 X150.704 Y49.9 E9.48432
G1 X150.804 Y50 E9.48627
G1 X150.804 Y170 E11.13264
G1 X150.704 Y170.1 E11.13458
G0 F3600 X150.704 Y170.5
G1 F1200 X69.2 Y170.5 E12.2528
G1 X68.841 Y170.348 E12.25815
G1 X68.7 Y169.984 E12.26351
G1 X68.717 Y169.872 E12.26506
G1 X71.304 Y160.097 E12.40379
G1 X73.437 Y150.169 E12.54311
G1 X75.086 Y140.242 E12.68117
G1 X76.275 Y130.178 E12.82021
G1 X76.987 Y120.095 E12.95889
G1 X77.224 Y109.999 E13.09744
G1 X76.987 Y99.905 E13.23597
G1 X76.275 Y89.82 E13.37467
G1 X75.086 Y79.758 E13.51368
G1 X73.433 Y69.807 E13.65208
G1 X71.304 Y59.901 E13.79109
G1 X68.718 Y50.128 E13.92979
G1 X68.773 Y49.742 E13.93514
G1 X69.089 Y49.513 E13.94049
G1 X69.201 Y49.5 E13.94204
G1 X150.704 Y49.5 E15.06025
G1 X151.063 Y49.652 E15.0656
G1 X151.204 Y50 E15.07075
G1 X151.204 Y170 E16.71712
G1 X151.052 Y170.359 E16.72247
G1 X150.704 Y170.5 E16.72762
G0 F3600 X150.704 Y170.7
G1 F1200 X69.2 Y170.7 E17.84584
G1 X68.762 Y170.546 E17.85221
G1 X68.516 Y170.151 E17.8586
G1 X68.523 Y169.821 E17.86313
G1 X71.116 Y160.025 E18.00215
G1 X73.235 Y150.159 E18.1406
G1 X74.892 Y140.186 E18.2793
G1 X76.075 Y130.169 E18.41769
G1 X76.786 Y120.107 E18.55608
G1 X77.024 Y109.999 E18.6948
G1 X76.786 Y99.886 E18.83359
G1 X76.075 Y89.829 E18.97191
G1 X74.892 Y79.814 E19.11027
G1 X73.231 Y69.817 E19.24931
G1 X71.116 Y59.975 E19.38742
G1 X68.524 Y50.179 E19.52645
G1 X68.561 Y49.716 E19.53282
G1 X68.88 Y49.378 E19.53919
G1 X69.201 Y49.3 E19.54373
G1 X150.704 Y49.3 E20.66193
G1 X151.142 Y49.454 E20.6683
G1 X151.388 Y49.849 E20.67469
G1 X151.404 Y50 E20.67677
G1 X151.404 Y170 E22.32315
G1 X151.25 Y170.438 E22.32952
G1 X150.855 Y170.684 E22.3359
G1 X150.704 Y170.7 E22.33798
G0 F3600 X150.704 Y170.9
G1 F1200 X69.2 Y170.9 E23.4562
G1 X68.935 Y170.86 E23.45988
G1 X68.694 Y170.744 E23.46355
G1 X68.498 Y170.563 E23.46721
G1 X68.363 Y170.331 E23.47089
G1 X68.303 Y170.071 E23.47455
G1 X68.33 Y169.77 E23.4787
G1 X70.917 Y159.998 E23.61739
G1 X73.041 Y150.109 E23.75616
G1 X74.691 Y140.175 E23.89432
G1 X75.876 Y130.151 E24.0328
G1 X76.586 Y120.088 E24.17121
G1 X76.824 Y109.999 E24.30967
G1 X76.586 Y99.912 E24.4481
G1 X75.876 Y89.847 E24.58653
G1 X74.691 Y79.825 E24.72499
G1 X73.037 Y69.867 E24.86348
G1 X70.917 Y60.002 E25.00192
G1 X68.331 Y50.23 E25.1406
G1 X68.302 Y49.964 E25.14427
G1 X68.352 Y49.701 E25.14794
G1 X68.477 Y49.465 E25.15161
G1 X68.667 Y49.276 E25.15529
G1 X68.903 Y49.151 E25.15895
G1 X69.201 Y49.1 E25.1631
G1 X150.704 Y49.1 E26.2813
G1 X150.969 Y49.14 E26.28498
G1 X151.21 Y49.256 E26.28865
G1 X151.406 Y49.437 E26.29231
G1 X151.541 Y49.669 E26.29599
G1 X151.604 Y50 E26.30062
G1 X151.604 Y170 E27.94699
G1 X151.564 Y170.265 E27.95067
G1 X151.448 Y170.506 E27.95434
G1 X151.267 Y170.702 E27.958
G1 X151.035 Y170.837 E27.96168
G1 X150.704 Y170.9 E27.9663
G0 F3600 X150.704 Y171.1
G1 F1200 X69.2 Y171.1 E29.08452
G1 X68.907 Y171.06 E29.08858
G1 X68.635 Y170.944 E29.09264
G1 X68.404 Y170.759 E29.0967
G1 X68.23 Y170.519 E29.10076
G1 X68.127 Y170.242 E29.10482
G1 X68.101 Y169.947 E29.10888
G1 X68.137 Y169.719 E29.11205
G1 X70.723 Y159.948 E29.25072
G1 X72.844 Y150.074 E29.38928
G1 X74.495 Y140.141 E29.52743
G1 X75.677 Y130.137 E29.66564
G1 X76.386 Y120.09 E29.80382
G1 X76.623 Y109.999 E29.94231
G1 X76.386 Y99.91 E30.08076
G1 X75.677 Y89.861 E30.21898
G1 X74.495 Y79.859 E30.35716
G1 X72.84 Y69.902 E30.49564
G1 X70.723 Y60.052 E30.63387
G1 X68.138 Y50.281 E30.77253
G1 X68.101 Y49.988 E30.77659
G1 X68.144 Y49.695 E30.78065
G1 X68.264 Y49.424 E30.78472
G1 X68.451 Y49.195 E30.78877
G1 X68.693 Y49.024 E30.79284
G1 X68.972 Y48.924 E30.7969
G1 X69.201 Y48.9 E30.80006
G1 X150.704 Y48.9 E31.91827
G1 X150.997 Y48.94 E31.92233
G1 X151.269 Y49.056 E31.92638
G1 X151.5 Y49.241 E31.93044
G1 X151.674 Y49.481 E31.93451
G1 X151.777 Y49.758 E31.93856
G1 X151.804 Y50 E31.94191
G1 X151.804 Y170 E33.58828
G1 X151.764 Y170.293 E33.59234
G1 X151.648 Y170.565 E33.5964
G1 X151.463 Y170.796 E33.60046
G1 X151.223 Y170.97 E33.60452
G1 X150.946 Y171.073 E33.60858
G1 X150.704 Y171.1 E33.61192
G0 F3600 X150.704 Y171.3
G1 F1200 X69.2 Y171.3 E34.73014
G1 X68.881 Y171.26 E34.73455
G1 X68.581 Y171.143 E34.73897
G1 X68.319 Y170.956 E34.74338
G1 X68.111 Y170.71 E34.7478
G1 X67.97 Y170.421 E34.75221
G1 X67.904 Y170.106 E34.75663
G1 X67.943 Y169.667 E34.76268
G1 X70.53 Y159.893 E34.90139
G1 X72.65 Y150.022 E35.03991
G1 X74.294 Y140.128 E35.17751
G1 X75.477 Y130.12 E35.31578
G1 X76.187 Y120.071 E35.45399
G1 X76.423 Y109.999 E35.59221
G1 X76.187 Y99.929 E35.73041
G1 X75.477 Y89.878 E35.86865
G1 X74.294 Y79.872 E36.00689
G1 X72.646 Y69.954 E36.14483
G1 X70.53 Y60.107 E36.28301
G1 X67.944 Y50.333 E36.42172
G1 X67.901 Y50.014 E36.42614
G1 X67.938 Y49.694 E36.43056
G1 X68.052 Y49.393 E36.43497
G1 X68.236 Y49.129 E36.43939
G1 X68.48 Y48.919 E36.44381
G1 X68.767 Y48.774 E36.44822
G1 X69.201 Y48.7 E36.45426
G1 X150.704 Y48.7 E37.57246
G1 X151.023 Y48.74 E37.57687
G1 X151.323 Y48.857 E37.58129
G1 X151.585 Y49.044 E37.58571
G1 X151.793 Y49.29 E37.59013
G1 X151.934 Y49.579 E37.59454
G1 X152.004 Y50 E37.60039
G1 X152.004 Y170 E39.24677
G1 X151.964 Y170.319 E39.25118
G1 X151.847 Y170.619 E39.2556
G1 X151.66 Y170.881 E39.26002
G1 X151.414 Y171.089 E39.26444
G1 X151.125 Y171.23 E39.26885
G1 X150.704 Y171.3 E39.2747
G0 F3600 X150.704 Y171.5
G1 F1200 X69.2 Y171.5 E40.39292
G1 X68.856 Y171.46 E40.39767
G1 X68.531 Y171.343 E40.40241
G1 X68.241 Y171.154 E40.40716
G1 X68.003 Y170.904 E40.4119
G1 X67.828 Y170.605 E40.41665
G1 X67.725 Y170.275 E40.42139
G1 X67.702 Y169.93 E40.42614
G1 X67.75 Y169.616 E40.4305
G1 X70.331 Y159.864 E40.5689
G1 X72.452 Y149.991 E40.70744
G1 X74.097 Y140.091 E40.84513
G1 X75.279 Y130.083 E40.98339
G1 X75.987 Y120.073 E41.12107
G1 X76.223 Y109.999 E41.25932
G1 X75.987 Y99.927 E41.39755
G1 X75.279 Y89.915 E41.53525
G1 X74.097 Y79.909 E41.67349
G1 X72.448 Y69.986 E41.8115
G1 X70.331 Y60.136 E41.94972
G1 X67.751 Y50.384 E42.08812
G1 X67.702 Y50.041 E42.09288
G1 X67.732 Y49.697 E42.09761
G1 X67.84 Y49.369 E42.10235
G1 X68.021 Y49.074 E42.1071
G1 X68.265 Y48.828 E42.11185
G1 X68.558 Y48.645 E42.11659
G1 X68.885 Y48.534 E42.12133
G1 X69.201 Y48.5 E42.12569
G1 X150.704 Y48.5 E43.2439
G1 X151.048 Y48.54 E43.24865
G1 X151.373 Y48.657 E43.25339
G1 X151.663 Y48.846 E43.25814
G1 X151.901 Y49.096 E43.26287
G1 X152.076 Y49.395 E43.26763
G1 X152.179 Y49.725 E43.27237
G1 X152.204 Y50 E43.27616
G1 X152.204 Y170 E44.92253
G1 X152.164 Y170.344 E44.92728
G1 X152.047 Y170.669 E44.93202
G1 X151.858 Y170.959 E44.93677
G1 X151.608 Y171.197 E44.94151
G1 X151.309 Y171.372 E44.94626
G1 X150.979 Y171.475 E44.951
G1 X150.704 Y171.5 E44.95479
G0 F3600 X150.704 Y171.7
G1 F1200 X69.2 Y171.7 E46.07301
G1 X68.834 Y171.66 E46.07806
G1 X68.485 Y171.542 E46.08312
G1 X68.17 Y171.352 E46.08817
G1 X67.903 Y171.099 E46.09321
G1 X67.697 Y170.793 E46.09827
G1 X67.561 Y170.451 E46.10332
G1 X67.502 Y170.088 E46.10837
G1 X67.557 Y169.565 E46.11558
G1 X70.138 Y159.814 E46.25397
G1 X72.255 Y149.959 E46.39226
G1 X73.901 Y140.054 E46.53002
G1 X75.078 Y130.089 E46.66769
G1 X75.787 Y120.055 E46.8057
G1 X76.023 Y109.999 E46.9437
G1 X75.787 Y99.945 E47.08168
G1 X75.078 Y89.909 E47.21972
G1 X73.901 Y79.946 E47.35736
G1 X72.251 Y70.017 E47.49545
G1 X70.138 Y60.186 E47.63341
G1 X67.558 Y50.435 E47.77179
G1 X67.502 Y50.071 E47.77685
G1 X67.527 Y49.703 E47.78191
G1 X67.63 Y49.35 E47.78695
G1 X67.807 Y49.027 E47.79201
G1 X68.049 Y48.75 E47.79705
G1 X68.346 Y48.531 E47.80211
G1 X68.682 Y48.381 E47.80716
G1 X69.201 Y48.3 E47.81437
G1 X150.704 Y48.3 E48.93258
G1 X151.07 Y48.34 E48.93763
G1 X151.419 Y48.458 E48.94268
G1 X151.734 Y48.648 E48.94773
G1 X152.001 Y48.901 E48.95277
G1 X152.207 Y49.207 E48.95784
G1 X152.343 Y49.549 E48.96289
G1 X152.404 Y50 E48.96913
G1 X152.404 Y170 E50.61551
G1 X152.364 Y170.366 E50.62056
G1 X152.246 Y170.715 E50.62561
G1 X152.056 Y171.03 E50.63066
G1 X151.803 Y171.297 E50.63571
G1 X151.497 Y171.503 E50.64077
G1 X151.155 Y171.639 E50.64582
G1 X150.704 Y171.7 E50.65206
G0 F3600 X150.704 Y171.9
G1 F1200 X69.2 Y171.9 E51.77028
G1 X68.813 Y171.86 E51.77562
G1 X68.442 Y171.742 E51.78096
G1 X68.102 Y171.551 E51.78631
G1 X67.809 Y171.295 E51.79165
G1 X67.575 Y170.984 E51.79699
G1 X67.408 Y170.632 E51.80233
G1 X67.317 Y170.253 E51.80768
G1 X67.305 Y169.864 E51.81302
G1 X67.363 Y169.514 E51.81789
G1 X69.944 Y159.764 E51.95626
G1 X72.062 Y149.903 E52.09464
G1 X73.7 Y140.044 E52.23176
G1 X74.881 Y130.05 E52.36983
G1 X75.588 Y120.036 E52.50756
G1 X75.824 Y109.999 E52.6453
G1 X75.588 Y99.964 E52.78302
G1 X74.881 Y89.948 E52.92078
G1 X73.7 Y79.956 E53.05882
G1 X72.058 Y70.073 E53.19627
G1 X69.944 Y60.236 E53.33431
G1 X67.364 Y50.486 E53.47269
G1 X67.304 Y50.101 E53.47803
G1 X67.323 Y49.712 E53.48338
G1 X67.421 Y49.336 E53.48871
G1 X67.594 Y48.987 E53.49405
G1 X67.834 Y48.68 E53.4994
G1 X68.132 Y48.429 E53.50474
G1 X68.474 Y48.244 E53.51008
G1 X68.847 Y48.133 E53.51542
G1 X69.201 Y48.1 E53.52029
G1 X150.704 Y48.1 E54.6385
G1 X151.091 Y48.14 E54.64384
G1 X151.462 Y48.258 E54.64918
G1 X151.802 Y48.449 E54.65453
G1 X152.095 Y48.705 E54.65987
G1 X152.329 Y49.016 E54.66521
G1 X152.496 Y49.368 E54.67055
G1 X152.587 Y49.747 E54.6759
G1 X152.604 Y50 E54.67938
G1 X152.604 Y170 E56.32576
G1 X152.564 Y170.387 E56.33109
G1 X152.446 Y170.758 E56.33644
G1 X152.255 Y171.098 E56.34179
G1 X151.999 Y171.391 E56.34712
G1 X151.688 Y171.625 E56.35246
G1 X151.336 Y171.792 E56.35781
G1 X150.957 Y171.883 E56.36316
G1 X150.704 Y171.9 E56.36664
G0 F3600 X150.704 Y172.1
G1 F1200 X69.2 Y172.1 E57.48485
G1 X68.793 Y172.06 E57.49047
G1 X68.401 Y171.942 E57.49608
G1 X68.039 Y171.75 E57.5017
G1 X67.722 Y171.491 E57.50732
G1 X67.46 Y171.176 E57.51294
G1 X67.265 Y170.816 E57.51856
G1 X67.144 Y170.425 E57.52417
G1 X67.1 Y170.018 E57.52979
G1 X67.17 Y169.463 E57.53747
G1 X69.75 Y159.715 E57.67581
G1 X71.86 Y149.892 E57.81365
G1 X73.506 Y139.987 E57.95141
G1 X74.679 Y130.056 E58.08861
G1 X75.388 Y120.018 E58.22667
G1 X75.624 Y109.999 E58.36417
G1 X75.388 Y99.982 E58.50164
G1 X74.679 Y89.942 E58.63973
G1 X73.506 Y80.013 E58.7769
G1 X71.856 Y70.084 E58.91499
G1 X69.75 Y60.285 E59.0525
G1 X67.171 Y50.537 E59.19085
G1 X67.105 Y50.133 E59.19646
G1 X67.119 Y49.724 E59.20208
G1 X67.212 Y49.325 E59.2077
G1 X67.381 Y48.952 E59.21332
G1 X67.619 Y48.619 E59.21893
G1 X67.917 Y48.338 E59.22455
G1 X68.264 Y48.121 E59.23017
G1 X68.646 Y47.975 E59.23578
G1 X69.201 Y47.9 E59.24346
G1 X150.704 Y47.9 E60.36167
G1 X151.111 Y47.94 E60.36728
G1 X151.503 Y48.058 E60.37289
G1 X151.865 Y48.25 E60.37852
G1 X152.182 Y48.509 E60.38413
G1 X152.444 Y48.824 E60.38975
G1 X152.639 Y49.184 E60.39537
G1 X152.76 Y49.575 E60.40099
G1 X152.804 Y50 E60.40685
G1 X152.804 Y170 E62.05322
G1 X152.764 Y170.407 E62.05883
G1 X152.646 Y170.799 E62.06445
G1 X152.454 Y171.161 E62.07007
G1 X152.195 Y171.478 E62.07569
G1 X151.88 Y171.74 E62.08131
G1 X151.52 Y171.935 E62.08693
G1 X151.129 Y172.056 E62.09254
G1 X150.704 Y172.1 E62.09841
G0 F3600 X150.704 Y172.3
G1 F1200 X69.2 Y172.3 E63.21662
G1 X68.773 Y172.26 E63.22251
G1 X68.362 Y172.142 E63.22838
G1 X67.979 Y171.949 E63.23426
G1 X67.639 Y171.689 E63.24013
G1 X67.352 Y171.37 E63.24602
G1 X67.13 Y171.003 E63.2519
G1 X66.98 Y170.602 E63.25778
G1 X66.907 Y170.18 E63.26365
G1 X66.913 Y169.751 E63.26954
G1 X66.977 Y169.411 E63.27429
G1 X69.553 Y159.68 E63.41239
G1 X71.666 Y149.84 E63.55047
G1 X73.306 Y139.973 E63.6877
G1 X74.482 Y130.017 E63.82525
G1 X75.188 Y120.02 E63.96275
G1 X75.424 Y109.999 E64.10027
G1 X75.188 Y99.98 E64.23777
G1 X74.482 Y89.981 E64.37529
G1 X73.306 Y80.027 E64.51281
G1 X71.662 Y70.136 E64.65037
G1 X69.552 Y60.315 E64.78819
G1 X66.978 Y50.588 E64.92624
