;FLAVOR:Marlin
;TIME:48237
;Filament used:14.1393m
;Layer height: 0.2
;MINX:46.136
;MINY:46.135
;MINZ:0.15
;MAXX:174.021
;MAXY:174.02
;MAXZ:31.15
                            
;Creality Print GCode Generated by CXEngineDEV
;Generated Time:2022-06-30 15:03:09
;----------Machine Config--------------
;Machine Name:Creality Ender-3
;Machine Height:250
;Machine Width:220
;Machine Depth:220
;Material name:Castable
;Number of Extruders:1
;ExtruderParams[0] Nozzle Diameter1000
;----------Profile Config---------------
;Layer Height:0.2
;Wall Thickness:1
;Top/Bottom Thickness:1
;Out Wall Line Width:0.2
;Inner Wall Line Width:0.2
;Inital Layer Height:150
;Wall Line Count:5
;Infill Line Distance:2
;Infill Pattern:grid
;Infill Sparse Density:20
;Infill Wipe Distance:0
;Print Temperature:235
;Bed Temperature:74
;Support Enable:false
;Support Density:10
;Support Angle:0
;Adhesion Type:brim
;machine is belt:false
;machine belt offset:10
;machine belt offset Y:0
;Raft Base Line Spacing:1.6
;Wait Heatup Sync:true
;----------Shell Config----------------
;Outer Wall Wipe Distance:200
;Infill Before Walls:false
;Infill Overlap:0.08
;Fill Gaps Between Walls:everywhere
;Minimum Infill Area:1
;Top Surface Skin Layer:0
;Top Layers:6
;Z Seam Alignment:sharpest_corner
;Seam Corner Preference:z_seam_corner_inner
;Z Seam X:110
;Z Seam Y:110
;Horizontal Expansion:0
;Top/Bottom Pattern:zigzag
;Ironing Pattern:zigzag
;Vase Model:false
;----------Support Config----------------
;Support Type:everywhere
;Support Pattern:zigzag
;Support Infill Layer Thickness:0.2
;Minimum Support Area:5
;Enable Support Roof:false
;Support Roof Thickness:0.8
;Support Roof Pattern:lines
;Connect Support Lines:0
;Connect Support ZigZags:1
;Minimum Support X/Y Distance:0.2
;Support Line Distance:2
; ---------PrintSpeed & Travel----------
;Enable Print Cool:true
;Avoid Printed Parts Traveling:true
;Enable Retraction:true
;Retraction Distance:8
;Retraction Speed:100
;Retraction Prime Speed:100
;Maximum Retraction Count:100
;Minimum Extrusion Distance Window:1
;Z Hop When Retracted:false
;Z Hop Height:0.2
;Retract Before Outer Wall:true
;Print Speed:32
;Infill Speed:32

;Prime Tower Speed:32
;Travel Speed:120
;Initial Layer Speed:16
;Skirt/Brim Speed:16
;Combing Mode:off
; --------SpecialModel&Mesh Fixes--------
;Union Overlapping Volum:true
;Remove All Holes:false
;Maximum Travel Resolution:0.4
;Maximum Deviation:0.05
;Maximum Model Angle:0.872665
;IS Mold Print:false
;Make Overhang Printable:false
;Enable Coasting:false
;Coasting Volumes:0.06
;Coasting Speed:0.9
;Raft AirGap:0.25
;Layer0 ZOverLap:0.13
;---------------------End of Head--------------------------
M140 S74
M105
M104 S235
M105
M109 S235
M105
M190 S74
M82 ;absolute extrusion mode
M220 S100 ;Reset Feedrate
M221 S100 ;Reset Flowrate

G28 ;Home

G92 E0 ;Reset Extruder
G1 Z2.0 F3000 ;Move Z Axis up
G1 X10.1 Y20 Z0.28 F5000.0 ;Move to start position
G1 X10.1 Y145.0 Z0.28 F1500.0 E15 ;Draw the first line
G1 X10.4 Y145.0 Z0.28 F5000.0 ;Move to side a little
G1 X10.4 Y20 Z0.28 F1500.0 E30 ;Draw the second line
G92 E0  ;Reset Extruder
G1 E-1.0000 F1800 ;Retract a bit
G1 Z2.0 F3000 ;Move Z Axis up
G1 E0.0000 F1800 

G92 E0
G92 E0
G1 F6000 E-8

;LAYER_COUNT:156

;LAYER:0
M107
G0 F3600 X48.448 Y93.348 Z0.15
;;retract;;
G0 X53.963 Y99.005
;TYPE:SKIRT
G1 F6000 E0
G1 F960 X53.963 Y98.863 E0.00195
G1 X98.864 Y53.962 E0.87315
G1 X99.006 Y53.962 E0.8751
G1 X166.194 Y121.15 E2.17873
G1 X166.194 Y121.292 E2.18068
G1 X121.293 Y166.193 E3.05188
G1 X121.151 Y166.193 E3.05383
G1 X53.963 Y99.005 E4.35746
G0 F3600 X53.822 Y99.146
G1 F960 X53.743 Y98.86 E4.36153
G1 X53.822 Y98.722 E4.36371
G1 X98.723 Y53.821 E5.23491
G1 X99.009 Y53.742 E5.23898
G1 X99.147 Y53.821 E5.24117
G1 X166.335 Y121.009 E6.5448
G1 X166.414 Y121.295 E6.54887
G1 X166.335 Y121.433 E6.55105
G1 X121.434 Y166.334 E7.42225
G1 X121.148 Y166.413 E7.42632
G1 X121.01 Y166.334 E7.4285
G1 X53.822 Y99.146 E8.73214
G0 F3600 X53.68 Y99.288
G1 F960 X53.534 Y98.926 E8.73749
G1 X53.68 Y98.58 E8.74264
G1 X98.581 Y53.679 E9.61385
G1 X98.943 Y53.533 E9.6192
G1 X99.289 Y53.679 E9.62435
G1 X166.477 Y120.867 E10.92798
G1 X166.623 Y121.229 E10.93334
G1 X166.477 Y121.575 E10.93849
G1 X121.576 Y166.476 E11.80969
G1 X121.214 Y166.622 E11.81505
G1 X120.868 Y166.476 E11.8202
G1 X53.68 Y99.288 E13.12383
G0 F3600 X53.539 Y99.429
G1 F960 X53.338 Y99.01 E13.13021
G1 X53.444 Y98.557 E13.13659
G1 X53.539 Y98.439 E13.13867
G1 X98.44 Y53.538 E14.00987
G1 X98.859 Y53.337 E14.01625
G1 X99.312 Y53.443 E14.02263
G1 X99.43 Y53.538 E14.02471
G1 X166.618 Y120.726 E15.32834
G1 X166.819 Y121.145 E15.33472
G1 X166.713 Y121.598 E15.3411
G1 X166.618 Y121.716 E15.34318
G1 X121.717 Y166.617 E16.21438
G1 X121.298 Y166.818 E16.22076
G1 X120.845 Y166.712 E16.22714
G1 X120.727 Y166.617 E16.22922
G1 X53.539 Y99.429 E17.53285
G0 F3600 X53.398 Y99.57
G1 F960 X53.239 Y99.355 E17.53652
G1 X53.15 Y99.103 E17.54018
G1 X53.139 Y98.835 E17.54386
G1 X53.208 Y98.577 E17.54753
G1 X53.398 Y98.298 E17.55216
G1 X98.299 Y53.397 E18.42336
G1 X98.514 Y53.238 E18.42703
G1 X98.766 Y53.149 E18.4307
G1 X99.034 Y53.138 E18.43438
G1 X99.292 Y53.207 E18.43804
G1 X99.571 Y53.397 E18.44267
G1 X166.759 Y120.585 E19.7463
G1 X166.918 Y120.8 E19.74997
G1 X167.007 Y121.052 E19.75364
G1 X167.018 Y121.32 E19.75732
G1 X166.949 Y121.578 E19.76098
G1 X166.759 Y121.857 E19.76561
G1 X121.858 Y166.758 E20.63682
G1 X121.643 Y166.917 E20.64048
G1 X121.391 Y167.006 E20.64415
G1 X121.123 Y167.017 E20.64783
G1 X120.865 Y166.948 E20.65149
G1 X120.586 Y166.758 E20.65613
G1 X53.398 Y99.57 E21.95976
G0 F3600 X53.256 Y99.712
G1 F960 X53.077 Y99.476 E21.96382
G1 X52.967 Y99.201 E21.96788
G1 X52.934 Y98.907 E21.97194
G1 X52.981 Y98.615 E21.976
G1 X53.104 Y98.346 E21.98006
G1 X53.256 Y98.156 E21.9834
G1 X98.157 Y53.255 E22.8546
G1 X98.393 Y53.076 E22.85866
G1 X98.668 Y52.966 E22.86273
G1 X98.962 Y52.933 E22.86679
G1 X99.254 Y52.98 E22.87084
G1 X99.523 Y53.103 E22.8749
G1 X99.713 Y53.255 E22.87824
G1 X166.901 Y120.443 E24.18187
G1 X167.08 Y120.679 E24.18593
G1 X167.19 Y120.954 E24.19
G1 X167.223 Y121.248 E24.19406
G1 X167.176 Y121.54 E24.19812
G1 X167.053 Y121.809 E24.20217
G1 X166.901 Y121.999 E24.20551
G1 X122 Y166.9 E25.07671
G1 X121.764 Y167.079 E25.08078
G1 X121.489 Y167.189 E25.08484
G1 X121.195 Y167.222 E25.0889
G1 X120.903 Y167.175 E25.09296
G1 X120.634 Y167.052 E25.09702
G1 X120.444 Y166.9 E25.10035
G1 X53.256 Y99.712 E26.40399
G0 F3600 X53.115 Y99.853
G1 F960 X52.917 Y99.599 E26.4084
G1 X52.788 Y99.304 E26.41282
G1 X52.735 Y98.987 E26.41723
G1 X52.762 Y98.666 E26.42165
G1 X52.867 Y98.362 E26.42606
G1 X53.115 Y98.015 E26.43191
G1 X98.016 Y53.114 E27.30312
G1 X98.27 Y52.916 E27.30754
G1 X98.565 Y52.787 E27.31195
G1 X98.882 Y52.734 E27.31636
G1 X99.203 Y52.761 E27.32078
G1 X99.507 Y52.866 E27.32519
G1 X99.854 Y53.114 E27.33105
G1 X167.042 Y120.302 E28.63468
G1 X167.24 Y120.556 E28.6391
G1 X167.369 Y120.851 E28.64351
G1 X167.422 Y121.168 E28.64792
G1 X167.395 Y121.489 E28.65234
G1 X167.29 Y121.793 E28.65676
G1 X167.042 Y122.14 E28.66261
G1 X122.141 Y167.041 E29.53381
G1 X121.887 Y167.239 E29.53823
G1 X121.592 Y167.368 E29.54264
G1 X121.275 Y167.421 E29.54705
G1 X120.954 Y167.394 E29.55147
G1 X120.65 Y167.289 E29.55589
G1 X120.303 Y167.041 E29.56174
G1 X53.115 Y99.853 E30.86537
G0 F3600 X52.973 Y99.995
G1 F960 X52.759 Y99.724 E30.87011
G1 X52.612 Y99.41 E30.87486
G1 X52.54 Y99.072 E30.8796
G1 X52.548 Y98.726 E30.88435
G1 X52.635 Y98.392 E30.88909
G1 X52.797 Y98.086 E30.89384
G1 X52.973 Y97.873 E30.89763
G1 X97.874 Y52.972 E31.76883
G1 X98.145 Y52.758 E31.77357
G1 X98.459 Y52.611 E31.77833
G1 X98.797 Y52.539 E31.78307
G1 X99.143 Y52.547 E31.78782
G1 X99.477 Y52.634 E31.79255
G1 X99.783 Y52.796 E31.7973
G1 X99.996 Y52.972 E31.80109
G1 X167.184 Y120.16 E33.10472
G1 X167.398 Y120.431 E33.10946
G1 X167.545 Y120.745 E33.11422
G1 X167.617 Y121.083 E33.11896
G1 X167.609 Y121.429 E33.12371
G1 X167.522 Y121.763 E33.12844
G1 X167.36 Y122.069 E33.13319
G1 X167.184 Y122.282 E33.13698
G1 X122.283 Y167.183 E34.00819
G1 X122.012 Y167.397 E34.01292
G1 X121.698 Y167.544 E34.01768
G1 X121.36 Y167.616 E34.02242
G1 X121.014 Y167.608 E34.02717
G1 X120.68 Y167.521 E34.03191
G1 X120.374 Y167.359 E34.03666
G1 X120.161 Y167.183 E34.04045
G1 X52.973 Y99.995 E35.34408
G0 F3600 X52.832 Y100.136
G1 F960 X52.601 Y99.849 E35.34913
G1 X52.438 Y99.519 E35.35418
G1 X52.349 Y99.162 E35.35923
G1 X52.34 Y98.793 E35.36429
G1 X52.41 Y98.432 E35.36934
G1 X52.556 Y98.094 E35.37439
G1 X52.832 Y97.732 E35.38064
G1 X97.733 Y52.831 E36.25184
G1 X98.02 Y52.6 E36.25689
G1 X98.35 Y52.437 E36.26194
G1 X98.707 Y52.348 E36.26699
G1 X99.076 Y52.339 E36.27205
G1 X99.437 Y52.409 E36.2771
G1 X99.775 Y52.555 E36.28215
G1 X100.137 Y52.831 E36.2884
G1 X167.325 Y120.019 E37.59203
G1 X167.556 Y120.306 E37.59708
G1 X167.719 Y120.636 E37.60213
G1 X167.808 Y120.993 E37.60718
G1 X167.817 Y121.362 E37.61224
G1 X167.747 Y121.723 E37.61729
G1 X167.601 Y122.061 E37.62234
G1 X167.325 Y122.423 E37.62859
G1 X122.424 Y167.324 E38.49979
G1 X122.137 Y167.555 E38.50484
G1 X121.807 Y167.718 E38.50989
G1 X121.45 Y167.807 E38.51494
G1 X121.081 Y167.816 E38.52
G1 X120.72 Y167.746 E38.52505
G1 X120.382 Y167.6 E38.5301
G1 X120.02 Y167.324 E38.53635
G1 X52.832 Y100.136 E39.83998
G0 F3600 X52.69 Y100.278
G1 F960 X52.445 Y99.975 E39.84532
G1 X52.266 Y99.63 E39.85066
G1 X52.161 Y99.255 E39.856
G1 X52.135 Y98.866 E39.86135
G1 X52.189 Y98.48 E39.86669
G1 X52.32 Y98.114 E39.87203
G1 X52.523 Y97.782 E39.87737
G1 X52.69 Y97.59 E39.88086
G1 X97.591 Y52.689 E40.75206
G1 X97.894 Y52.444 E40.75741
G1 X98.239 Y52.265 E40.76274
G1 X98.614 Y52.16 E40.76808
G1 X99.003 Y52.134 E40.77343
G1 X99.389 Y52.188 E40.77878
G1 X99.755 Y52.319 E40.78411
G1 X100.087 Y52.522 E40.78945
G1 X100.279 Y52.689 E40.79294
G1 X167.467 Y119.877 E42.09657
G1 X167.712 Y120.18 E42.10192
G1 X167.891 Y120.525 E42.10725
G1 X167.996 Y120.9 E42.11259
G1 X168.022 Y121.289 E42.11794
G1 X167.968 Y121.675 E42.12329
G1 X167.837 Y122.041 E42.12862
G1 X167.634 Y122.373 E42.13396
G1 X167.467 Y122.565 E42.13745
G1 X122.566 Y167.466 E43.00866
G1 X122.263 Y167.711 E43.014
G1 X121.918 Y167.89 E43.01933
G1 X121.543 Y167.995 E43.02468
G1 X121.154 Y168.021 E43.03003
G1 X120.768 Y167.967 E43.03537
G1 X120.402 Y167.836 E43.04071
G1 X120.07 Y167.633 E43.04605
G1 X119.878 Y167.466 E43.04954
G1 X52.69 Y100.278 E44.35317
G0 F3600 X52.549 Y100.419
G1 F960 X52.289 Y100.103 E44.35878
G1 X52.096 Y99.742 E44.3644
G1 X51.976 Y99.35 E44.37002
G1 X51.934 Y98.943 E44.37564
G1 X51.972 Y98.536 E44.38125
G1 X52.089 Y98.143 E44.38687
G1 X52.279 Y97.781 E44.39248
G1 X52.549 Y97.449 E44.39835
G1 X97.45 Y52.548 E45.26955
G1 X97.766 Y52.288 E45.27517
G1 X98.127 Y52.095 E45.28078
G1 X98.519 Y51.975 E45.28641
G1 X98.926 Y51.933 E45.29202
G1 X99.333 Y51.971 E45.29763
G1 X99.726 Y52.088 E45.30326
G1 X100.088 Y52.278 E45.30887
G1 X100.42 Y52.548 E45.31474
G1 X167.608 Y119.736 E46.61837
G1 X167.868 Y120.052 E46.62398
G1 X168.061 Y120.413 E46.6296
G1 X168.181 Y120.805 E46.63522
G1 X168.223 Y121.212 E46.64084
G1 X168.185 Y121.619 E46.64644
G1 X168.068 Y122.012 E46.65207
G1 X167.878 Y122.374 E46.65768
G1 X167.608 Y122.706 E46.66355
G1 X122.707 Y167.607 E47.53475
G1 X122.391 Y167.867 E47.54037
G1 X122.03 Y168.06 E47.54598
G1 X121.638 Y168.18 E47.55161
G1 X121.231 Y168.222 E47.55722
G1 X120.824 Y168.184 E47.56283
G1 X120.431 Y168.067 E47.56846
G1 X120.069 Y167.877 E47.57406
G1 X119.737 Y167.607 E47.57994
G1 X52.549 Y100.419 E48.88357
G0 F3600 X52.408 Y100.56
G1 F960 X52.134 Y100.23 E48.88945
G1 X51.927 Y99.856 E48.89532
G1 X51.792 Y99.449 E48.9012
G1 X51.736 Y99.024 E48.90708
G1 X51.759 Y98.596 E48.91296
G1 X51.861 Y98.18 E48.91884
G1 X52.039 Y97.79 E48.92472
G1 X52.408 Y97.308 E48.93305
G1 X97.309 Y52.407 E49.80425
G1 X97.639 Y52.133 E49.81013
G1 X98.013 Y51.926 E49.816
G1 X98.42 Y51.791 E49.82188
G1 X98.845 Y51.735 E49.82776
G1 X99.273 Y51.758 E49.83364
G1 X99.689 Y51.86 E49.83952
G1 X100.079 Y52.038 E49.8454
G1 X100.561 Y52.407 E49.85373
G1 X167.749 Y119.595 E51.15736
G1 X168.023 Y119.925 E51.16325
G1 X168.23 Y120.299 E51.16911
G1 X168.365 Y120.706 E51.17499
G1 X168.421 Y121.131 E51.18088
G1 X168.398 Y121.559 E51.18676
G1 X168.296 Y121.975 E51.19263
G1 X168.118 Y122.365 E51.19851
G1 X167.749 Y122.847 E51.20684
G1 X122.848 Y167.748 E52.07805
G1 X122.518 Y168.022 E52.08393
G1 X122.144 Y168.229 E52.08979
G1 X121.737 Y168.364 E52.09568
G1 X121.312 Y168.42 E52.10156
G1 X120.884 Y168.397 E52.10744
G1 X120.468 Y168.295 E52.11332
G1 X120.078 Y168.117 E52.1192
G1 X119.596 Y167.748 E52.12753
G1 X52.408 Y100.56 E53.43116
G0 F3600 X52.266 Y100.702
G1 F960 X51.98 Y100.359 E53.43728
G1 X51.759 Y99.971 E53.44341
G1 X51.611 Y99.549 E53.44955
G1 X51.54 Y99.108 E53.45567
G1 X51.549 Y98.661 E53.46181
G1 X51.637 Y98.223 E53.46794
G1 X51.802 Y97.808 E53.47406
G1 X52.038 Y97.429 E53.48019
G1 X52.266 Y97.166 E53.48497
G1 X97.167 Y52.265 E54.35617
G1 X97.51 Y51.979 E54.3623
G1 X97.898 Y51.758 E54.36842
G1 X98.32 Y51.61 E54.37456
G1 X98.761 Y51.539 E54.38069
G1 X99.208 Y51.548 E54.38682
G1 X99.646 Y51.636 E54.39295
G1 X100.061 Y51.801 E54.39908
G1 X100.44 Y52.037 E54.4052
G1 X100.703 Y52.265 E54.40998
G1 X167.891 Y119.453 E55.71361
G1 X168.177 Y119.796 E55.71973
G1 X168.398 Y120.184 E55.72586
G1 X168.546 Y120.606 E55.732
G1 X168.617 Y121.047 E55.73813
G1 X168.608 Y121.494 E55.74426
G1 X168.52 Y121.932 E55.75039
G1 X168.355 Y122.347 E55.75652
G1 X168.119 Y122.726 E55.76264
G1 X167.891 Y122.989 E55.76742
G1 X122.99 Y167.89 E56.63862
G1 X122.647 Y168.176 E56.64475
G1 X122.259 Y168.397 E56.65087
G1 X121.837 Y168.545 E56.65701
G1 X121.396 Y168.616 E56.66314
G1 X120.949 Y168.607 E56.66927
G1 X120.511 Y168.519 E56.6754
G1 X120.096 Y168.354 E56.68153
G1 X119.717 Y168.118 E56.68765
G1 X119.454 Y167.89 E56.69243
G1 X52.266 Y100.702 E57.99606
G0 F3600 X52.125 Y100.843
G1 F960 X51.826 Y100.488 E58.00243
G1 X51.592 Y100.087 E58.0088
G1 X51.431 Y99.651 E58.01517
G1 X51.347 Y99.195 E58.02153
G1 X51.342 Y98.73 E58.02791
G1 X51.416 Y98.272 E58.03428
G1 X51.569 Y97.833 E58.04066
G1 X51.794 Y97.427 E58.04703
G1 X52.125 Y97.025 E58.05417
G1 X97.026 Y52.124 E58.92537
G1 X97.381 Y51.825 E58.93174
G1 X97.782 Y51.591 E58.93811
G1 X98.218 Y51.43 E58.94449
G1 X98.674 Y51.346 E58.95085
G1 X99.139 Y51.341 E58.95723
G1 X99.597 Y51.415 E58.96359
G1 X100.036 Y51.568 E58.96997
G1 X100.442 Y51.793 E58.97634
G1 X100.844 Y52.124 E58.98349
G1 X168.032 Y119.312 E60.28712
G1 X168.331 Y119.667 E60.29348
G1 X168.565 Y120.068 E60.29985
G1 X168.726 Y120.504 E60.30623
G1 X168.81 Y120.96 E60.31259
G1 X168.815 Y121.425 E60.31897
G1 X168.741 Y121.883 E60.32534
G1 X168.588 Y122.322 E60.33172
G1 X168.363 Y122.728 E60.33808
G1 X168.032 Y123.13 E60.34523
G1 X123.131 Y168.031 E61.21643
G1 X122.776 Y168.33 E61.2228
G1 X122.375 Y168.564 E61.22917
G1 X121.939 Y168.725 E61.23555
G1 X121.483 Y168.809 E61.24191
G1 X121.018 Y168.814 E61.24829
G1 X120.56 Y168.74 E61.25465
G1 X120.121 Y168.587 E61.26103
G1 X119.715 Y168.362 E61.2674
G1 X119.313 Y168.031 E61.27454
G1 X52.125 Y100.843 E62.57817
G0 F3600 X51.983 Y100.985
G1 F960 X51.673 Y100.617 E62.58478
G1 X51.427 Y100.204 E62.59137
G1 X51.253 Y99.755 E62.59798
G1 X51.155 Y99.284 E62.60458
G1 X51.137 Y98.803 E62.61118
G1 X51.199 Y98.325 E62.61779
G1 X51.338 Y97.865 E62.62439
G1 X51.552 Y97.434 E62.63099
G1 X51.983 Y96.883 E62.64059
G1 X96.884 Y51.982 E63.51179
G1 X97.252 Y51.672 E63.51839
G1 X97.665 Y51.426 E63.52499
G1 X98.114 Y51.252 E63.53159
G1 X98.585 Y51.154 E63.53819
G1 X99.066 Y51.136 E63.5448
G1 X99.544 Y51.198 E63.55141
G1 X100.004 Y51.337 E63.558
G1 X100.435 Y51.551 E63.56461
G1 X100.986 Y51.982 E63.5742
G1 X168.174 Y119.17 E64.87783
G1 X168.484 Y119.538 E64.88444
G1 X168.73 Y119.951 E64.89103
G1 X168.904 Y120.4 E64.89764
G1 X169.002 Y120.871 E64.90424
G1 X169.02 Y121.352 E64.91084
G1 X168.958 Y121.83 E64.91745
G1 X168.819 Y122.29 E64.92405
G1 X168.605 Y122.721 E64.93065
G1 X168.174 Y123.272 E64.94025
G1 X123.273 Y168.173 E65.81145
G1 X122.905 Y168.483 E65.81805
G1 X122.492 Y168.729 E65.82465
G1 X122.043 Y168.903 E65.83125
