;FLAVOR:Marlin
;TIME:69246
;Filament used:21.8201m
;Layer height: 0.2
;MINX:32.337
;MINY:33.571
;MINZ:0.15
;MAXX:186.429
;MAXY:187.66
;MAXZ:22.55
                            
;Creality Print GCode Generated by CXEngineDEV
;Generated Time:2022-06-30 15:03:09
;----------Machine Config--------------
;Machine Name:Creality Ender-3
;Machine Height:250
;Machine Width:220
;Machine Depth:220
;Material name:Castable
;Number of Extruders:1
;ExtruderParams[0] Nozzle Diameter1000
;----------Profile Config---------------
;Layer Height:0.2
;Wall Thickness:1
;Top/Bottom Thickness:1
;Out Wall Line Width:0.2
;Inner Wall Line Width:0.2
;Inital Layer Height:150
;Wall Line Count:5
;Infill Line Distance:2
;Infill Pattern:grid
;Infill Sparse Density:20
;Infill Wipe Distance:0
;Print Temperature:235
;Bed Temperature:74
;Support Enable:false
;Support Density:10
;Support Angle:0
;Adhesion Type:brim
;machine is belt:false
;machine belt offset:10
;machine belt offset Y:0
;Raft Base Line Spacing:1.6
;Wait Heatup Sync:true
;----------Shell Config----------------
;Outer Wall Wipe Distance:200
;Infill Before Walls:false
;Infill Overlap:0.08
;Fill Gaps Between Walls:everywhere
;Minimum Infill Area:1
;Top Surface Skin Layer:0
;Top Layers:6
;Z Seam Alignment:sharpest_corner
;Seam Corner Preference:z_seam_corner_inner
;Z Seam X:110
;Z Seam Y:110
;Horizontal Expansion:0
;Top/Bottom Pattern:zigzag
;Ironing Pattern:zigzag
;Vase Model:false
;----------Support Config----------------
;Support Type:everywhere
;Support Pattern:zigzag
;Support Infill Layer Thickness:0.2
;Minimum Support Area:5
;Enable Support Roof:false
;Support Roof Thickness:0.8
;Support Roof Pattern:lines
;Connect Support Lines:0
;Connect Support ZigZags:1
;Minimum Support X/Y Distance:0.2
;Support Line Distance:2
; ---------PrintSpeed & Travel----------
;Enable Print Cool:true
;Avoid Printed Parts Traveling:true
;Enable Retraction:true
;Retraction Distance:8
;Retraction Speed:100
;Retraction Prime Speed:100
;Maximum Retraction Count:100
;Minimum Extrusion Distance Window:1
;Z Hop When Retracted:false
;Z Hop Height:0.2
;Retract Before Outer Wall:true
;Print Speed:32
;Infill Speed:32

;Prime Tower Speed:32
;Travel Speed:120
;Initial Layer Speed:16
;Skirt/Brim Speed:16
;Combing Mode:off
; --------SpecialModel&Mesh Fixes--------
;Union Overlapping Volum:true
;Remove All Holes:false
;Maximum Travel Resolution:0.4
;Maximum Deviation:0.05
;Maximum Model Angle:0.872665
;IS Mold Print:false
;Make Overhang Printable:false
;Enable Coasting:false
;Coasting Volumes:0.06
;Coasting Speed:0.9
;Raft AirGap:0.25
;Layer0 ZOverLap:0.13
;---------------------End of Head--------------------------
M140 S74
M105
M104 S235
M105
M109 S235
M105
M190 S74
M82 ;absolute extrusion mode
M220 S100 ;Reset Feedrate
M221 S100 ;Reset Flowrate

G28 ;Home

G92 E0 ;Reset Extruder
G1 Z2.0 F3000 ;Move Z Axis up
G1 X10.1 Y20 Z0.28 F5000.0 ;Move to start position
G1 X10.1 Y145.0 Z0.28 F1500.0 E15 ;Draw the first line
G1 X10.4 Y145.0 Z0.28 F5000.0 ;Move to side a little
G1 X10.4 Y20 Z0.28 F1500.0 E30 ;Draw the second line
G92 E0  ;Reset Extruder
G1 E-1.0000 F1800 ;Retract a bit
G1 Z2.0 F3000 ;Move Z Axis up
G1 E0.0000 F1800 

G92 E0
G92 E0
G1 F6000 E-8

;LAYER_COUNT:113

;LAYER:0
M107
G0 F3600 X74.162 Y35.883 Z0.15
;;retract;;
G0 X138.95 Y179.833
;TYPE:SKIRT
G1 F6000 E0
G1 F960 X40.164 Y81.054 E1.91665
G1 X40.164 Y80.912 E1.9186
G1 X79.677 Y41.398 E2.68527
G1 X79.819 Y41.398 E2.68722
G1 X178.602 Y140.181 E4.60388
G1 X178.602 Y140.323 E4.60583
G1 X139.092 Y179.833 E5.37243
G1 X138.95 Y179.833 E5.37438
G0 F3600 X138.809 Y179.974
G1 F960 X40.023 Y81.195 E7.29103
G1 X39.944 Y80.909 E7.2951
G1 X40.023 Y80.771 E7.29728
G1 X79.536 Y41.257 E8.06395
G1 X79.822 Y41.178 E8.06802
G1 X79.96 Y41.257 E8.0702
G1 X178.743 Y140.04 E9.98686
G1 X178.822 Y140.326 E9.99093
G1 X178.743 Y140.464 E9.99311
G1 X139.233 Y179.974 E10.75972
G1 X138.947 Y180.053 E10.76379
G1 X138.809 Y179.974 E10.76597
G0 F3600 X138.667 Y180.116
G1 F960 X39.881 Y81.337 E12.68262
G1 X39.735 Y80.975 E12.68797
G1 X39.881 Y80.629 E12.69313
G1 X79.394 Y41.115 E13.4598
G1 X79.756 Y40.969 E13.46515
G1 X80.102 Y41.115 E13.4703
G1 X178.885 Y139.898 E15.38697
G1 X179.031 Y140.26 E15.39232
G1 X178.885 Y140.606 E15.39747
G1 X139.375 Y180.116 E16.16408
G1 X139.013 Y180.262 E16.16943
G1 X138.667 Y180.116 E16.17458
G0 F3600 X138.526 Y180.257
G1 F960 X39.74 Y81.478 E18.09123
G1 X39.539 Y81.059 E18.09761
G1 X39.645 Y80.606 E18.10399
G1 X39.74 Y80.488 E18.10607
G1 X79.253 Y40.974 E18.87274
G1 X79.672 Y40.773 E18.87912
G1 X80.125 Y40.879 E18.8855
G1 X80.243 Y40.974 E18.88758
G1 X179.026 Y139.757 E20.80424
G1 X179.227 Y140.176 E20.81061
G1 X179.121 Y140.629 E20.817
G1 X179.026 Y140.747 E20.81908
G1 X139.516 Y180.257 E21.58568
G1 X139.097 Y180.458 E21.59205
G1 X138.644 Y180.352 E21.59844
G1 X138.526 Y180.257 E21.60051
G0 F3600 X138.385 Y180.398
G1 F960 X39.599 Y81.619 E23.51717
G1 X39.44 Y81.404 E23.52083
G1 X39.351 Y81.152 E23.5245
G1 X39.34 Y80.884 E23.52818
G1 X39.409 Y80.626 E23.53184
G1 X39.599 Y80.347 E23.53648
G1 X79.112 Y40.833 E24.30315
G1 X79.327 Y40.674 E24.30681
G1 X79.579 Y40.585 E24.31048
G1 X79.847 Y40.574 E24.31416
G1 X80.105 Y40.643 E24.31783
G1 X80.384 Y40.833 E24.32246
G1 X179.167 Y139.616 E26.23912
G1 X179.326 Y139.831 E26.24279
G1 X179.415 Y140.083 E26.24645
G1 X179.426 Y140.351 E26.25013
G1 X179.357 Y140.609 E26.2538
G1 X179.167 Y140.888 E26.25843
G1 X139.657 Y180.398 E27.02503
G1 X139.442 Y180.557 E27.0287
G1 X139.19 Y180.646 E27.03237
G1 X138.922 Y180.657 E27.03605
G1 X138.664 Y180.588 E27.03971
G1 X138.385 Y180.398 E27.04434
G0 F3600 X138.243 Y180.54
G1 F960 X39.457 Y81.761 E28.96099
G1 X39.278 Y81.525 E28.96506
G1 X39.168 Y81.251 E28.96911
G1 X39.135 Y80.956 E28.97318
G1 X39.182 Y80.664 E28.97724
G1 X39.305 Y80.395 E28.98129
G1 X39.457 Y80.205 E28.98463
G1 X78.97 Y40.691 E29.7513
G1 X79.206 Y40.512 E29.75537
G1 X79.481 Y40.402 E29.75943
G1 X79.775 Y40.369 E29.76349
G1 X80.067 Y40.416 E29.76755
G1 X80.336 Y40.539 E29.7716
G1 X80.526 Y40.691 E29.77494
G1 X179.309 Y139.474 E31.6916
G1 X179.488 Y139.71 E31.69567
G1 X179.598 Y139.985 E31.69973
G1 X179.631 Y140.279 E31.70379
G1 X179.584 Y140.571 E31.70785
G1 X179.461 Y140.84 E31.71191
G1 X179.309 Y141.03 E31.71524
G1 X139.799 Y180.54 E32.48185
G1 X139.563 Y180.719 E32.48591
G1 X139.288 Y180.829 E32.48997
G1 X138.994 Y180.862 E32.49403
G1 X138.702 Y180.815 E32.49809
G1 X138.433 Y180.692 E32.50215
G1 X138.243 Y180.54 E32.50549
G0 F3600 X138.102 Y180.681
G1 F960 X39.316 Y81.902 E34.42214
G1 X39.118 Y81.648 E34.42656
G1 X38.989 Y81.353 E34.43097
G1 X38.936 Y81.036 E34.43538
G1 X38.963 Y80.715 E34.4398
G1 X39.068 Y80.411 E34.44422
G1 X39.316 Y80.064 E34.45007
G1 X78.829 Y40.55 E35.21674
G1 X79.083 Y40.352 E35.22116
G1 X79.378 Y40.223 E35.22557
G1 X79.695 Y40.17 E35.22998
G1 X80.016 Y40.197 E35.2344
G1 X80.32 Y40.302 E35.23881
G1 X80.667 Y40.55 E35.24467
G1 X179.45 Y139.333 E37.16133
G1 X179.648 Y139.587 E37.16575
G1 X179.777 Y139.882 E37.17016
G1 X179.83 Y140.199 E37.17457
G1 X179.803 Y140.52 E37.17899
G1 X179.698 Y140.824 E37.1834
G1 X179.45 Y141.171 E37.18926
G1 X139.94 Y180.681 E37.95586
G1 X139.686 Y180.879 E37.96028
G1 X139.391 Y181.008 E37.96469
G1 X139.074 Y181.061 E37.9691
G1 X138.753 Y181.034 E37.97352
G1 X138.449 Y180.929 E37.97794
G1 X138.102 Y180.681 E37.98379
G0 F3600 X137.96 Y180.823
G1 F960 X39.174 Y82.044 E39.90044
G1 X38.96 Y81.773 E39.90518
G1 X38.813 Y81.46 E39.90992
G1 X38.741 Y81.121 E39.91467
G1 X38.749 Y80.775 E39.91942
G1 X38.836 Y80.441 E39.92416
G1 X38.998 Y80.135 E39.92891
G1 X39.174 Y79.922 E39.9327
G1 X78.687 Y40.408 E40.69937
G1 X78.958 Y40.194 E40.70411
G1 X79.271 Y40.047 E40.70885
G1 X79.61 Y39.975 E40.71361
G1 X79.956 Y39.983 E40.71835
G1 X80.29 Y40.07 E40.72309
G1 X80.596 Y40.232 E40.72784
G1 X80.809 Y40.408 E40.73163
G1 X179.592 Y139.191 E42.64829
G1 X179.806 Y139.462 E42.65303
G1 X179.953 Y139.776 E42.65779
G1 X180.025 Y140.114 E42.66253
G1 X180.017 Y140.46 E42.66728
G1 X179.93 Y140.794 E42.67201
G1 X179.768 Y141.1 E42.67676
G1 X179.592 Y141.313 E42.68055
G1 X140.082 Y180.823 E43.44715
G1 X139.811 Y181.037 E43.45189
G1 X139.497 Y181.184 E43.45665
G1 X139.159 Y181.256 E43.46139
G1 X138.813 Y181.248 E43.46614
G1 X138.479 Y181.161 E43.47087
G1 X138.173 Y180.999 E43.47562
G1 X137.96 Y180.823 E43.47941
G0 F3600 X137.819 Y180.964
G1 F960 X39.033 Y82.185 E45.39607
G1 X38.802 Y81.898 E45.40112
G1 X38.639 Y81.568 E45.40617
G1 X38.55 Y81.211 E45.41122
G1 X38.541 Y80.843 E45.41627
G1 X38.611 Y80.481 E45.42133
G1 X38.757 Y80.143 E45.42638
G1 X39.033 Y79.781 E45.43262
G1 X78.546 Y40.267 E46.19929
G1 X78.833 Y40.036 E46.20435
G1 X79.163 Y39.873 E46.2094
G1 X79.52 Y39.784 E46.21445
G1 X79.888 Y39.775 E46.2195
G1 X80.25 Y39.845 E46.22455
G1 X80.588 Y39.991 E46.22961
G1 X80.95 Y40.267 E46.23585
G1 X179.733 Y139.05 E48.15251
G1 X179.964 Y139.337 E48.15757
G1 X180.127 Y139.667 E48.16262
G1 X180.216 Y140.024 E48.16766
G1 X180.225 Y140.393 E48.17273
G1 X180.155 Y140.754 E48.17777
G1 X180.009 Y141.092 E48.18282
G1 X179.733 Y141.454 E48.18907
G1 X140.223 Y180.964 E48.95567
G1 X139.936 Y181.195 E48.96073
G1 X139.606 Y181.358 E48.96578
G1 X139.249 Y181.447 E48.97082
G1 X138.88 Y181.456 E48.97589
G1 X138.519 Y181.386 E48.98093
G1 X138.181 Y181.24 E48.98598
G1 X137.819 Y180.964 E48.99223
G0 F3600 X137.678 Y181.106
G1 F960 X38.892 Y82.327 E50.90888
G1 X38.646 Y82.024 E50.91424
G1 X38.467 Y81.679 E50.91957
G1 X38.362 Y81.304 E50.92491
G1 X38.336 Y80.915 E50.93026
G1 X38.39 Y80.53 E50.93559
G1 X38.521 Y80.163 E50.94094
G1 X38.724 Y79.831 E50.94628
G1 X38.891 Y79.64 E50.94976
G1 X78.404 Y40.126 E51.71643
G1 X78.707 Y39.88 E51.72178
G1 X79.052 Y39.701 E51.72712
G1 X79.427 Y39.596 E51.73246
G1 X79.816 Y39.57 E51.73781
G1 X80.202 Y39.624 E51.74316
G1 X80.568 Y39.755 E51.74849
G1 X80.9 Y39.958 E51.75383
G1 X81.092 Y40.125 E51.75732
G1 X179.875 Y138.908 E53.67398
G1 X180.12 Y139.211 E53.67933
G1 X180.299 Y139.556 E53.68466
G1 X180.404 Y139.931 E53.69
G1 X180.43 Y140.32 E53.69535
G1 X180.376 Y140.706 E53.7007
G1 X180.245 Y141.072 E53.70603
G1 X180.042 Y141.404 E53.71137
G1 X179.875 Y141.596 E53.71486
G1 X140.365 Y181.106 E54.48146
G1 X140.062 Y181.351 E54.48681
G1 X139.717 Y181.53 E54.49214
G1 X139.342 Y181.635 E54.49748
G1 X138.953 Y181.661 E54.50283
G1 X138.567 Y181.607 E54.50818
G1 X138.201 Y181.476 E54.51351
G1 X137.869 Y181.273 E54.51885
G1 X137.678 Y181.106 E54.52233
G0 F3600 X137.536 Y181.247
G1 F960 X38.75 Y82.468 E56.43899
G1 X38.49 Y82.152 E56.4446
G1 X38.297 Y81.791 E56.45022
G1 X38.177 Y81.4 E56.45583
G1 X38.135 Y80.992 E56.46145
G1 X38.173 Y80.585 E56.46706
G1 X38.29 Y80.192 E56.47269
G1 X38.48 Y79.83 E56.4783
G1 X38.75 Y79.498 E56.48417
G1 X78.263 Y39.984 E57.25084
G1 X78.579 Y39.724 E57.25645
G1 X78.94 Y39.531 E57.26207
G1 X79.332 Y39.411 E57.26769
G1 X79.739 Y39.369 E57.27331
G1 X80.146 Y39.407 E57.27892
G1 X80.539 Y39.524 E57.28454
G1 X80.901 Y39.714 E57.29015
G1 X81.233 Y39.984 E57.29602
G1 X180.016 Y138.767 E59.21268
G1 X180.276 Y139.083 E59.2183
G1 X180.469 Y139.444 E59.22391
G1 X180.589 Y139.836 E59.22954
G1 X180.631 Y140.243 E59.23515
G1 X180.593 Y140.65 E59.24076
G1 X180.476 Y141.043 E59.24638
G1 X180.286 Y141.405 E59.25199
G1 X180.016 Y141.737 E59.25786
G1 X140.506 Y181.247 E60.02447
G1 X140.19 Y181.507 E60.03008
G1 X139.829 Y181.7 E60.0357
G1 X139.437 Y181.82 E60.04132
G1 X139.03 Y181.862 E60.04694
G1 X138.623 Y181.824 E60.05254
G1 X138.23 Y181.707 E60.05817
G1 X137.868 Y181.517 E60.06378
G1 X137.536 Y181.247 E60.06965
G0 F3600 X137.395 Y181.388
G1 F960 X38.609 Y82.609 E61.9863
G1 X38.335 Y82.28 E61.99217
G1 X38.128 Y81.905 E61.99805
G1 X37.993 Y81.498 E62.00393
G1 X37.937 Y81.073 E62.00982
G1 X37.96 Y80.645 E62.0157
G1 X38.062 Y80.229 E62.02157
G1 X38.24 Y79.839 E62.02745
G1 X38.609 Y79.357 E62.03578
G1 X78.122 Y39.843 E62.80245
G1 X78.452 Y39.569 E62.80834
G1 X78.826 Y39.362 E62.8142
G1 X79.233 Y39.227 E62.82009
G1 X79.658 Y39.171 E62.82597
G1 X80.086 Y39.194 E62.83185
G1 X80.502 Y39.296 E62.83772
G1 X80.892 Y39.474 E62.84361
G1 X81.374 Y39.843 E62.85193
G1 X180.157 Y138.626 E64.76859
G1 X180.431 Y138.956 E64.77448
G1 X180.638 Y139.33 E64.78034
G1 X180.773 Y139.737 E64.78623
G1 X180.829 Y140.162 E64.79211
G1 X180.806 Y140.59 E64.79799
G1 X180.704 Y141.006 E64.80387
G1 X180.526 Y141.396 E64.80975
G1 X180.157 Y141.878 E64.81808
G1 X140.647 Y181.388 E65.58468
G1 X140.317 Y181.662 E65.59056
G1 X139.943 Y181.869 E65.59643
G1 X139.536 Y182.004 E65.60231
G1 X139.111 Y182.06 E65.60819
G1 X138.683 Y182.037 E65.61407
G1 X138.267 Y181.935 E65.61995
G1 X137.877 Y181.757 E65.62583
G1 X137.395 Y181.388 E65.63416
G0 F3600 X137.253 Y181.53
G1 F960 X38.467 Y82.751 E67.55081
G1 X38.181 Y82.408 E67.55694
G1 X37.96 Y82.02 E67.56306
G1 X37.812 Y81.598 E67.5692
G1 X37.741 Y81.157 E67.57533
G1 X37.75 Y80.71 E67.58146
G1 X37.838 Y80.272 E67.58759
G1 X38.003 Y79.857 E67.59372
G1 X38.239 Y79.478 E67.59984
G1 X38.467 Y79.215 E67.60462
G1 X77.98 Y39.701 E68.37129
G1 X78.323 Y39.415 E68.37742
G1 X78.711 Y39.194 E68.38354
G1 X79.133 Y39.046 E68.38968
G1 X79.574 Y38.975 E68.39581
G1 X80.021 Y38.984 E68.40194
G1 X80.459 Y39.072 E68.40807
G1 X80.874 Y39.237 E68.4142
G1 X81.253 Y39.473 E68.42032
G1 X81.516 Y39.701 E68.4251
G1 X180.299 Y138.484 E70.34176
G1 X180.585 Y138.827 E70.34788
G1 X180.806 Y139.215 E70.35401
G1 X180.954 Y139.637 E70.36015
G1 X181.025 Y140.078 E70.36627
G1 X181.016 Y140.525 E70.37241
G1 X180.928 Y140.963 E70.37854
G1 X180.763 Y141.378 E70.38466
G1 X180.527 Y141.757 E70.39079
G1 X180.299 Y142.02 E70.39557
G1 X140.789 Y181.53 E71.16217
G1 X140.446 Y181.816 E71.1683
G1 X140.058 Y182.037 E71.17442
G1 X139.636 Y182.185 E71.18056
G1 X139.195 Y182.256 E71.18669
G1 X138.748 Y182.247 E71.19282
G1 X138.31 Y182.159 E71.19895
G1 X137.895 Y181.994 E71.20508
G1 X137.516 Y181.758 E71.2112
G1 X137.253 Y181.53 E71.21598
G0 F3600 X137.112 Y181.671
G1 F960 X38.326 Y82.892 E73.13263
G1 X38.027 Y82.537 E73.139
G1 X37.793 Y82.136 E73.14537
G1 X37.632 Y81.7 E73.15174
G1 X37.548 Y81.244 E73.1581
G1 X37.543 Y80.779 E73.16448
G1 X37.617 Y80.321 E73.17085
G1 X37.77 Y79.882 E73.17723
G1 X37.995 Y79.476 E73.1836
G1 X38.326 Y79.074 E73.19074
G1 X77.839 Y39.56 E73.95741
G1 X78.194 Y39.261 E73.96378
G1 X78.595 Y39.027 E73.97015
G1 X79.031 Y38.866 E73.97652
G1 X79.487 Y38.782 E73.98289
G1 X79.952 Y38.777 E73.98927
G1 X80.41 Y38.851 E73.99563
G1 X80.849 Y39.004 E74.00201
G1 X81.255 Y39.229 E74.00838
G1 X81.657 Y39.56 E74.01552
G1 X180.44 Y138.343 E75.93218
G1 X180.739 Y138.698 E75.93855
G1 X180.973 Y139.099 E75.94492
G1 X181.134 Y139.535 E75.9513
G1 X181.218 Y139.991 E75.95766
G1 X181.223 Y140.456 E75.96404
G1 X181.149 Y140.914 E75.9704
G1 X180.996 Y141.353 E75.97678
G1 X180.771 Y141.759 E75.98315
G1 X180.44 Y142.161 E75.99029
G1 X140.93 Y181.671 E76.7569
G1 X140.575 Y181.97 E76.76326
G1 X140.174 Y182.204 E76.76963
G1 X139.738 Y182.365 E76.77601
G1 X139.282 Y182.449 E76.78237
G1 X138.817 Y182.454 E76.78875
G1 X138.359 Y182.38 E76.79512
G1 X137.92 Y182.227 E76.8015
G1 X137.514 Y182.002 E76.80786
G1 X137.112 Y181.671 E76.81501
G0 F3600 X136.97 Y181.813
G1 F960 X38.184 Y83.034 E78.73166
G1 X37.874 Y82.666 E78.73826
G1 X37.628 Y82.253 E78.74486
G1 X37.454 Y81.804 E78.75146
G1 X37.356 Y81.333 E78.75806
G1 X37.338 Y80.852 E78.76467
G1 X37.4 Y80.374 E78.77128
G1 X37.539 Y79.914 E78.77787
G1 X37.753 Y79.483 E78.78448
G1 X38.184 Y78.932 E78.79407
G1 X77.697 Y39.418 E79.56074
G1 X78.065 Y39.108 E79.56734
G1 X78.478 Y38.862 E79.57394
G1 X78.927 Y38.688 E79.58055
G1 X79.398 Y38.59 E79.58715
G1 X79.879 Y38.572 E79.59375
G1 X80.357 Y38.634 E79.60036
G1 X80.817 Y38.773 E79.60696
G1 X81.248 Y38.987 E79.61356
G1 X81.799 Y39.418 E79.62316
G1 X180.582 Y138.201 E81.53982
G1 X180.892 Y138.569 E81.54642
G1 X181.138 Y138.982 E81.55301
G1 X181.312 Y139.431 E81.55962
G1 X181.41 Y139.902 E81.56622
G1 X181.428 Y140.383 E81.57282
G1 X181.366 Y140.861 E81.57944
G1 X181.227 Y141.321 E81.58603
G1 X181.013 Y141.752 E81.59263
G1 X180.582 Y142.303 E81.60223
G1 X141.072 Y181.813 E82.36883
G1 X140.704 Y182.123 E82.37543
G1 X140.291 Y182.369 E82.38203
