;FLAVOR:Marlin
;TIME:95672
;Filament used:33.8473m
;Layer height: 0.2
;MINX:66.302
;MINY:39.222
;MINZ:0.15
;MAXX:153.698
;MAXY:180.778
;MAXZ:46.95
                           
;Creality Print GCode Generated by CXEngineDEV
;Generated Time:2022-06-30 15:03:09
;----------Machine Config--------------
;Machine Name:Creality Ender-3
;Machine Height:250
;Machine Width:220
;Machine Depth:220
;Material name:Castable
;Number of Extruders:1
;ExtruderParams[0] Nozzle Diameter1000
;----------Profile Config---------------
;Layer Height:0.2
;Wall Thickness:1
;Top/Bottom Thickness:1
;Out Wall Line Width:0.2
;Inner Wall Line Width:0.2
;Inital Layer Height:150
;Wall Line Count:6
;Infill Line Distance:2
;Infill Pattern:grid
;Infill Sparse Density:20
;Infill Wipe Distance:0
;Print Temperature:235
;Bed Temperature:74
;Support Enable:false
;Support Density:10
;Support Angle:0
;Adhesion Type:brim
;machine is belt:false
;machine belt offset:10
;machine belt offset Y:0
;Raft Base Line Spacing:1.6
;Wait Heatup Sync:true
;----------Shell Config----------------
;Outer Wall Wipe Distance:200
;Infill Before Walls:false
;Infill Overlap:0.08
;Fill Gaps Between Walls:everywhere
;Minimum Infill Area:1
;Top Surface Skin Layer:0
;Top Layers:6
;Z Seam Alignment:sharpest_corner
;Seam Corner Preference:z_seam_corner_inner
;Z Seam X:110
;Z Seam Y:110
;Horizontal Expansion:0
;Top/Bottom Pattern:zigzag
;Ironing Pattern:zigzag
;Vase Model:false
;----------Support Config----------------
;Support Type:everywhere
;Support Pattern:zigzag
;Support Infill Layer Thickness:0.2
;Minimum Support Area:5
;Enable Support Roof:false
;Support Roof Thickness:0.8
;Support Roof Pattern:lines
;Connect Support Lines:0
;Connect Support ZigZags:1
;Minimum Support X/Y Distance:0.2
;Support Line Distance:2
; ---------PrintSpeed & Travel----------
;Enable Print Cool:true
;Avoid Printed Parts Traveling:true
;Enable Retraction:true
;Retraction Distance:8
;Retraction Speed:100
;Retraction Prime Speed:100
;Maximum Retraction Count:100
;Minimum Extrusion Distance Window:1
;Z Hop When Retracted:false
;Z Hop Height:0.2
;Retract Before Outer Wall:true
;Print Speed:32
;Infill Speed:32

;Prime Tower Speed:32
;Travel Speed:120
;Initial Layer Speed:16
;Skirt/Brim Speed:16
;Combing Mode:off
; --------SpecialModel&Mesh Fixes--------
;Union Overlapping Volum:true
;Remove All Holes:false
;Maximum Travel Resolution:0.4
;Maximum Deviation:0.05
;Maximum Model Angle:0.872665
;IS Mold Print:false
;Make Overhang Printable:false
;Enable Coasting:false
;Coasting Volumes:0.06
;Coasting Speed:0.9
;Raft AirGap:0.25
;Layer0 ZOverLap:0.13
;---------------------End of Head--------------------------
M140 S74
M105
M104 S235
M105
M109 S235
M105
M190 S74
M82 ;absolute extrusion mode
M220 S100 ;Reset Feedrate
M221 S100 ;Reset Flowrate

G28 ;Home

G92 E0 ;Reset Extruder
G1 Z2.0 F3000 ;Move Z Axis up
G1 X10.1 Y20 Z0.28 F5000.0 ;Move to start position
G1 X10.1 Y145.0 Z0.28 F1500.0 E15 ;Draw the first line
G1 X10.4 Y145.0 Z0.28 F5000.0 ;Move to side a little
G1 X10.4 Y20 Z0.28 F1500.0 E30 ;Draw the second line
G92 E0  ;Reset Extruder
G1 E-1.0000 F1800 ;Retract a bit
G1 Z2.0 F3000 ;Move Z Axis up
G1 E0.0000 F1800 

G92 E0
G92 E0
G1 F6000 E-8

;LAYER_COUNT:235

;LAYER:0
M107
G0 F3600 X67.699 Y42.636 Z0.15
;;retract;;
G0 X145.898 Y172.878
;TYPE:SKIRT
G1 F6000 E0
G1 F960 X145.798 Y172.978 E0.00194
G1 X74.202 Y172.978 E0.98422
G1 X74.102 Y172.878 E0.98616
G1 X74.102 Y47.122 E2.71151
G1 X74.202 Y47.022 E2.71345
G1 X145.775 Y47.022 E3.69542
G1 X145.873 Y47.102 E3.69716
G1 X145.898 Y47.236 E3.69903
G1 X145.898 Y172.878 E5.42281
G0 F3600 X146.098 Y172.878
G1 F960 X145.951 Y173.136 E5.42688
G1 X145.798 Y173.178 E5.42906
G1 X74.202 Y173.178 E6.41134
G1 X73.944 Y173.031 E6.41542
G1 X73.902 Y172.878 E6.41759
G1 X73.902 Y47.122 E8.14294
G1 X74.049 Y46.864 E8.14702
G1 X74.202 Y46.822 E8.14919
G1 X145.775 Y46.822 E9.13116
G1 X146.033 Y46.969 E9.13523
G1 X146.098 Y47.236 E9.139
G1 X146.098 Y172.878 E10.86279
G0 F3600 X146.298 Y172.878
G1 F960 X146.146 Y173.237 E10.86814
G1 X145.798 Y173.378 E10.87329
G1 X74.202 Y173.378 E11.85557
G1 X73.843 Y173.226 E11.86092
G1 X73.702 Y172.878 E11.86607
G1 X73.702 Y47.122 E13.59142
G1 X73.854 Y46.763 E13.59677
G1 X74.202 Y46.622 E13.60192
G1 X145.775 Y46.622 E14.58389
G1 X146.134 Y46.774 E14.58924
G1 X146.265 Y47.023 E14.5931
G1 X146.298 Y47.236 E14.59605
G1 X146.298 Y172.878 E16.31984
G0 F3600 X146.498 Y172.878
G1 F960 X146.344 Y173.316 E16.32621
G1 X145.949 Y173.562 E16.33259
G1 X145.798 Y173.578 E16.33467
G1 X74.202 Y173.578 E17.31696
G1 X73.764 Y173.424 E17.32333
G1 X73.518 Y173.029 E17.32971
G1 X73.502 Y172.878 E17.3318
G1 X73.502 Y47.122 E19.05714
G1 X73.656 Y46.684 E19.06351
G1 X74.051 Y46.438 E19.0699
G1 X74.202 Y46.422 E19.07198
G1 X145.775 Y46.422 E20.05395
G1 X146.213 Y46.576 E20.06032
G1 X146.461 Y46.984 E20.06687
G1 X146.498 Y47.236 E20.07036
G1 X146.498 Y172.878 E21.79415
G0 F3600 X146.698 Y172.878
G1 F960 X146.658 Y173.143 E21.79782
G1 X146.542 Y173.384 E21.80149
G1 X146.361 Y173.58 E21.80515
G1 X146.129 Y173.715 E21.80884
G1 X145.798 Y173.778 E21.81346
G1 X74.202 Y173.778 E22.79574
G1 X73.937 Y173.738 E22.79942
G1 X73.696 Y173.622 E22.80309
G1 X73.5 Y173.441 E22.80675
G1 X73.365 Y173.209 E22.81043
G1 X73.302 Y172.878 E22.81506
G1 X73.302 Y47.122 E24.5404
G1 X73.342 Y46.857 E24.54408
G1 X73.458 Y46.616 E24.54775
G1 X73.639 Y46.42 E24.55141
G1 X73.871 Y46.285 E24.55509
G1 X74.202 Y46.222 E24.55972
G1 X145.775 Y46.222 E25.54168
G1 X146.04 Y46.262 E25.54536
G1 X146.281 Y46.378 E25.54903
G1 X146.477 Y46.559 E25.55269
G1 X146.612 Y46.791 E25.55637
G1 X146.68 Y47.058 E25.56015
G1 X146.698 Y47.236 E25.56261
G1 X146.698 Y172.878 E27.28639
G0 F3600 X146.898 Y172.878
G1 F960 X146.858 Y173.171 E27.29045
G1 X146.742 Y173.443 E27.29451
G1 X146.557 Y173.674 E27.29857
G1 X146.317 Y173.848 E27.30263
G1 X146.04 Y173.951 E27.30669
G1 X145.798 Y173.978 E27.31003
G1 X74.202 Y173.978 E28.29231
G1 X73.909 Y173.938 E28.29637
G1 X73.637 Y173.822 E28.30043
G1 X73.406 Y173.637 E28.30449
G1 X73.232 Y173.397 E28.30855
G1 X73.129 Y173.12 E28.31261
G1 X73.102 Y172.878 E28.31595
G1 X73.102 Y47.122 E30.0413
G1 X73.142 Y46.829 E30.04535
G1 X73.258 Y46.557 E30.04941
G1 X73.443 Y46.326 E30.05347
G1 X73.683 Y46.152 E30.05754
G1 X73.96 Y46.049 E30.06159
G1 X74.202 Y46.022 E30.06493
G1 X145.775 Y46.022 E31.0469
G1 X146.068 Y46.062 E31.05096
G1 X146.34 Y46.178 E31.05502
G1 X146.571 Y46.363 E31.05908
G1 X146.745 Y46.603 E31.06314
G1 X146.853 Y46.904 E31.06753
G1 X146.898 Y47.236 E31.07213
G1 X146.898 Y172.878 E32.79591
G0 F3600 X147.098 Y172.878
G1 F960 X147.058 Y173.197 E32.80032
G1 X146.941 Y173.497 E32.80474
G1 X146.754 Y173.759 E32.80916
G1 X146.508 Y173.967 E32.81358
G1 X146.219 Y174.108 E32.81799
G1 X145.798 Y174.178 E32.82384
G1 X74.202 Y174.178 E33.80613
G1 X73.883 Y174.138 E33.81054
G1 X73.583 Y174.021 E33.81495
G1 X73.321 Y173.834 E33.81937
G1 X73.113 Y173.588 E33.82379
G1 X72.972 Y173.299 E33.8282
G1 X72.902 Y172.878 E33.83406
G1 X72.902 Y47.122 E35.55941
G1 X72.942 Y46.803 E35.56382
G1 X73.059 Y46.503 E35.56823
G1 X73.246 Y46.241 E35.57265
G1 X73.492 Y46.033 E35.57707
G1 X73.781 Y45.892 E35.58148
G1 X74.202 Y45.822 E35.58734
G1 X145.775 Y45.822 E36.56931
G1 X146.094 Y45.862 E36.57372
G1 X146.394 Y45.979 E36.57813
G1 X146.656 Y46.166 E36.58255
G1 X146.864 Y46.412 E36.58697
G1 X147.005 Y46.701 E36.59138
G1 X147.072 Y46.979 E36.59531
G1 X147.098 Y47.236 E36.59885
G1 X147.098 Y172.878 E38.32263
G0 F3600 X147.298 Y172.878
G1 F960 X147.258 Y173.222 E38.32738
G1 X147.141 Y173.547 E38.33212
G1 X146.952 Y173.837 E38.33687
G1 X146.702 Y174.075 E38.34161
G1 X146.403 Y174.25 E38.34636
G1 X146.073 Y174.353 E38.3511
G1 X145.798 Y174.378 E38.35489
G1 X74.202 Y174.378 E39.33718
G1 X73.858 Y174.338 E39.34193
G1 X73.533 Y174.221 E39.34667
G1 X73.243 Y174.032 E39.35142
G1 X73.005 Y173.782 E39.35615
G1 X72.83 Y173.483 E39.3609
G1 X72.727 Y173.153 E39.36565
G1 X72.702 Y172.878 E39.36944
G1 X72.702 Y47.122 E41.09478
G1 X72.742 Y46.778 E41.09954
G1 X72.859 Y46.453 E41.10427
G1 X73.048 Y46.163 E41.10902
G1 X73.298 Y45.925 E41.11376
G1 X73.597 Y45.75 E41.11851
G1 X73.927 Y45.647 E41.12326
G1 X74.202 Y45.622 E41.12704
G1 X145.775 Y45.622 E42.10901
G1 X146.119 Y45.662 E42.11376
G1 X146.444 Y45.779 E42.1185
G1 X146.734 Y45.968 E42.12325
G1 X146.972 Y46.218 E42.12799
G1 X147.147 Y46.517 E42.13274
G1 X147.245 Y46.825 E42.13717
G1 X147.268 Y46.939 E42.13877
G1 X147.298 Y47.236 E42.14287
G1 X147.298 Y172.878 E43.86665
G0 F3600 X147.498 Y172.878
G1 F960 X147.458 Y173.244 E43.8717
G1 X147.34 Y173.593 E43.87676
G1 X147.15 Y173.908 E43.8818
G1 X146.897 Y174.175 E43.88685
G1 X146.591 Y174.381 E43.89191
G1 X146.249 Y174.517 E43.89696
G1 X145.798 Y174.578 E43.9032
G1 X74.202 Y174.578 E44.88549
G1 X73.836 Y174.538 E44.89054
G1 X73.487 Y174.42 E44.89559
G1 X73.172 Y174.23 E44.90064
G1 X72.905 Y173.977 E44.90569
G1 X72.699 Y173.671 E44.91075
G1 X72.563 Y173.329 E44.9158
G1 X72.502 Y172.878 E44.92204
G1 X72.502 Y47.122 E46.64739
G1 X72.542 Y46.756 E46.65244
G1 X72.66 Y46.407 E46.65749
G1 X72.85 Y46.092 E46.66254
G1 X73.103 Y45.825 E46.66759
G1 X73.409 Y45.619 E46.67265
G1 X73.751 Y45.483 E46.6777
G1 X74.202 Y45.422 E46.68394
G1 X145.775 Y45.422 E47.66591
G1 X146.141 Y45.462 E47.67096
G1 X146.49 Y45.58 E47.67602
G1 X146.805 Y45.77 E47.68106
G1 X147.072 Y46.023 E47.68611
G1 X147.278 Y46.329 E47.69117
G1 X147.441 Y46.786 E47.69783
G1 X147.464 Y46.9 E47.69942
G1 X147.498 Y47.236 E47.70406
G1 X147.498 Y172.878 E49.42784
G0 F3600 X147.698 Y172.878
G1 F960 X147.658 Y173.265 E49.43318
G1 X147.54 Y173.636 E49.43852
G1 X147.349 Y173.976 E49.44387
G1 X147.093 Y174.269 E49.44921
G1 X146.782 Y174.503 E49.45455
G1 X146.43 Y174.67 E49.45989
G1 X146.051 Y174.761 E49.46524
G1 X145.798 Y174.778 E49.46872
G1 X74.202 Y174.778 E50.451
G1 X73.815 Y174.738 E50.45634
G1 X73.444 Y174.62 E50.46168
G1 X73.104 Y174.429 E50.46703
G1 X72.811 Y174.173 E50.47237
G1 X72.577 Y173.862 E50.47771
G1 X72.41 Y173.51 E50.48306
G1 X72.319 Y173.131 E50.4884
G1 X72.302 Y172.878 E50.49188
G1 X72.302 Y47.122 E52.21723
G1 X72.342 Y46.735 E52.22257
G1 X72.46 Y46.364 E52.22791
G1 X72.651 Y46.024 E52.23326
G1 X72.907 Y45.731 E52.2386
G1 X73.218 Y45.497 E52.24394
G1 X73.57 Y45.33 E52.24928
G1 X73.949 Y45.239 E52.25463
G1 X74.202 Y45.222 E52.25811
G1 X145.775 Y45.222 E53.24008
G1 X146.162 Y45.262 E53.24541
G1 X146.533 Y45.38 E53.25076
G1 X146.873 Y45.571 E53.25611
G1 X147.166 Y45.827 E53.26144
G1 X147.4 Y46.138 E53.26678
G1 X147.567 Y46.49 E53.27213
G1 X147.637 Y46.746 E53.27577
G1 X147.66 Y46.86 E53.27737
G1 X147.698 Y47.236 E53.28255
G1 X147.698 Y172.878 E55.00633
G0 F3600 X147.898 Y172.878
G1 F960 X147.858 Y173.285 E55.01195
G1 X147.74 Y173.677 E55.01756
G1 X147.548 Y174.039 E55.02318
G1 X147.289 Y174.356 E55.0288
G1 X146.974 Y174.618 E55.03442
G1 X146.614 Y174.813 E55.04004
G1 X146.223 Y174.934 E55.04565
G1 X145.798 Y174.978 E55.05152
G1 X74.202 Y174.978 E56.0338
G1 X73.795 Y174.938 E56.03941
G1 X73.403 Y174.82 E56.04503
G1 X73.041 Y174.628 E56.05065
G1 X72.724 Y174.369 E56.05627
G1 X72.462 Y174.054 E56.06189
G1 X72.267 Y173.694 E56.0675
G1 X72.146 Y173.303 E56.07312
G1 X72.102 Y172.878 E56.07898
G1 X72.102 Y47.122 E57.80433
G1 X72.142 Y46.715 E57.80994
G1 X72.26 Y46.323 E57.81556
G1 X72.452 Y45.961 E57.82118
G1 X72.711 Y45.644 E57.82679
G1 X73.026 Y45.382 E57.83242
G1 X73.386 Y45.187 E57.83803
G1 X73.777 Y45.066 E57.84365
G1 X74.202 Y45.022 E57.84951
G1 X145.775 Y45.022 E58.83148
G1 X146.182 Y45.062 E58.83709
G1 X146.574 Y45.18 E58.84271
G1 X146.936 Y45.372 E58.84833
G1 X147.253 Y45.631 E58.85394
G1 X147.515 Y45.946 E58.85956
G1 X147.71 Y46.306 E58.86518
G1 X147.834 Y46.707 E58.87094
G1 X147.857 Y46.821 E58.87254
G1 X147.898 Y47.236 E58.87826
G1 X147.898 Y172.878 E60.60204
G0 F3600 X148.098 Y172.878
G1 F960 X148.058 Y173.305 E60.60793
G1 X147.94 Y173.716 E60.61379
G1 X147.747 Y174.099 E60.61968
G1 X147.487 Y174.439 E60.62555
G1 X147.168 Y174.726 E60.63144
G1 X146.801 Y174.948 E60.63732
G1 X146.4 Y175.098 E60.64319
G1 X145.798 Y175.178 E60.65153
G1 X74.202 Y175.178 E61.63381
G1 X73.775 Y175.138 E61.63969
G1 X73.364 Y175.02 E61.64556
G1 X72.981 Y174.827 E61.65144
G1 X72.641 Y174.567 E61.65732
G1 X72.354 Y174.248 E61.6632
G1 X72.132 Y173.881 E61.66909
G1 X71.982 Y173.48 E61.67496
G1 X71.902 Y172.878 E61.68329
G1 X71.902 Y47.122 E63.40864
G1 X71.942 Y46.695 E63.41453
G1 X72.06 Y46.284 E63.42039
G1 X72.253 Y45.901 E63.42628
G1 X72.513 Y45.561 E63.43215
G1 X72.832 Y45.274 E63.43804
G1 X73.199 Y45.052 E63.44392
G1 X73.6 Y44.902 E63.4498
G1 X74.202 Y44.822 E63.45813
G1 X145.775 Y44.822 E64.4401
G1 X146.202 Y44.862 E64.44598
G1 X146.613 Y44.98 E64.45185
G1 X146.996 Y45.173 E64.45773
G1 X147.336 Y45.433 E64.4636
G1 X147.623 Y45.752 E64.46949
G1 X147.845 Y46.119 E64.47537
G1 X148.03 Y46.667 E64.48331
G1 X148.053 Y46.781 E64.48491
G1 X148.098 Y47.236 E64.49118
G1 X148.098 Y172.878 E66.21496
G0 F3600 X148.298 Y172.878
G1 F960 X148.258 Y173.323 E66.22109
G1 X148.14 Y173.754 E66.22722
G1 X147.946 Y174.157 E66.23336
G1 X147.684 Y174.519 E66.23949
G1 X147.362 Y174.828 E66.24561
G1 X146.99 Y175.075 E66.25174
G1 X146.58 Y175.253 E66.25787
G1 X146.145 Y175.354 E66.264
G1 X145.798 Y175.378 E66.26877
G1 X74.202 Y175.378 E67.25105
G1 X73.757 Y175.338 E67.25718
G1 X73.326 Y175.22 E67.26331
G1 X72.923 Y175.026 E67.26945
G1 X72.561 Y174.764 E67.27558
G1 X72.252 Y174.442 E67.2817
G1 X72.005 Y174.07 E67.28783
G1 X71.827 Y173.66 E67.29396
G1 X71.726 Y173.225 E67.30009
G1 X71.702 Y172.878 E67.30486
G1 X71.702 Y47.122 E69.03021
G1 X71.742 Y46.677 E69.03634
G1 X71.86 Y46.246 E69.04247
G1 X72.054 Y45.843 E69.04861
G1 X72.316 Y45.481 E69.05474
G1 X72.638 Y45.172 E69.06086
G1 X73.01 Y44.925 E69.06699
G1 X73.42 Y44.747 E69.07312
G1 X73.855 Y44.646 E69.07925
G1 X74.202 Y44.622 E69.08402
G1 X145.775 Y44.622 E70.06599
G1 X146.22 Y44.662 E70.07212
G1 X146.651 Y44.78 E70.07825
G1 X147.054 Y44.974 E70.08438
G1 X147.416 Y45.236 E70.09051
G1 X147.725 Y45.558 E70.09664
G1 X147.972 Y45.93 E70.10276
G1 X148.15 Y46.34 E70.1089
G1 X148.249 Y46.742 E70.11458
G1 X148.298 Y47.236 E70.12139
G1 X148.298 Y172.878 E71.84517
G0 F3600 X148.498 Y172.878
G1 F960 X148.458 Y173.341 E71.85155
G1 X148.339 Y173.79 E71.85792
G1 X148.146 Y174.212 E71.86429
G1 X147.883 Y174.594 E71.87065
G1 X147.558 Y174.926 E71.87702
G1 X147.181 Y175.197 E71.88339
G1 X146.763 Y175.4 E71.88977
G1 X146.317 Y175.528 E71.89614
G1 X145.798 Y175.578 E71.90329
G1 X74.202 Y175.578 E72.88557
G1 X73.739 Y175.538 E72.89195
G1 X73.29 Y175.419 E72.89832
G1 X72.868 Y175.226 E72.90469
G1 X72.486 Y174.963 E72.91105
G1 X72.154 Y174.638 E72.91742
G1 X71.883 Y174.261 E72.92379
G1 X71.68 Y173.843 E72.93017
G1 X71.552 Y173.397 E72.93654
G1 X71.502 Y172.878 E72.94369
G1 X71.502 Y47.122 E74.66904
G1 X71.542 Y46.659 E74.67541
G1 X71.661 Y46.21 E74.68179
G1 X71.854 Y45.788 E74.68815
G1 X72.117 Y45.406 E74.69452
G1 X72.442 Y45.074 E74.70089
G1 X72.819 Y44.803 E74.70726
G1 X73.237 Y44.6 E74.71364
G1 X73.683 Y44.472 E74.72
G1 X74.202 Y44.422 E74.72715
G1 X145.775 Y44.422 E75.70912
G1 X146.238 Y44.462 E75.7155
G1 X146.687 Y44.581 E75.72187
G1 X147.109 Y44.774 E75.72824
G1 X147.491 Y45.037 E75.7346
G1 X147.823 Y45.362 E75.74097
G1 X148.094 Y45.739 E75.74734
G1 X148.297 Y46.157 E75.75372
G1 X148.422 Y46.588 E75.75988
G1 X148.445 Y46.702 E75.76147
G1 X148.498 Y47.236 E75.76884
G1 X148.498 Y172.878 E77.49262
G0 F3600 X148.698 Y172.878
G1 F960 X148.658 Y173.358 E77.49923
G1 X148.539 Y173.824 E77.50583
G1 X148.345 Y174.264 E77.51242
G1 X148.081 Y174.666 E77.51902
G1 X147.754 Y175.019 E77.52562
G1 X147.373 Y175.313 E77.53223
G1 X146.948 Y175.54 E77.53884
G1 X146.492 Y175.694 E77.54544
G1 X145.798 Y175.778 E77.55503
G1 X74.202 Y175.778 E78.53731
G1 X73.722 Y175.738 E78.54392
G1 X73.256 Y175.619 E78.55052
G1 X72.816 Y175.425 E78.55712
G1 X72.414 Y175.161 E78.56372
G1 X72.061 Y174.834 E78.57032
G1 X71.767 Y174.453 E78.57692
G1 X71.54 Y174.028 E78.58353
G1 X71.386 Y173.572 E78.59014
G1 X71.302 Y172.878 E78.59973
G1 X71.302 Y47.122 E80.32507
G1 X71.342 Y46.642 E80.33168
G1 X71.461 Y46.176 E80.33828
