;FLAVOR:Marlin
;TIME:96068
;Filament used:31.8563m
;Layer height: 0.2
;MINX:23.205
;MINY:23.205
;MINZ:0.15
;MAXX:196.902
;MAXY:196.902
;MAXZ:39.35
                           
;Creality Print GCode Generated by CXEngineDEV
;Generated Time:2022-06-30 15:03:09
;----------Machine Config--------------
;Machine Name:Creality Ender-3
;Machine Height:250
;Machine Width:220
;Machine Depth:220
;Material name:Castable
;Number of Extruders:1
;ExtruderParams[0] Nozzle Diameter1000
;----------Profile Config---------------
;Layer Height:0.2
;Wall Thickness:1
;Top/Bottom Thickness:1
;Out Wall Line Width:0.2
;Inner Wall Line Width:0.2
;Inital Layer Height:150
;Wall Line Count:6
;Infill Line Distance:2
;Infill Pattern:grid
;Infill Sparse Density:20
;Infill Wipe Distance:0
;Print Temperature:235
;Bed Temperature:74
;Support Enable:false
;Support Density:10
;Support Angle:0
;Adhesion Type:brim
;machine is belt:false
;machine belt offset:10
;machine belt offset Y:0
;Raft Base Line Spacing:1.6
;Wait Heatup Sync:true
;----------Shell Config----------------
;Outer Wall Wipe Distance:200
;Infill Before Walls:false
;Infill Overlap:0.08
;Fill Gaps Between Walls:everywhere
;Minimum Infill Area:1
;Top Surface Skin Layer:0
;Top Layers:6
;Z Seam Alignment:sharpest_corner
;Seam Corner Preference:z_seam_corner_inner
;Z Seam X:110
;Z Seam Y:110
;Horizontal Expansion:0
;Top/Bottom Pattern:zigzag
;Ironing Pattern:zigzag
;Vase Model:false
;----------Support Config----------------
;Support Type:everywhere
;Support Pattern:zigzag
;Support Infill Layer Thickness:0.2
;Minimum Support Area:5
;Enable Support Roof:false
;Support Roof Thickness:0.8
;Support Roof Pattern:lines
;Connect Support Lines:0
;Connect Support ZigZags:1
;Minimum Support X/Y Distance:0.2
;Support Line Distance:2
; ---------PrintSpeed & Travel----------
;Enable Print Cool:true
;Avoid Printed Parts Traveling:true
;Enable Retraction:true
;Retraction Distance:8
;Retraction Speed:100
;Retraction Prime Speed:100
;Maximum Retraction Count:100
;Minimum Extrusion Distance Window:1
;Z Hop When Retracted:false
;Z Hop Height:0.2
;Retract Before Outer Wall:true
;Print Speed:32
;Infill Speed:32

;Prime Tower Speed:32
;Travel Speed:120
;Initial Layer Speed:16
;Skirt/Brim Speed:16
;Combing Mode:off
; --------SpecialModel&Mesh Fixes--------
;Union Overlapping Volum:true
;Remove All Holes:false
;Maximum Travel Resolution:0.4
;Maximum Deviation:0.05
;Maximum Model Angle:0.872665
;IS Mold Print:false
;Make Overhang Printable:false
;Enable Coasting:false
;Coasting Volumes:0.06
;Coasting Speed:0.9
;Raft AirGap:0.25
;Layer0 ZOverLap:0.13
;---------------------End of Head--------------------------
M140 S74
M105
M104 S235
M105
M109 S235
M105
M190 S74
M82 ;absolute extrusion mode
M220 S100 ;Reset Feedrate
M221 S100 ;Reset Flowrate

G28 ;Home

G92 E0 ;Reset Extruder
G1 Z2.0 F3000 ;Move Z Axis up
G1 X10.1 Y20 Z0.28 F5000.0 ;Move to start position
G1 X10.1 Y145.0 Z0.28 F1500.0 E15 ;Draw the first line
G1 X10.4 Y145.0 Z0.28 F5000.0 ;Move to side a little
G1 X10.4 Y20 Z0.28 F1500.0 E30 ;Draw the second line
G92 E0  ;Reset Extruder
G1 E-1.0000 F1800 ;Retract a bit
G1 Z2.0 F3000 ;Move Z Axis up
G1 E0.0000 F1800 

G92 E0
G92 E0
G1 F6000 E-8

;LAYER_COUNT:197

;LAYER:0
M107
G0 F3600 X25.517 Y75.088 Z0.15
;;retract;;
G0 X139.362 Y189.075
;TYPE:SKIRT
G1 F6000 E0
G1 F960 X31.032 Y80.745 E2.1019
G1 X31.032 Y80.603 E2.10385
G1 X80.603 Y31.032 E3.06566
G1 X80.745 Y31.032 E3.06761
G1 X189.075 Y139.362 E5.16951
G1 X189.075 Y139.504 E5.17145
G1 X139.504 Y189.075 E6.13327
G1 X139.362 Y189.075 E6.13522
G0 F3600 X139.221 Y189.216
G1 F960 X30.891 Y80.886 E8.23711
G1 X30.812 Y80.6 E8.24118
G1 X30.891 Y80.462 E8.24337
G1 X80.462 Y30.891 E9.20518
G1 X80.748 Y30.812 E9.20925
G1 X80.886 Y30.891 E9.21143
G1 X189.216 Y139.221 E11.31333
G1 X189.295 Y139.507 E11.3174
G1 X189.216 Y139.645 E11.31958
G1 X139.645 Y189.216 E12.2814
G1 X139.359 Y189.295 E12.28547
G1 X139.221 Y189.216 E12.28765
G0 F3600 X139.079 Y189.358
G1 F960 X30.749 Y81.028 E14.38955
G1 X30.603 Y80.666 E14.3949
G1 X30.749 Y80.32 E14.40005
G1 X80.32 Y30.749 E15.36187
G1 X80.682 Y30.603 E15.36722
G1 X81.028 Y30.749 E15.37237
G1 X189.358 Y139.079 E17.47427
G1 X189.504 Y139.441 E17.47963
G1 X189.358 Y139.787 E17.48478
G1 X139.787 Y189.358 E18.44659
G1 X139.425 Y189.504 E18.45195
G1 X139.079 Y189.358 E18.4571
G0 F3600 X138.938 Y189.499
G1 F960 X30.608 Y81.169 E20.559
G1 X30.407 Y80.75 E20.56538
G1 X30.513 Y80.297 E20.57176
G1 X30.608 Y80.179 E20.57384
G1 X80.179 Y30.608 E21.53565
G1 X80.598 Y30.407 E21.54203
G1 X81.051 Y30.513 E21.54841
G1 X81.169 Y30.608 E21.55049
G1 X189.499 Y138.938 E23.65239
G1 X189.7 Y139.357 E23.65876
G1 X189.594 Y139.81 E23.66514
G1 X189.499 Y139.928 E23.66722
G1 X139.928 Y189.499 E24.62904
G1 X139.509 Y189.7 E24.63541
G1 X139.056 Y189.594 E24.64179
G1 X138.938 Y189.499 E24.64387
G0 F3600 X138.797 Y189.64
G1 F960 X30.467 Y81.31 E26.74577
G1 X30.308 Y81.095 E26.74944
G1 X30.219 Y80.843 E26.75311
G1 X30.208 Y80.575 E26.75679
G1 X30.277 Y80.317 E26.76045
G1 X30.467 Y80.038 E26.76508
G1 X80.038 Y30.467 E27.72689
G1 X80.253 Y30.308 E27.73056
G1 X80.505 Y30.219 E27.73423
G1 X80.773 Y30.208 E27.73791
G1 X81.031 Y30.277 E27.74157
G1 X81.31 Y30.467 E27.74621
G1 X189.64 Y138.797 E29.8481
G1 X189.799 Y139.012 E29.85177
G1 X189.888 Y139.264 E29.85544
G1 X189.899 Y139.532 E29.85912
G1 X189.83 Y139.79 E29.86278
G1 X189.64 Y140.069 E29.86741
G1 X140.069 Y189.64 E30.82923
G1 X139.854 Y189.799 E30.8329
G1 X139.602 Y189.888 E30.83656
G1 X139.334 Y189.899 E30.84024
G1 X139.076 Y189.83 E30.84391
G1 X138.797 Y189.64 E30.84854
G0 F3600 X138.655 Y189.782
G1 F960 X30.325 Y81.452 E32.95044
G1 X30.146 Y81.216 E32.9545
G1 X30.036 Y80.941 E32.95856
G1 X30.003 Y80.647 E32.96262
G1 X30.05 Y80.355 E32.96668
G1 X30.173 Y80.086 E32.97074
G1 X30.325 Y79.896 E32.97408
G1 X79.896 Y30.325 E33.93589
G1 X80.132 Y30.146 E33.93995
G1 X80.407 Y30.036 E33.94402
G1 X80.701 Y30.003 E33.94808
G1 X80.993 Y30.05 E33.95213
G1 X81.262 Y30.173 E33.95619
G1 X81.452 Y30.325 E33.95953
G1 X189.782 Y138.655 E36.06143
G1 X189.961 Y138.891 E36.06549
G1 X190.071 Y139.166 E36.06956
G1 X190.104 Y139.46 E36.07362
G1 X190.057 Y139.752 E36.07767
G1 X189.934 Y140.021 E36.08173
G1 X189.782 Y140.211 E36.08507
G1 X140.211 Y189.782 E37.04688
G1 X139.975 Y189.961 E37.05095
G1 X139.7 Y190.071 E37.05501
G1 X139.406 Y190.104 E37.05907
G1 X139.114 Y190.057 E37.06313
G1 X138.845 Y189.934 E37.06718
G1 X138.655 Y189.782 E37.07052
G0 F3600 X138.514 Y189.923
G1 F960 X30.184 Y81.593 E39.17242
G1 X29.986 Y81.339 E39.17684
G1 X29.857 Y81.044 E39.18126
G1 X29.804 Y80.727 E39.18567
G1 X29.831 Y80.406 E39.19009
G1 X29.936 Y80.102 E39.1945
G1 X30.184 Y79.755 E39.20035
G1 X79.755 Y30.184 E40.16216
G1 X80.009 Y29.986 E40.16658
G1 X80.304 Y29.857 E40.171
G1 X80.621 Y29.804 E40.17541
G1 X80.942 Y29.831 E40.17983
G1 X81.246 Y29.936 E40.18424
G1 X81.593 Y30.184 E40.19009
G1 X189.923 Y138.514 E42.29199
G1 X190.121 Y138.768 E42.29641
G1 X190.25 Y139.063 E42.30083
G1 X190.303 Y139.38 E42.30524
G1 X190.276 Y139.701 E42.30966
G1 X190.171 Y140.005 E42.31407
G1 X189.923 Y140.352 E42.31992
G1 X140.352 Y189.923 E43.28173
G1 X140.098 Y190.121 E43.28615
G1 X139.803 Y190.25 E43.29057
G1 X139.486 Y190.303 E43.29498
G1 X139.165 Y190.276 E43.2994
G1 X138.861 Y190.171 E43.30381
G1 X138.514 Y189.923 E43.30966
G0 F3600 X138.372 Y190.065
G1 F960 X30.042 Y81.735 E45.41156
G1 X29.828 Y81.464 E45.4163
G1 X29.681 Y81.15 E45.42106
G1 X29.609 Y80.812 E45.4258
G1 X29.617 Y80.466 E45.43055
G1 X29.704 Y80.132 E45.43528
G1 X29.866 Y79.826 E45.44003
G1 X30.042 Y79.613 E45.44382
G1 X79.613 Y30.042 E46.40563
G1 X79.884 Y29.828 E46.41037
G1 X80.198 Y29.681 E46.41513
G1 X80.536 Y29.609 E46.41987
G1 X80.882 Y29.617 E46.42462
G1 X81.216 Y29.704 E46.42935
G1 X81.522 Y29.866 E46.4341
G1 X81.735 Y30.042 E46.43789
G1 X190.065 Y138.372 E48.53979
G1 X190.279 Y138.643 E48.54453
G1 X190.426 Y138.957 E48.54929
G1 X190.498 Y139.295 E48.55403
G1 X190.49 Y139.641 E48.55878
G1 X190.403 Y139.975 E48.56351
G1 X190.241 Y140.281 E48.56826
G1 X190.065 Y140.494 E48.57205
G1 X140.494 Y190.065 E49.53387
G1 X140.223 Y190.279 E49.5386
G1 X139.909 Y190.426 E49.54336
G1 X139.571 Y190.498 E49.5481
G1 X139.225 Y190.49 E49.55285
G1 X138.891 Y190.403 E49.55759
G1 X138.585 Y190.241 E49.56234
G1 X138.372 Y190.065 E49.56613
G0 F3600 X138.231 Y190.206
G1 F960 X29.901 Y81.876 E51.66803
G1 X29.67 Y81.589 E51.67308
G1 X29.507 Y81.259 E51.67813
G1 X29.418 Y80.902 E51.68318
G1 X29.409 Y80.533 E51.68824
G1 X29.479 Y80.172 E51.69329
G1 X29.625 Y79.834 E51.69834
G1 X29.901 Y79.472 E51.70458
G1 X79.472 Y29.901 E52.6664
G1 X79.759 Y29.67 E52.67145
G1 X80.089 Y29.507 E52.6765
G1 X80.446 Y29.418 E52.68155
G1 X80.815 Y29.409 E52.68661
G1 X81.176 Y29.479 E52.69166
G1 X81.514 Y29.625 E52.69671
G1 X81.876 Y29.901 E52.70296
G1 X190.206 Y138.231 E54.80485
G1 X190.437 Y138.518 E54.80991
G1 X190.6 Y138.848 E54.81496
G1 X190.689 Y139.205 E54.82001
G1 X190.698 Y139.574 E54.82507
G1 X190.628 Y139.935 E54.83011
G1 X190.482 Y140.273 E54.83517
G1 X190.206 Y140.635 E54.84141
G1 X140.635 Y190.206 E55.80322
G1 X140.348 Y190.437 E55.80828
G1 X140.018 Y190.6 E55.81333
G1 X139.661 Y190.689 E55.81838
G1 X139.292 Y190.698 E55.82344
G1 X138.931 Y190.628 E55.82849
G1 X138.593 Y190.482 E55.83354
G1 X138.231 Y190.206 E55.83978
G0 F3600 X138.089 Y190.348
G1 F960 X29.759 Y82.018 E57.94168
G1 X29.514 Y81.715 E57.94703
G1 X29.335 Y81.37 E57.95236
G1 X29.23 Y80.995 E57.9577
G1 X29.204 Y80.606 E57.96305
G1 X29.258 Y80.22 E57.9684
G1 X29.389 Y79.854 E57.97373
G1 X29.592 Y79.522 E57.97907
G1 X29.759 Y79.33 E57.98256
G1 X79.33 Y29.759 E58.94438
G1 X79.633 Y29.514 E58.94972
G1 X79.978 Y29.335 E58.95505
G1 X80.353 Y29.23 E58.9604
G1 X80.742 Y29.204 E58.96575
G1 X81.128 Y29.258 E58.97109
G1 X81.494 Y29.389 E58.97643
G1 X81.826 Y29.592 E58.98177
G1 X82.018 Y29.759 E58.98526
G1 X190.348 Y138.089 E61.08716
G1 X190.593 Y138.392 E61.0925
G1 X190.772 Y138.737 E61.09783
G1 X190.877 Y139.112 E61.10318
G1 X190.903 Y139.501 E61.10853
G1 X190.849 Y139.887 E61.11387
G1 X190.718 Y140.253 E61.11921
G1 X190.515 Y140.585 E61.12455
G1 X190.348 Y140.777 E61.12804
G1 X140.777 Y190.348 E62.08985
G1 X140.474 Y190.593 E62.0952
G1 X140.129 Y190.772 E62.10053
G1 X139.754 Y190.877 E62.10587
G1 X139.365 Y190.903 E62.11122
G1 X138.979 Y190.849 E62.11657
G1 X138.613 Y190.718 E62.1219
G1 X138.281 Y190.515 E62.12724
G1 X138.089 Y190.348 E62.13073
G0 F3600 X137.948 Y190.489
G1 F960 X29.618 Y82.159 E64.23263
G1 X29.358 Y81.843 E64.23824
G1 X29.165 Y81.482 E64.24386
G1 X29.045 Y81.09 E64.24948
G1 X29.003 Y80.683 E64.2551
G1 X29.041 Y80.276 E64.26071
G1 X29.158 Y79.883 E64.26633
G1 X29.348 Y79.521 E64.27194
G1 X29.618 Y79.189 E64.27781
G1 X79.189 Y29.618 E65.23962
G1 X79.505 Y29.358 E65.24524
G1 X79.866 Y29.165 E65.25086
G1 X80.258 Y29.045 E65.25648
G1 X80.665 Y29.003 E65.26209
G1 X81.072 Y29.041 E65.2677
G1 X81.465 Y29.158 E65.27333
G1 X81.827 Y29.348 E65.27894
G1 X82.159 Y29.618 E65.28481
G1 X190.489 Y137.948 E67.38671
G1 X190.749 Y138.264 E67.39232
G1 X190.942 Y138.625 E67.39794
G1 X191.062 Y139.017 E67.40356
G1 X191.104 Y139.424 E67.40917
G1 X191.066 Y139.831 E67.41478
G1 X190.949 Y140.224 E67.42041
G1 X190.759 Y140.586 E67.42602
G1 X190.489 Y140.918 E67.43189
G1 X140.918 Y190.489 E68.3937
G1 X140.602 Y190.749 E68.39932
G1 X140.241 Y190.942 E68.40493
G1 X139.849 Y191.062 E68.41056
G1 X139.442 Y191.104 E68.41617
G1 X139.035 Y191.066 E68.42178
G1 X138.642 Y190.949 E68.4274
G1 X138.28 Y190.759 E68.43301
G1 X137.948 Y190.489 E68.43889
G0 F3600 X137.807 Y190.63
G1 F960 X29.477 Y82.3 E70.54078
G1 X29.203 Y81.97 E70.54667
G1 X28.996 Y81.596 E70.55253
G1 X28.861 Y81.189 E70.55842
G1 X28.805 Y80.764 E70.5643
G1 X28.828 Y80.336 E70.57018
G1 X28.93 Y79.92 E70.57605
G1 X29.108 Y79.53 E70.58194
G1 X29.477 Y79.048 E70.59026
G1 X79.048 Y29.477 E71.55208
G1 X79.378 Y29.203 E71.55796
G1 X79.752 Y28.996 E71.56383
G1 X80.159 Y28.861 E71.56971
G1 X80.584 Y28.805 E71.57559
G1 X81.012 Y28.828 E71.58147
G1 X81.428 Y28.93 E71.58735
G1 X81.818 Y29.108 E71.59323
G1 X82.3 Y29.477 E71.60156
G1 X190.63 Y137.807 E73.70346
G1 X190.904 Y138.137 E73.70934
G1 X191.111 Y138.511 E73.71521
G1 X191.246 Y138.918 E73.72109
G1 X191.302 Y139.343 E73.72697
G1 X191.279 Y139.771 E73.73285
G1 X191.177 Y140.187 E73.73873
G1 X190.999 Y140.577 E73.74461
G1 X190.63 Y141.059 E73.75294
G1 X141.059 Y190.63 E74.71475
G1 X140.729 Y190.904 E74.72064
G1 X140.355 Y191.111 E74.7265
G1 X139.948 Y191.246 E74.73238
G1 X139.523 Y191.302 E74.73826
G1 X139.095 Y191.279 E74.74415
G1 X138.679 Y191.177 E74.75002
G1 X138.289 Y190.999 E74.7559
G1 X137.807 Y190.63 E74.76423
G0 F3600 X137.665 Y190.772
G1 F960 X29.335 Y82.442 E76.86613
G1 X29.049 Y82.099 E76.87226
G1 X28.828 Y81.711 E76.87838
G1 X28.68 Y81.289 E76.88452
G1 X28.609 Y80.848 E76.89065
G1 X28.618 Y80.401 E76.89678
G1 X28.706 Y79.963 E76.90291
G1 X28.871 Y79.548 E76.90904
G1 X29.107 Y79.169 E76.91516
G1 X29.335 Y78.906 E76.91994
G1 X78.906 Y29.335 E77.88175
G1 X79.249 Y29.049 E77.88788
G1 X79.637 Y28.828 E77.89401
G1 X80.059 Y28.68 E77.90014
G1 X80.5 Y28.609 E77.90627
G1 X80.947 Y28.618 E77.9124
G1 X81.385 Y28.706 E77.91853
G1 X81.8 Y28.871 E77.92466
G1 X82.179 Y29.107 E77.93079
G1 X82.442 Y29.335 E77.93556
G1 X190.772 Y137.665 E80.03746
G1 X191.058 Y138.008 E80.04359
G1 X191.279 Y138.396 E80.04971
G1 X191.427 Y138.818 E80.05585
G1 X191.498 Y139.259 E80.06198
G1 X191.489 Y139.706 E80.06811
G1 X191.401 Y140.144 E80.07424
G1 X191.236 Y140.559 E80.08037
G1 X191 Y140.938 E80.08649
G1 X190.772 Y141.201 E80.09127
G1 X141.201 Y190.772 E81.05308
G1 X140.858 Y191.058 E81.05921
G1 X140.47 Y191.279 E81.06533
G1 X140.048 Y191.427 E81.07147
G1 X139.607 Y191.498 E81.0776
G1 X139.16 Y191.489 E81.08373
G1 X138.722 Y191.401 E81.08986
G1 X138.307 Y191.236 E81.09599
G1 X137.928 Y191 E81.10211
G1 X137.665 Y190.772 E81.10689
G0 F3600 X137.524 Y190.913
G1 F960 X29.194 Y82.583 E83.20879
G1 X28.895 Y82.228 E83.21516
G1 X28.661 Y81.827 E83.22153
G1 X28.5 Y81.391 E83.2279
G1 X28.416 Y80.935 E83.23426
G1 X28.411 Y80.47 E83.24064
G1 X28.485 Y80.012 E83.24701
G1 X28.638 Y79.573 E83.25339
G1 X28.863 Y79.167 E83.25976
G1 X29.194 Y78.765 E83.2669
G1 X78.765 Y29.194 E84.22871
G1 X79.12 Y28.895 E84.23508
G1 X79.521 Y28.661 E84.24145
G1 X79.957 Y28.5 E84.24783
G1 X80.413 Y28.416 E84.25419
G1 X80.878 Y28.411 E84.26057
G1 X81.336 Y28.485 E84.26693
G1 X81.775 Y28.638 E84.27331
G1 X82.181 Y28.863 E84.27968
G1 X82.583 Y29.194 E84.28683
G1 X190.913 Y137.524 E86.38872
G1 X191.212 Y137.879 E86.39509
G1 X191.446 Y138.28 E86.40146
G1 X191.607 Y138.716 E86.40784
G1 X191.691 Y139.172 E86.4142
G1 X191.696 Y139.637 E86.42058
G1 X191.622 Y140.095 E86.42694
G1 X191.469 Y140.534 E86.43332
G1 X191.244 Y140.94 E86.43969
G1 X190.913 Y141.342 E86.44684
G1 X141.342 Y190.913 E87.40865
G1 X140.987 Y191.212 E87.41502
G1 X140.586 Y191.446 E87.42139
G1 X140.15 Y191.607 E87.42776
G1 X139.694 Y191.691 E87.43412
G1 X139.229 Y191.696 E87.4405
G1 X138.771 Y191.622 E87.44687
G1 X138.332 Y191.469 E87.45325
G1 X137.926 Y191.244 E87.45962
G1 X137.524 Y190.913 E87.46676
G0 F3600 X137.382 Y191.055
G1 F960 X29.052 Y82.725 E89.56866
G1 X28.742 Y82.357 E89.57526
G1 X28.496 Y81.944 E89.58186
G1 X28.322 Y81.495 E89.58846
G1 X28.224 Y81.024 E89.59506
G1 X28.206 Y80.543 E89.60167
G1 X28.268 Y80.065 E89.60828
G1 X28.407 Y79.605 E89.61487
G1 X28.621 Y79.174 E89.62148
G1 X29.052 Y78.623 E89.63107
G1 X78.623 Y29.052 E90.59289
G1 X78.991 Y28.742 E90.59949
G1 X79.404 Y28.496 E90.60608
G1 X79.853 Y28.322 E90.61269
G1 X80.324 Y28.224 E90.61929
G1 X80.805 Y28.206 E90.62589
G1 X81.283 Y28.268 E90.63251
G1 X81.743 Y28.407 E90.6391
G1 X82.174 Y28.621 E90.6457
G1 X82.725 Y29.052 E90.6553
G1 X191.055 Y137.382 E92.7572
G1 X191.365 Y137.75 E92.7638
G1 X191.611 Y138.163 E92.77039
G1 X191.785 Y138.612 E92.777
G1 X191.883 Y139.083 E92.7836
G1 X191.901 Y139.564 E92.7902
G1 X191.839 Y140.042 E92.79682
G1 X191.7 Y140.502 E92.80341
G1 X191.486 Y140.933 E92.81001
G1 X191.055 Y141.484 E92.81961
G1 X141.484 Y191.055 E93.78142
G1 X141.116 Y191.365 E93.78803
