;FLAVOR:Marlin
;TIME:55496
;Filament used:18.3609m
;Layer height: 0.2
;MINX:47.301
;MINY:47.396
;MINZ:0.15
;MAXX:172.604
;MAXY:172.699
;MAXZ:33.95
                           
;Creality Print GCode Generated by CXEngineDEV
;Generated Time:2022-06-30 15:03:09
;----------Machine Config--------------
;Machine Name:Creality Ender-3
;Machine Height:250
;Machine Width:220
;Machine Depth:220
;Material name:Castable
;Number of Extruders:1
;ExtruderParams[0] Nozzle Diameter1000
;----------Profile Config---------------
;Layer Height:0.2
;Wall Thickness:1
;Top/Bottom Thickness:1
;Out Wall Line Width:0.2
;Inner Wall Line Width:0.2
;Inital Layer Height:150
;Wall Line Count:6
;Infill Line Distance:2
;Infill Pattern:grid
;Infill Sparse Density:20
;Infill Wipe Distance:0
;Print Temperature:235
;Bed Temperature:74
;Support Enable:false
;Support Density:10
;Support Angle:0
;Adhesion Type:brim
;machine is belt:false
;machine belt offset:10
;machine belt offset Y:0
;Raft Base Line Spacing:1.6
;Wait Heatup Sync:true
;----------Shell Config----------------
;Outer Wall Wipe Distance:200
;Infill Before Walls:false
;Infill Overlap:0.08
;Fill Gaps Between Walls:everywhere
;Minimum Infill Area:1
;Top Surface Skin Layer:0
;Top Layers:6
;Z Seam Alignment:sharpest_corner
;Seam Corner Preference:z_seam_corner_inner
;Z Seam X:110
;Z Seam Y:110
;Horizontal Expansion:0
;Top/Bottom Pattern:zigzag
;Ironing Pattern:zigzag
;Vase Model:false
;----------Support Config----------------
;Support Type:everywhere
;Support Pattern:zigzag
;Support Infill Layer Thickness:0.2
;Minimum Support Area:5
;Enable Support Roof:false
;Support Roof Thickness:0.8
;Support Roof Pattern:lines
;Connect Support Lines:0
;Connect Support ZigZags:1
;Minimum Support X/Y Distance:0.2
;Support Line Distance:2
; ---------PrintSpeed & Travel----------
;Enable Print Cool:true
;Avoid Printed Parts Traveling:true
;Enable Retraction:true
;Retraction Distance:8
;Retraction Speed:100
;Retraction Prime Speed:100
;Maximum Retraction Count:100
;Minimum Extrusion Distance Window:1
;Z Hop When Retracted:false
;Z Hop Height:0.2
;Retract Before Outer Wall:true
;Print Speed:32
;Infill Speed:32

;Prime Tower Speed:32
;Travel Speed:120
;Initial Layer Speed:16
;Skirt/Brim Speed:16
;Combing Mode:off
; --------SpecialModel&Mesh Fixes--------
;Union Overlapping Volum:true
;Remove All Holes:false
;Maximum Travel Resolution:0.4
;Maximum Deviation:0.05
;Maximum Model Angle:0.872665
;IS Mold Print:false
;Make Overhang Printable:false
;Enable Coasting:false
;Coasting Volumes:0.06
;Coasting Speed:0.9
;Raft AirGap:0.25
;Layer0 ZOverLap:0.13
;---------------------End of Head--------------------------
M140 S74
M105
M104 S235
M105
M109 S235
M105
M190 S74
M82 ;absolute extrusion mode
M220 S100 ;Reset Feedrate
M221 S100 ;Reset Flowrate

G28 ;Home

G92 E0 ;Reset Extruder
G1 Z2.0 F3000 ;Move Z Axis up
G1 X10.1 Y20 Z0.28 F5000.0 ;Move to start position
G1 X10.1 Y145.0 Z0.28 F1500.0 E15 ;Draw the first line
G1 X10.4 Y145.0 Z0.28 F5000.0 ;Move to side a little
G1 X10.4 Y20 Z0.28 F1500.0 E30 ;Draw the second line
G92 E0  ;Reset Extruder
G1 E-1.0000 F1800 ;Retract a bit
G1 Z2.0 F3000 ;Move Z Axis up
G1 E0.0000 F1800 

G92 E0
G92 E0
G1 F6000 E-8

;LAYER_COUNT:170

;LAYER:0
M107
G0 F3600 X113.865 Y49.708 Z0.15
;;retract;;
G0 X119.522 Y55.223
;TYPE:SKIRT
G1 F6000 E0
G1 F960 X164.777 Y100.478 E0.87807
G1 X164.777 Y100.62 E0.88002
G1 X100.525 Y164.872 E2.12668
G1 X100.383 Y164.872 E2.12863
G1 X55.128 Y119.617 E3.0067
G1 X55.128 Y119.475 E3.00865
G1 X119.38 Y55.223 E4.25532
G1 X119.522 Y55.223 E4.25726
G0 F3600 X119.663 Y55.082
G1 F960 X164.918 Y100.337 E5.13533
G1 X164.997 Y100.623 E5.13941
G1 X164.918 Y100.761 E5.14159
G1 X100.666 Y165.013 E6.38825
G1 X100.38 Y165.092 E6.39232
G1 X100.242 Y165.013 E6.3945
G1 X54.987 Y119.758 E7.27257
G1 X54.908 Y119.472 E7.27665
G1 X54.987 Y119.334 E7.27883
G1 X119.239 Y55.082 E8.52549
G1 X119.525 Y55.003 E8.52956
G1 X119.663 Y55.082 E8.53174
G0 F3600 X119.805 Y54.94
G1 F960 X165.06 Y100.195 E9.40981
G1 X165.206 Y100.557 E9.41517
G1 X165.06 Y100.903 E9.42032
G1 X100.808 Y165.155 E10.66699
G1 X100.446 Y165.301 E10.67234
G1 X100.1 Y165.155 E10.67749
G1 X54.845 Y119.9 E11.55557
G1 X54.699 Y119.538 E11.56092
G1 X54.845 Y119.192 E11.56607
G1 X119.097 Y54.94 E12.81274
G1 X119.459 Y54.794 E12.81809
G1 X119.805 Y54.94 E12.82325
G0 F3600 X119.946 Y54.799
G1 F960 X165.201 Y100.054 E13.70132
G1 X165.402 Y100.473 E13.70769
G1 X165.296 Y100.926 E13.71407
G1 X165.201 Y101.044 E13.71615
G1 X100.949 Y165.296 E14.96282
G1 X100.53 Y165.497 E14.96919
G1 X100.077 Y165.391 E14.97558
G1 X99.959 Y165.296 E14.97765
G1 X54.704 Y120.041 E15.85573
G1 X54.503 Y119.622 E15.8621
G1 X54.609 Y119.169 E15.86848
G1 X54.704 Y119.051 E15.87056
G1 X118.956 Y54.799 E17.11723
G1 X119.375 Y54.598 E17.1236
G1 X119.828 Y54.704 E17.12999
G1 X119.946 Y54.799 E17.13206
G0 F3600 X120.087 Y54.658
G1 F960 X165.342 Y99.913 E18.01014
G1 X165.501 Y100.128 E18.0138
G1 X165.59 Y100.38 E18.01747
G1 X165.601 Y100.648 E18.02115
G1 X165.532 Y100.906 E18.02481
G1 X165.342 Y101.185 E18.02945
G1 X101.09 Y165.437 E19.27611
G1 X100.875 Y165.596 E19.27978
G1 X100.623 Y165.685 E19.28345
G1 X100.355 Y165.696 E19.28713
G1 X100.097 Y165.627 E19.29079
G1 X99.818 Y165.437 E19.29542
G1 X54.563 Y120.182 E20.17349
G1 X54.404 Y119.967 E20.17716
G1 X54.315 Y119.715 E20.18083
G1 X54.304 Y119.447 E20.18451
G1 X54.373 Y119.189 E20.18817
G1 X54.563 Y118.91 E20.1928
G1 X118.815 Y54.658 E21.43947
G1 X119.03 Y54.499 E21.44314
G1 X119.282 Y54.41 E21.4468
G1 X119.55 Y54.399 E21.45048
G1 X119.808 Y54.468 E21.45415
G1 X120.087 Y54.658 E21.45878
G0 F3600 X120.229 Y54.516
G1 F960 X165.484 Y99.771 E22.33685
G1 X165.663 Y100.007 E22.34091
G1 X165.773 Y100.282 E22.34498
G1 X165.806 Y100.576 E22.34904
G1 X165.759 Y100.868 E22.35309
G1 X165.636 Y101.137 E22.35715
G1 X165.484 Y101.327 E22.36049
G1 X101.232 Y165.579 E23.60715
G1 X100.996 Y165.758 E23.61122
G1 X100.721 Y165.868 E23.61528
G1 X100.427 Y165.901 E23.61934
G1 X100.135 Y165.854 E23.6234
G1 X99.866 Y165.731 E23.62746
G1 X99.676 Y165.579 E23.63079
G1 X54.421 Y120.324 E24.50887
G1 X54.242 Y120.088 E24.51293
G1 X54.132 Y119.813 E24.51699
G1 X54.099 Y119.519 E24.52105
G1 X54.146 Y119.227 E24.52511
G1 X54.269 Y118.958 E24.52917
G1 X54.421 Y118.768 E24.53251
G1 X118.673 Y54.516 E25.77917
G1 X118.909 Y54.337 E25.78323
G1 X119.184 Y54.227 E25.7873
G1 X119.478 Y54.194 E25.79136
G1 X119.77 Y54.241 E25.79541
G1 X120.039 Y54.364 E25.79947
G1 X120.229 Y54.516 E25.80281
G0 F3600 X120.37 Y54.375
G1 F960 X165.625 Y99.63 E26.68088
G1 X165.823 Y99.884 E26.6853
G1 X165.952 Y100.179 E26.68972
G1 X166.005 Y100.496 E26.69413
G1 X165.978 Y100.817 E26.69855
G1 X165.873 Y101.121 E26.70296
G1 X165.625 Y101.468 E26.70881
G1 X101.373 Y165.72 E27.95548
G1 X101.119 Y165.918 E27.95989
G1 X100.824 Y166.047 E27.96431
G1 X100.507 Y166.1 E27.96872
G1 X100.186 Y166.073 E27.97314
G1 X99.882 Y165.968 E27.97755
G1 X99.535 Y165.72 E27.98341
G1 X54.28 Y120.465 E28.86148
G1 X54.082 Y120.211 E28.86589
G1 X53.953 Y119.916 E28.87031
G1 X53.9 Y119.599 E28.87472
G1 X53.927 Y119.278 E28.87914
G1 X54.032 Y118.974 E28.88355
G1 X54.28 Y118.627 E28.88941
G1 X118.532 Y54.375 E30.13607
G1 X118.786 Y54.177 E30.14049
G1 X119.081 Y54.048 E30.14491
G1 X119.398 Y53.995 E30.14932
G1 X119.719 Y54.022 E30.15373
G1 X120.023 Y54.127 E30.15815
G1 X120.37 Y54.375 E30.164
G0 F3600 X120.512 Y54.233
G1 F960 X165.767 Y99.488 E31.04207
G1 X165.981 Y99.759 E31.04681
G1 X166.128 Y100.073 E31.05156
G1 X166.2 Y100.411 E31.05631
G1 X166.192 Y100.757 E31.06105
G1 X166.105 Y101.091 E31.06579
G1 X165.943 Y101.397 E31.07054
G1 X165.767 Y101.61 E31.07433
G1 X101.515 Y165.862 E32.32099
G1 X101.244 Y166.076 E32.32573
G1 X100.93 Y166.223 E32.33049
G1 X100.592 Y166.295 E32.33523
G1 X100.246 Y166.287 E32.33998
G1 X99.912 Y166.2 E32.34471
G1 X99.606 Y166.038 E32.34946
G1 X99.393 Y165.862 E32.35326
G1 X54.138 Y120.607 E33.23133
G1 X53.924 Y120.336 E33.23606
G1 X53.777 Y120.022 E33.24082
G1 X53.705 Y119.684 E33.24556
G1 X53.713 Y119.338 E33.25031
G1 X53.8 Y119.004 E33.25505
G1 X53.962 Y118.698 E33.2598
G1 X54.138 Y118.485 E33.26359
G1 X118.39 Y54.233 E34.51025
G1 X118.661 Y54.019 E34.51499
G1 X118.975 Y53.872 E34.51975
G1 X119.313 Y53.8 E34.52449
G1 X119.659 Y53.808 E34.52924
G1 X119.993 Y53.895 E34.53397
G1 X120.299 Y54.057 E34.53872
G1 X120.512 Y54.233 E34.54251
G0 F3600 X120.653 Y54.092
G1 F960 X165.908 Y99.347 E35.42058
G1 X166.139 Y99.634 E35.42564
G1 X166.302 Y99.964 E35.43069
G1 X166.391 Y100.321 E35.43573
G1 X166.4 Y100.69 E35.4408
G1 X166.33 Y101.051 E35.44584
G1 X166.184 Y101.389 E35.4509
G1 X165.908 Y101.751 E35.45714
G1 X101.656 Y166.003 E36.70381
G1 X101.369 Y166.234 E36.70886
G1 X101.039 Y166.397 E36.71391
G1 X100.682 Y166.486 E36.71896
G1 X100.313 Y166.495 E36.72402
G1 X99.952 Y166.425 E36.72907
G1 X99.614 Y166.279 E36.73412
G1 X99.252 Y166.003 E36.74036
G1 X53.997 Y120.748 E37.61843
G1 X53.766 Y120.461 E37.62349
G1 X53.603 Y120.131 E37.62854
G1 X53.514 Y119.774 E37.63359
G1 X53.505 Y119.405 E37.63865
G1 X53.575 Y119.044 E37.6437
G1 X53.721 Y118.706 E37.64875
G1 X53.997 Y118.344 E37.65499
G1 X118.249 Y54.092 E38.90166
G1 X118.536 Y53.861 E38.90671
G1 X118.866 Y53.698 E38.91176
G1 X119.223 Y53.609 E38.91681
G1 X119.592 Y53.6 E38.92187
G1 X119.953 Y53.67 E38.92692
G1 X120.291 Y53.816 E38.93197
G1 X120.653 Y54.092 E38.93822
G0 F3600 X120.795 Y53.95
G1 F960 X166.05 Y99.205 E39.81629
G1 X166.295 Y99.508 E39.82163
G1 X166.474 Y99.853 E39.82696
G1 X166.579 Y100.228 E39.83231
G1 X166.605 Y100.617 E39.83766
G1 X166.551 Y101.003 E39.843
G1 X166.42 Y101.369 E39.84834
G1 X166.217 Y101.701 E39.85368
G1 X166.05 Y101.893 E39.85717
G1 X101.798 Y166.145 E41.10383
G1 X101.495 Y166.39 E41.10918
G1 X101.15 Y166.569 E41.11451
G1 X100.775 Y166.674 E41.11985
G1 X100.386 Y166.7 E41.1252
G1 X100 Y166.646 E41.13055
G1 X99.634 Y166.515 E41.13588
G1 X99.302 Y166.312 E41.14122
G1 X99.11 Y166.145 E41.14471
G1 X53.855 Y120.89 E42.02278
G1 X53.61 Y120.587 E42.02813
G1 X53.431 Y120.242 E42.03346
G1 X53.326 Y119.867 E42.03881
G1 X53.3 Y119.478 E42.04415
G1 X53.354 Y119.092 E42.0495
G1 X53.485 Y118.726 E42.05484
G1 X53.688 Y118.394 E42.06017
G1 X53.855 Y118.202 E42.06367
G1 X118.107 Y53.95 E43.31033
G1 X118.41 Y53.705 E43.31568
G1 X118.755 Y53.526 E43.32101
G1 X119.13 Y53.421 E43.32635
G1 X119.519 Y53.395 E43.3317
G1 X119.905 Y53.449 E43.33705
G1 X120.271 Y53.58 E43.34238
G1 X120.603 Y53.783 E43.34772
G1 X120.795 Y53.95 E43.35121
G0 F3600 X120.936 Y53.809
G1 F960 X166.191 Y99.064 E44.22928
G1 X166.451 Y99.38 E44.2349
G1 X166.644 Y99.741 E44.24051
G1 X166.764 Y100.133 E44.24614
G1 X166.806 Y100.54 E44.25175
G1 X166.768 Y100.947 E44.25736
G1 X166.651 Y101.34 E44.26298
G1 X166.461 Y101.702 E44.26859
G1 X166.191 Y102.034 E44.27446
G1 X101.939 Y166.286 E45.52113
G1 X101.623 Y166.546 E45.52674
G1 X101.262 Y166.739 E45.53236
G1 X100.87 Y166.859 E45.53798
G1 X100.463 Y166.901 E45.5436
G1 X100.056 Y166.863 E45.54921
G1 X99.663 Y166.746 E45.55483
G1 X99.301 Y166.556 E45.56044
G1 X98.969 Y166.286 E45.56631
G1 X53.714 Y121.031 E46.44438
G1 X53.454 Y120.715 E46.45
G1 X53.261 Y120.354 E46.45561
G1 X53.141 Y119.962 E46.46124
G1 X53.099 Y119.555 E46.46685
G1 X53.137 Y119.148 E46.47246
G1 X53.254 Y118.755 E46.47809
G1 X53.444 Y118.393 E46.4837
G1 X53.714 Y118.061 E46.48957
G1 X117.966 Y53.809 E47.73623
G1 X118.282 Y53.549 E47.74185
G1 X118.643 Y53.356 E47.74746
G1 X119.035 Y53.236 E47.75309
G1 X119.442 Y53.194 E47.7587
G1 X119.849 Y53.232 E47.76431
G1 X120.242 Y53.349 E47.76993
G1 X120.604 Y53.539 E47.77554
G1 X120.936 Y53.809 E47.78141
G0 F3600 X121.077 Y53.668
G1 F960 X166.332 Y98.923 E48.65948
G1 X166.606 Y99.253 E48.66537
G1 X166.813 Y99.627 E48.67123
G1 X166.948 Y100.034 E48.67712
G1 X167.004 Y100.459 E48.683
G1 X166.981 Y100.887 E48.68888
G1 X166.879 Y101.303 E48.69476
G1 X166.701 Y101.693 E48.70064
G1 X166.332 Y102.175 E48.70897
G1 X102.08 Y166.427 E49.95563
G1 X101.75 Y166.701 E49.96151
G1 X101.376 Y166.908 E49.96738
G1 X100.969 Y167.043 E49.97326
G1 X100.544 Y167.099 E49.97914
G1 X100.116 Y167.076 E49.98502
G1 X99.7 Y166.974 E49.9909
G1 X99.31 Y166.796 E49.99678
G1 X98.828 Y166.427 E50.00511
G1 X53.573 Y121.172 E50.88318
G1 X53.299 Y120.842 E50.88907
G1 X53.092 Y120.468 E50.89493
G1 X52.957 Y120.061 E50.90081
G1 X52.901 Y119.636 E50.9067
G1 X52.924 Y119.208 E50.91258
G1 X53.026 Y118.792 E50.91845
G1 X53.204 Y118.402 E50.92433
G1 X53.573 Y117.92 E50.93266
G1 X117.825 Y53.668 E52.17933
G1 X118.155 Y53.394 E52.18521
G1 X118.529 Y53.187 E52.19108
G1 X118.936 Y53.052 E52.19696
G1 X119.361 Y52.996 E52.20284
G1 X119.789 Y53.019 E52.20872
G1 X120.205 Y53.121 E52.2146
G1 X120.595 Y53.299 E52.22048
G1 X121.077 Y53.668 E52.22881
G0 F3600 X121.219 Y53.526
G1 F960 X166.474 Y98.781 E53.10688
G1 X166.76 Y99.124 E53.11301
G1 X166.981 Y99.512 E53.11913
G1 X167.129 Y99.934 E53.12527
G1 X167.2 Y100.375 E53.1314
G1 X167.191 Y100.822 E53.13753
G1 X167.103 Y101.26 E53.14366
G1 X166.938 Y101.675 E53.14979
G1 X166.702 Y102.054 E53.15591
G1 X166.474 Y102.317 E53.16069
G1 X102.222 Y166.569 E54.40735
G1 X101.879 Y166.855 E54.41348
G1 X101.491 Y167.076 E54.41961
G1 X101.069 Y167.224 E54.42574
G1 X100.628 Y167.295 E54.43187
G1 X100.181 Y167.286 E54.438
G1 X99.743 Y167.198 E54.44413
G1 X99.328 Y167.033 E54.45026
G1 X98.949 Y166.797 E54.45639
G1 X98.686 Y166.569 E54.46116
G1 X53.431 Y121.314 E55.33923
G1 X53.145 Y120.971 E55.34536
G1 X52.924 Y120.583 E55.35149
G1 X52.776 Y120.161 E55.35762
G1 X52.705 Y119.72 E55.36375
G1 X52.714 Y119.273 E55.36988
G1 X52.802 Y118.835 E55.37601
G1 X52.967 Y118.42 E55.38214
G1 X53.203 Y118.041 E55.38827
G1 X53.431 Y117.778 E55.39304
G1 X117.683 Y53.526 E56.63971
G1 X118.026 Y53.24 E56.64583
G1 X118.414 Y53.019 E56.65196
G1 X118.836 Y52.871 E56.65809
G1 X119.277 Y52.8 E56.66422
G1 X119.724 Y52.809 E56.67036
G1 X120.162 Y52.897 E56.67649
G1 X120.577 Y53.062 E56.68261
G1 X120.956 Y53.298 E56.68874
G1 X121.219 Y53.526 E56.69351
G0 F3600 X121.36 Y53.385
G1 F960 X166.615 Y98.64 E57.57158
G1 X166.914 Y98.995 E57.57795
G1 X167.148 Y99.396 E57.58432
G1 X167.309 Y99.832 E57.5907
G1 X167.393 Y100.288 E57.59706
G1 X167.398 Y100.753 E57.60344
G1 X167.324 Y101.211 E57.60981
G1 X167.171 Y101.65 E57.61618
G1 X166.946 Y102.056 E57.62255
G1 X166.615 Y102.458 E57.6297
G1 X102.363 Y166.71 E58.87636
G1 X102.008 Y167.009 E58.88273
G1 X101.607 Y167.243 E58.8891
G1 X101.171 Y167.404 E58.89548
G1 X100.715 Y167.488 E58.90184
G1 X100.25 Y167.493 E58.90822
G1 X99.792 Y167.419 E58.91458
G1 X99.353 Y167.266 E58.92096
G1 X98.947 Y167.041 E58.92733
G1 X98.545 Y166.71 E58.93447
G1 X53.29 Y121.455 E59.81254
G1 X52.991 Y121.1 E59.81891
G1 X52.757 Y120.699 E59.82528
G1 X52.596 Y120.263 E59.83166
G1 X52.512 Y119.807 E59.83802
G1 X52.507 Y119.342 E59.8444
G1 X52.581 Y118.884 E59.85077
G1 X52.734 Y118.445 E59.85714
G1 X52.959 Y118.039 E59.86351
G1 X53.29 Y117.637 E59.87066
G1 X117.542 Y53.385 E61.11732
G1 X117.897 Y53.086 E61.12369
G1 X118.298 Y52.852 E61.13006
G1 X118.734 Y52.691 E61.13644
G1 X119.19 Y52.607 E61.1428
G1 X119.655 Y52.602 E61.14918
G1 X120.113 Y52.676 E61.15554
G1 X120.552 Y52.829 E61.16192
G1 X120.958 Y53.054 E61.16829
G1 X121.36 Y53.385 E61.17543
G0 F3600 X121.502 Y53.243
G1 F960 X166.757 Y98.498 E62.0535
G1 X167.067 Y98.866 E62.06011
G1 X167.313 Y99.279 E62.0667
G1 X167.487 Y99.728 E62.07331
G1 X167.585 Y100.199 E62.07991
G1 X167.603 Y100.68 E62.08651
G1 X167.541 Y101.158 E62.09313
G1 X167.402 Y101.618 E62.09972
G1 X167.188 Y102.049 E62.10632
G1 X166.757 Y102.6 E62.11592
G1 X102.505 Y166.852 E63.36258
G1 X102.137 Y167.162 E63.36918
G1 X101.724 Y167.408 E63.37578
G1 X101.275 Y167.582 E63.38239
G1 X100.804 Y167.68 E63.38899
G1 X100.323 Y167.698 E63.39559
G1 X99.845 Y167.636 E63.4022
G1 X99.385 Y167.497 E63.4088
G1 X98.954 Y167.283 E63.4154
G1 X98.403 Y166.852 E63.425
G1 X53.148 Y121.597 E64.30307
G1 X52.838 Y121.229 E64.30967
G1 X52.592 Y120.816 E64.31626
G1 X52.418 Y120.367 E64.32287
G1 X52.32 Y119.896 E64.32947
G1 X52.302 Y119.415 E64.33607
G1 X52.364 Y118.937 E64.34269
G1 X52.503 Y118.477 E64.34928
G1 X52.717 Y118.046 E64.35588
