;FLAVOR:Marlin
;TIME:51882
;Filament used:15.688m
;Layer height: 0.2
;MINX:43.036
;MINY:41.644
;MINZ:0.15
;MAXX:178.333
;MAXY:176.964
;MAXZ:33.55
                            
;Creality Print GCode Generated by CXEngineDEV
;Generated Time:2022-06-30 15:03:09
;----------Machine Config--------------
;Machine Name:Creality Ender-3
;Machine Height:250
;Machine Width:220
;Machine Depth:220
;Material name:Castable
;Number of Extruders:1
;ExtruderParams[0] Nozzle Diameter1000
;----------Profile Config---------------
;Layer Height:0.2
;Wall Thickness:1
;Top/Bottom Thickness:1
;Out Wall Line Width:0.2
;Inner Wall Line Width:0.2
;Inital Layer Height:150
;Wall Line Count:8
;Infill Line Distance:2.22
;Infill Pattern:grid
;Infill Sparse Density:18
;Infill Wipe Distance:0
;Print Temperature:235
;Bed Temperature:74
;Support Enable:false
;Support Density:10
;Support Angle:0
;Adhesion Type:brim
;machine is belt:false
;machine belt offset:10
;machine belt offset Y:0
;Raft Base Line Spacing:1.6
;Wait Heatup Sync:true
;----------Shell Config----------------
;Outer Wall Wipe Distance:200
;Infill Before Walls:false
;Infill Overlap:0.08
;Fill Gaps Between Walls:everywhere
;Minimum Infill Area:1
;Top Surface Skin Layer:0
;Top Layers:12
;Z Seam Alignment:sharpest_corner
;Seam Corner Preference:z_seam_corner_inner
;Z Seam X:110
;Z Seam Y:110
;Horizontal Expansion:0
;Top/Bottom Pattern:zigzag
;Ironing Pattern:zigzag
;Vase Model:false
;----------Support Config----------------
;Support Type:everywhere
;Support Pattern:zigzag
;Support Infill Layer Thickness:0.2
;Minimum Support Area:5
;Enable Support Roof:false
;Support Roof Thickness:0.8
;Support Roof Pattern:lines
;Connect Support Lines:0
;Connect Support ZigZags:1
;Minimum Support X/Y Distance:0.2
;Support Line Distance:2
; ---------PrintSpeed & Travel----------
;Enable Print Cool:true
;Avoid Printed Parts Traveling:true
;Enable Retraction:true
;Retraction Distance:8
;Retraction Speed:100
;Retraction Prime Speed:100
;Maximum Retraction Count:100
;Minimum Extrusion Distance Window:1
;Z Hop When Retracted:false
;Z Hop Height:0.2
;Retract Before Outer Wall:true
;Print Speed:32
;Infill Speed:32

;Prime Tower Speed:32
;Travel Speed:120
;Initial Layer Speed:16
;Skirt/Brim Speed:16
;Combing Mode:off
; --------SpecialModel&Mesh Fixes--------
;Union Overlapping Volum:true
;Remove All Holes:false
;Maximum Travel Resolution:0.4
;Maximum Deviation:0.05
;Maximum Model Angle:0.872665
;IS Mold Print:false
;Make Overhang Printable:false
;Enable Coasting:false
;Coasting Volumes:0.06
;Coasting Speed:0.9
;Raft AirGap:0.25
;Layer0 ZOverLap:0.13
;---------------------End of Head--------------------------
M140 S74
M105
M104 S235
M105
M109 S235
M105
M190 S74
M82 ;absolute extrusion mode
M220 S100 ;Reset Feedrate
M221 S100 ;Reset Flowrate

G28 ;Home

G92 E0 ;Reset Extruder
G1 Z2.0 F3000 ;Move Z Axis up
G1 X10.1 Y20 Z0.28 F5000.0 ;Move to start position
G1 X10.1 Y145.0 Z0.28 F1500.0 E15 ;Draw the first line
G1 X10.4 Y145.0 Z0.28 F5000.0 ;Move to side a little
G1 X10.4 Y20 Z0.28 F1500.0 E30 ;Draw the second line
G92 E0  ;Reset Extruder
G1 E-1.0000 F1800 ;Retract a bit
G1 Z2.0 F3000 ;Move Z Axis up
G1 E0.0000 F1800 

G92 E0
G92 E0
G1 F6000 E-8

;LAYER_COUNT:170

;LAYER:0
M107
G0 F3600 X45.348 Y91.355 Z0.15
;;retract;;
G0 X170.368 Y121.435
;TYPE:SKIRT
G1 F6000 E0
G1 F960 X170.536 Y121.71 E0.00442
G1 X170.51 Y121.758 E0.00517
G1 X123.13 Y169.137 E0.92446
G1 X122.988 Y169.137 E0.92641
G1 X50.863 Y97.012 E2.32583
G1 X50.863 Y96.87 E2.32778
G1 X98.262 Y49.471 E3.24745
G1 X98.404 Y49.471 E3.2494
G1 X170.368 Y121.435 E4.6457
G0 F3600 X170.509 Y121.294
G1 F960 X170.675 Y121.502 E4.64935
G1 X170.719 Y121.796 E4.65343
G1 X170.651 Y121.899 E4.65512
G1 X123.271 Y169.278 E5.57441
G1 X122.985 Y169.357 E5.57848
G1 X122.847 Y169.278 E5.58067
G1 X50.722 Y97.153 E6.98009
G1 X50.643 Y96.867 E6.98416
G1 X50.722 Y96.729 E6.98634
G1 X98.121 Y49.33 E7.90601
G1 X98.407 Y49.251 E7.91008
G1 X98.545 Y49.33 E7.91226
G1 X170.509 Y121.294 E9.30856
G0 F3600 X170.651 Y121.152
G1 F960 X170.832 Y121.378 E9.31253
G1 X170.934 Y121.755 E9.31789
G1 X170.793 Y122.041 E9.32227
G1 X123.413 Y169.42 E10.24156
G1 X123.051 Y169.566 E10.24691
G1 X122.705 Y169.42 E10.25207
G1 X50.58 Y97.295 E11.65149
G1 X50.434 Y96.933 E11.65684
G1 X50.58 Y96.587 E11.662
G1 X97.979 Y49.188 E12.58167
G1 X98.341 Y49.042 E12.58702
G1 X98.687 Y49.188 E12.59217
G1 X170.651 Y121.152 E13.98847
G0 F3600 X170.792 Y121.011
G1 F960 X170.99 Y121.255 E13.99278
G1 X171.139 Y121.695 E13.99916
G1 X171.097 Y121.927 E14.00239
G1 X170.934 Y122.182 E14.00654
G1 X123.554 Y169.561 E14.92584
G1 X123.135 Y169.762 E14.93221
G1 X122.682 Y169.656 E14.93859
G1 X122.564 Y169.561 E14.94067
G1 X50.439 Y97.436 E16.3401
G1 X50.238 Y97.017 E16.34647
G1 X50.344 Y96.564 E16.35285
G1 X50.439 Y96.446 E16.35493
G1 X97.838 Y49.047 E17.2746
G1 X98.257 Y48.846 E17.28098
G1 X98.71 Y48.952 E17.28736
G1 X98.828 Y49.047 E17.28944
G1 X170.792 Y121.011 E18.68574
G0 F3600 X170.933 Y120.87
G1 F960 X171.147 Y121.131 E18.69037
G1 X171.279 Y121.364 E18.69404
G1 X171.337 Y121.625 E18.69771
G1 X171.315 Y121.892 E18.70139
G1 X171.216 Y122.141 E18.70506
G1 X171.075 Y122.323 E18.70822
G1 X123.695 Y169.702 E19.62751
G1 X123.48 Y169.861 E19.63118
G1 X123.228 Y169.95 E19.63485
G1 X122.96 Y169.961 E19.63853
G1 X122.702 Y169.892 E19.64219
G1 X122.423 Y169.702 E19.64682
G1 X50.298 Y97.577 E21.04625
G1 X50.139 Y97.362 E21.04992
G1 X50.05 Y97.11 E21.05358
G1 X50.039 Y96.842 E21.05726
G1 X50.108 Y96.584 E21.06093
G1 X50.298 Y96.305 E21.06556
G1 X97.697 Y48.906 E21.98523
G1 X97.912 Y48.747 E21.9889
G1 X98.164 Y48.658 E21.99256
G1 X98.432 Y48.647 E21.99624
G1 X98.69 Y48.716 E21.99991
G1 X98.969 Y48.906 E22.00454
G1 X170.933 Y120.87 E23.40084
G0 F3600 X171.075 Y120.728
G1 F960 X171.304 Y121.008 E23.4058
G1 X171.454 Y121.263 E23.40986
G1 X171.53 Y121.549 E23.41392
G1 X171.528 Y121.845 E23.41798
G1 X171.446 Y122.13 E23.42205
G1 X171.217 Y122.465 E23.42762
G1 X123.837 Y169.844 E24.34691
G1 X123.601 Y170.023 E24.35097
G1 X123.326 Y170.133 E24.35504
G1 X123.032 Y170.166 E24.35909
G1 X122.74 Y170.119 E24.36315
G1 X122.471 Y169.996 E24.36721
G1 X122.281 Y169.844 E24.37055
G1 X50.156 Y97.719 E25.76997
G1 X49.977 Y97.483 E25.77403
G1 X49.867 Y97.208 E25.7781
G1 X49.834 Y96.914 E25.78216
G1 X49.881 Y96.622 E25.78621
G1 X50.004 Y96.353 E25.79027
G1 X50.156 Y96.163 E25.79361
G1 X97.555 Y48.764 E26.71328
G1 X97.791 Y48.585 E26.71735
G1 X98.066 Y48.475 E26.72141
G1 X98.36 Y48.442 E26.72547
G1 X98.652 Y48.489 E26.72953
G1 X98.921 Y48.612 E26.73358
G1 X99.111 Y48.764 E26.73692
G1 X171.075 Y120.728 E28.13322
G0 F3600 X171.216 Y120.587
G1 F960 X171.462 Y120.885 E28.13852
G1 X171.628 Y121.16 E28.14293
G1 X171.721 Y121.469 E28.14736
G1 X171.735 Y121.79 E28.15176
G1 X171.67 Y122.105 E28.15618
G1 X171.529 Y122.395 E28.1606
G1 X171.358 Y122.606 E28.16433
G1 X123.978 Y169.985 E29.08362
G1 X123.724 Y170.183 E29.08804
G1 X123.429 Y170.312 E29.09246
G1 X123.112 Y170.365 E29.09687
G1 X122.791 Y170.338 E29.10128
G1 X122.487 Y170.233 E29.1057
G1 X122.14 Y169.985 E29.11155
G1 X50.015 Y97.86 E30.51097
G1 X49.817 Y97.606 E30.51539
G1 X49.688 Y97.311 E30.51981
G1 X49.635 Y96.994 E30.52422
G1 X49.662 Y96.673 E30.52864
G1 X49.767 Y96.369 E30.53305
G1 X50.015 Y96.022 E30.5389
G1 X97.414 Y48.623 E31.45857
G1 X97.668 Y48.425 E31.46299
G1 X97.963 Y48.296 E31.46741
G1 X98.28 Y48.243 E31.47182
G1 X98.601 Y48.27 E31.47624
G1 X98.905 Y48.375 E31.48065
G1 X99.252 Y48.623 E31.4865
G1 X171.216 Y120.587 E32.8828
G0 F3600 X171.358 Y120.445
G1 F960 X171.619 Y120.761 E32.88842
G1 X171.8 Y121.056 E32.89317
G1 X171.908 Y121.384 E32.89791
G1 X171.938 Y121.729 E32.90266
G1 X171.889 Y122.071 E32.9074
G1 X171.762 Y122.393 E32.91215
G1 X171.5 Y122.748 E32.9182
G1 X124.12 Y170.127 E33.83749
G1 X123.849 Y170.341 E33.84223
G1 X123.535 Y170.488 E33.84699
G1 X123.197 Y170.56 E33.85173
G1 X122.851 Y170.552 E33.85648
G1 X122.517 Y170.465 E33.86121
G1 X122.211 Y170.303 E33.86596
G1 X121.998 Y170.127 E33.86975
G1 X49.873 Y98.002 E35.26918
G1 X49.659 Y97.731 E35.27391
G1 X49.512 Y97.417 E35.27867
G1 X49.44 Y97.079 E35.28341
G1 X49.448 Y96.733 E35.28816
G1 X49.535 Y96.399 E35.2929
G1 X49.697 Y96.093 E35.29765
G1 X49.873 Y95.88 E35.30144
G1 X97.272 Y48.481 E36.22111
G1 X97.543 Y48.267 E36.22584
G1 X97.857 Y48.12 E36.2306
G1 X98.195 Y48.048 E36.23534
G1 X98.541 Y48.056 E36.24009
G1 X98.875 Y48.143 E36.24483
G1 X99.181 Y48.305 E36.24958
G1 X99.394 Y48.481 E36.25337
G1 X171.358 Y120.445 E37.64967
G0 F3600 X171.499 Y120.304
G1 F960 X171.777 Y120.638 E37.65563
G1 X171.971 Y120.95 E37.66067
G1 X172.094 Y121.298 E37.66573
G1 X172.139 Y121.663 E37.67078
G1 X172.104 Y122.03 E37.67584
G1 X171.991 Y122.38 E37.68088
G1 X171.806 Y122.698 E37.68593
G1 X171.641 Y122.889 E37.68939
G1 X124.261 Y170.268 E38.60868
G1 X123.974 Y170.499 E38.61374
G1 X123.644 Y170.662 E38.61879
G1 X123.287 Y170.751 E38.62384
G1 X122.918 Y170.76 E38.6289
G1 X122.557 Y170.69 E38.63395
G1 X122.219 Y170.544 E38.639
G1 X121.857 Y170.268 E38.64524
G1 X49.732 Y98.143 E40.04466
G1 X49.501 Y97.856 E40.04972
G1 X49.338 Y97.526 E40.05477
G1 X49.249 Y97.169 E40.05982
G1 X49.24 Y96.8 E40.06488
G1 X49.31 Y96.439 E40.06993
G1 X49.456 Y96.101 E40.07498
G1 X49.732 Y95.739 E40.08122
G1 X97.131 Y48.34 E41.00089
G1 X97.418 Y48.109 E41.00595
G1 X97.748 Y47.946 E41.011
G1 X98.105 Y47.857 E41.01605
G1 X98.474 Y47.848 E41.02111
G1 X98.835 Y47.918 E41.02615
G1 X99.173 Y48.064 E41.03121
G1 X99.535 Y48.34 E41.03745
G1 X171.499 Y120.304 E42.43375
G0 F3600 X171.641 Y120.162
G1 F960 X171.934 Y120.514 E42.44003
G1 X172.142 Y120.844 E42.44539
G1 X172.278 Y121.208 E42.45072
G1 X172.337 Y121.593 E42.45606
G1 X172.316 Y121.982 E42.46141
G1 X172.216 Y122.358 E42.46674
G1 X172.042 Y122.707 E42.47209
G1 X171.782 Y123.031 E42.47779
G1 X124.402 Y170.41 E43.39709
G1 X124.1 Y170.655 E43.40242
G1 X123.755 Y170.834 E43.40775
G1 X123.38 Y170.939 E43.4131
G1 X122.991 Y170.965 E43.41844
G1 X122.605 Y170.911 E43.42379
G1 X122.239 Y170.78 E43.42913
G1 X121.907 Y170.577 E43.43446
G1 X121.715 Y170.41 E43.43796
G1 X49.59 Y98.285 E44.83738
G1 X49.345 Y97.982 E44.84272
G1 X49.166 Y97.637 E44.84806
G1 X49.061 Y97.262 E44.8534
G1 X49.035 Y96.873 E44.85875
G1 X49.089 Y96.487 E44.8641
G1 X49.22 Y96.121 E44.86943
G1 X49.423 Y95.789 E44.87477
G1 X49.59 Y95.597 E44.87826
G1 X96.989 Y48.198 E45.79793
G1 X97.292 Y47.953 E45.80328
G1 X97.637 Y47.774 E45.80861
G1 X98.012 Y47.669 E45.81395
G1 X98.401 Y47.643 E45.8193
G1 X98.787 Y47.697 E45.82465
G1 X99.153 Y47.828 E45.82998
G1 X99.485 Y48.031 E45.83532
G1 X99.677 Y48.198 E45.83881
G1 X171.641 Y120.162 E47.23511
G0 F3600 X171.949 Y120.21
G1 F960 X172.091 Y120.391 E47.23827
G1 X172.311 Y120.736 E47.24388
G1 X172.46 Y121.117 E47.24949
G1 X172.532 Y121.52 E47.25511
G1 X172.525 Y121.93 E47.26073
G1 X172.438 Y122.33 E47.26635
G1 X172.276 Y122.705 E47.27196
G1 X171.924 Y123.172 E47.27998
G1 X124.544 Y170.551 E48.19927
G1 X124.228 Y170.811 E48.20489
G1 X123.867 Y171.004 E48.2105
G1 X123.475 Y171.124 E48.21613
G1 X123.068 Y171.166 E48.22174
G1 X122.661 Y171.128 E48.22735
G1 X122.268 Y171.011 E48.23297
G1 X121.906 Y170.821 E48.23858
G1 X121.574 Y170.551 E48.24445
G1 X49.449 Y98.426 E49.64388
G1 X49.189 Y98.11 E49.64949
G1 X48.996 Y97.749 E49.65511
G1 X48.876 Y97.357 E49.66073
G1 X48.834 Y96.95 E49.66634
G1 X48.872 Y96.543 E49.67195
G1 X48.989 Y96.15 E49.67758
G1 X49.179 Y95.788 E49.68319
G1 X49.449 Y95.456 E49.68906
G1 X96.848 Y48.057 E50.60873
G1 X97.164 Y47.797 E50.61434
G1 X97.525 Y47.604 E50.61996
G1 X97.917 Y47.484 E50.62558
G1 X98.324 Y47.442 E50.6312
G1 X98.731 Y47.48 E50.63681
G1 X99.124 Y47.597 E50.64243
G1 X99.486 Y47.787 E50.64804
G1 X99.818 Y48.057 E50.65391
G1 X171.782 Y120.021 E52.05021
G1 X171.949 Y120.21 E52.05367
G0 F3600 X172.107 Y120.086
G1 F960 X172.249 Y120.267 E52.05683
G1 X172.481 Y120.628 E52.06271
G1 X172.642 Y121.025 E52.06859
G1 X172.726 Y121.445 E52.07447
G1 X172.731 Y121.873 E52.08034
G1 X172.657 Y122.295 E52.08622
G1 X172.506 Y122.696 E52.0921
G1 X172.283 Y123.062 E52.09798
G1 X172.065 Y123.313 E52.10254
G1 X124.685 Y170.692 E53.02183
G1 X124.355 Y170.966 E53.02772
G1 X123.981 Y171.173 E53.03358
G1 X123.574 Y171.308 E53.03946
G1 X123.149 Y171.364 E53.04535
G1 X122.721 Y171.341 E53.05123
G1 X122.305 Y171.239 E53.0571
G1 X121.915 Y171.061 E53.06298
G1 X121.433 Y170.692 E53.07131
G1 X49.308 Y98.567 E54.47073
G1 X49.034 Y98.237 E54.47662
G1 X48.827 Y97.863 E54.48248
G1 X48.692 Y97.456 E54.48837
G1 X48.636 Y97.031 E54.49425
G1 X48.659 Y96.603 E54.50013
G1 X48.761 Y96.187 E54.50601
G1 X48.939 Y95.797 E54.51189
G1 X49.308 Y95.315 E54.52022
G1 X96.707 Y47.916 E55.43989
G1 X97.037 Y47.642 E55.44577
G1 X97.411 Y47.435 E55.45164
G1 X97.818 Y47.3 E55.45752
G1 X98.243 Y47.244 E55.4634
G1 X98.671 Y47.267 E55.46928
G1 X99.087 Y47.369 E55.47516
G1 X99.477 Y47.547 E55.48104
G1 X99.959 Y47.916 E55.48937
G1 X171.923 Y119.88 E56.88567
G1 X172.107 Y120.086 E56.88945
G0 F3600 X172.264 Y119.963
G1 F960 X172.406 Y120.144 E56.89261
G1 X172.649 Y120.519 E56.89874
G1 X172.822 Y120.931 E56.90487
G1 X172.918 Y121.367 E56.911
G1 X172.936 Y121.813 E56.91712
G1 X172.873 Y122.256 E56.92326
G1 X172.733 Y122.68 E56.92939
G1 X172.52 Y123.072 E56.93551
G1 X172.207 Y123.455 E56.94229
G1 X124.827 Y170.834 E57.86159
G1 X124.484 Y171.12 E57.86771
G1 X124.095 Y171.341 E57.87385
G1 X123.674 Y171.489 E57.87997
G1 X123.233 Y171.56 E57.8861
G1 X122.786 Y171.551 E57.89224
G1 X122.348 Y171.463 E57.89837
G1 X121.933 Y171.298 E57.90449
G1 X121.554 Y171.062 E57.91062
G1 X121.291 Y170.834 E57.91539
G1 X49.166 Y98.709 E59.31482
G1 X48.88 Y98.366 E59.32094
G1 X48.659 Y97.978 E59.32707
G1 X48.511 Y97.556 E59.3332
G1 X48.44 Y97.115 E59.33933
G1 X48.449 Y96.668 E59.34547
G1 X48.537 Y96.23 E59.3516
G1 X48.702 Y95.815 E59.35772
G1 X48.938 Y95.436 E59.36385
G1 X49.166 Y95.173 E59.36862
G1 X96.565 Y47.774 E60.28829
G1 X96.908 Y47.488 E60.29442
G1 X97.296 Y47.267 E60.30055
G1 X97.718 Y47.119 E60.30668
G1 X98.159 Y47.048 E60.31281
G1 X98.606 Y47.057 E60.31895
G1 X99.044 Y47.145 E60.32508
G1 X99.459 Y47.31 E60.3312
G1 X99.838 Y47.546 E60.33733
G1 X100.101 Y47.774 E60.3421
G1 X172.065 Y119.738 E61.7384
G1 X172.264 Y119.963 E61.74252
G0 F3600 X172.421 Y119.839
G1 F960 X172.563 Y120.02 E61.74568
G1 X172.817 Y120.409 E61.75205
G1 X173.001 Y120.835 E61.75842
G1 X173.109 Y121.287 E61.7648
G1 X173.138 Y121.75 E61.77116
G1 X173.087 Y122.212 E61.77754
G1 X172.958 Y122.658 E61.78391
G1 X172.755 Y123.075 E61.79027
G1 X172.348 Y123.596 E61.79934
G1 X124.968 Y170.975 E62.71863
G1 X124.613 Y171.274 E62.725
G1 X124.212 Y171.508 E62.73137
G1 X123.776 Y171.669 E62.73775
G1 X123.32 Y171.753 E62.74411
G1 X122.855 Y171.758 E62.75049
G1 X122.397 Y171.684 E62.75685
G1 X121.958 Y171.531 E62.76323
G1 X121.552 Y171.306 E62.7696
G1 X121.15 Y170.975 E62.77675
G1 X49.025 Y98.85 E64.17617
G1 X48.726 Y98.495 E64.18254
G1 X48.492 Y98.094 E64.18891
G1 X48.331 Y97.658 E64.19528
G1 X48.247 Y97.202 E64.20164
G1 X48.242 Y96.737 E64.20802
G1 X48.316 Y96.279 E64.21439
G1 X48.469 Y95.84 E64.22077
G1 X48.694 Y95.434 E64.22714
G1 X49.025 Y95.032 E64.23428
G1 X96.424 Y47.633 E65.15395
G1 X96.779 Y47.334 E65.16032
G1 X97.18 Y47.1 E65.16669
G1 X97.616 Y46.939 E65.17306
G1 X98.072 Y46.855 E65.17943
G1 X98.537 Y46.85 E65.18581
G1 X98.995 Y46.924 E65.19217
G1 X99.434 Y47.077 E65.19855
G1 X99.84 Y47.302 E65.20492
G1 X100.242 Y47.633 E65.21206
G1 X172.206 Y119.597 E66.60836
G1 X172.421 Y119.839 E66.6128
G0 F3600 X172.579 Y119.716
G1 F960 X172.721 Y119.897 E66.61596
G1 X172.985 Y120.299 E66.62256
G1 X173.18 Y120.739 E66.62916
G1 X173.299 Y121.205 E66.63576
G1 X173.339 Y121.685 E66.64237
G1 X173.299 Y122.165 E66.64897
G1 X173.181 Y122.631 E66.65557
G1 X172.987 Y123.072 E66.66218
G1 X172.723 Y123.474 E66.66878
G1 X172.49 Y123.738 E66.67361
G1 X125.11 Y171.117 E67.5929
G1 X124.742 Y171.428 E67.59951
G1 X124.329 Y171.673 E67.6061
G1 X123.88 Y171.847 E67.61271
G1 X123.409 Y171.945 E67.61931
G1 X122.928 Y171.963 E67.62591
G1 X122.45 Y171.901 E67.63252
G1 X121.99 Y171.762 E67.63912
G1 X121.559 Y171.548 E67.64572
G1 X121.008 Y171.117 E67.65532
