;FLAVOR:Marlin
;TIME:32494
;Filament used:10.174m
;Layer height: 0.2
;MINX:79.35
;MINY:79.35
;MINZ:0.15
;MAXX:185.817
;MAXY:185.822
;MAXZ:33.95
                              
;Creality Print GCode Generated by CXEngineDEV
;Generated Time:2022-06-30 15:03:09
;----------Machine Config--------------
;Machine Name:Creality Ender-3
;Machine Height:250
;Machine Width:220
;Machine Depth:220
;Material name:Castable
;Number of Extruders:1
;ExtruderParams[0] Nozzle Diameter1000
;----------Profile Config---------------
;Layer Height:0.2
;Wall Thickness:1
;Top/Bottom Thickness:1
;Out Wall Line Width:0.2
;Inner Wall Line Width:0.2
;Inital Layer Height:150
;Wall Line Count:8
;Infill Line Distance:2.22
;Infill Pattern:grid
;Infill Sparse Density:18
;Infill Wipe Distance:0
;Print Temperature:235
;Bed Temperature:74
;Support Enable:false
;Support Density:10
;Support Angle:0
;Adhesion Type:brim
;machine is belt:false
;machine belt offset:10
;machine belt offset Y:0
;Raft Base Line Spacing:1.6
;Wait Heatup Sync:true
;----------Shell Config----------------
;Outer Wall Wipe Distance:200
;Infill Before Walls:false
;Infill Overlap:0.08
;Fill Gaps Between Walls:everywhere
;Minimum Infill Area:1
;Top Surface Skin Layer:0
;Top Layers:6
;Z Seam Alignment:sharpest_corner
;Seam Corner Preference:z_seam_corner_inner
;Z Seam X:110
;Z Seam Y:110
;Horizontal Expansion:0
;Top/Bottom Pattern:zigzag
;Ironing Pattern:zigzag
;Vase Model:false
;----------Support Config----------------
;Support Type:everywhere
;Support Pattern:zigzag
;Support Infill Layer Thickness:0.2
;Minimum Support Area:5
;Enable Support Roof:false
;Support Roof Thickness:0.8
;Support Roof Pattern:lines
;Connect Support Lines:0
;Connect Support ZigZags:1
;Minimum Support X/Y Distance:0.2
;Support Line Distance:2
; ---------PrintSpeed & Travel----------
;Enable Print Cool:true
;Avoid Printed Parts Traveling:true
;Enable Retraction:true
;Retraction Distance:8
;Retraction Speed:100
;Retraction Prime Speed:100
;Maximum Retraction Count:100
;Minimum Extrusion Distance Window:1
;Z Hop When Retracted:false
;Z Hop Height:0.2
;Retract Before Outer Wall:true
;Print Speed:32
;Infill Speed:32

;Prime Tower Speed:32
;Travel Speed:120
;Initial Layer Speed:16
;Skirt/Brim Speed:16
;Combing Mode:off
; --------SpecialModel&Mesh Fixes--------
;Union Overlapping Volum:true
;Remove All Holes:false
;Maximum Travel Resolution:0.4
;Maximum Deviation:0.05
;Maximum Model Angle:0.872665
;IS Mold Print:false
;Make Overhang Printable:false
;Enable Coasting:false
;Coasting Volumes:0.06
;Coasting Speed:0.9
;Raft AirGap:0.25
;Layer0 ZOverLap:0.13
;---------------------End of Head--------------------------
M140 S74
M105
M104 S235
M105
M109 S235
M105
M190 S74
M82 ;absolute extrusion mode
M220 S100 ;Reset Feedrate
M221 S100 ;Reset Flowrate

G28 ;Home

G92 E0 ;Reset Extruder
G1 Z2.0 F3000 ;Move Z Axis up
G1 X10.1 Y20 Z0.28 F5000.0 ;Move to start position
G1 X10.1 Y145.0 Z0.28 F1500.0 E15 ;Draw the first line
G1 X10.4 Y145.0 Z0.28 F5000.0 ;Move to side a little
G1 X10.4 Y20 Z0.28 F1500.0 E30 ;Draw the second line
G92 E0  ;Reset Extruder
G1 E-1.0000 F1800 ;Retract a bit
G1 Z2.0 F3000 ;Move Z Axis up
G1 E0.0000 F1800 

G92 E0
G92 E0
G1 F6000 E-8

;LAYER_COUNT:170

;LAYER:0
M107
G0 F3600 X81.775 Y81.555 Z0.15
;;retract;;
G0 X81.75 Y87.25
;TYPE:SKIRT
G1 F6000 E0
G1 F960 X81.79 Y86.588 E0.0091
G1 X81.909 Y85.936 E0.01819
G1 X82.106 Y85.303 E0.02729
G1 X82.378 Y84.698 E0.03639
G1 X82.72 Y84.13 E0.04548
G1 X83.129 Y83.608 E0.05458
G1 X83.597 Y83.139 E0.06367
G1 X84.118 Y82.729 E0.07277
G1 X84.685 Y82.385 E0.08187
G1 X85.289 Y82.111 E0.09097
G1 X85.922 Y81.913 E0.10007
G1 X86.573 Y81.792 E0.10915
G1 X87.25 Y81.75 E0.11846
G1 X177.923 Y81.75 E1.36247
G1 X178.585 Y81.79 E1.37157
G1 X179.237 Y81.909 E1.38067
G1 X179.87 Y82.106 E1.38976
G1 X180.475 Y82.378 E1.39886
G1 X181.043 Y82.72 E1.40796
G1 X181.565 Y83.129 E1.41706
G1 X182.035 Y83.597 E1.42616
G1 X182.444 Y84.118 E1.43524
G1 X182.788 Y84.685 E1.44434
G1 X183.062 Y85.289 E1.45344
G1 X183.26 Y85.922 E1.46254
G1 X183.381 Y86.573 E1.47163
G1 X183.423 Y87.235 E1.48073
G1 X183.385 Y87.897 E1.48983
G1 X183.267 Y88.55 E1.49893
G1 X183.072 Y89.183 E1.50802
G1 X182.802 Y89.789 E1.51712
G1 X182.461 Y90.357 E1.52621
G1 X182.054 Y90.881 E1.53531
G1 X181.812 Y91.139 E1.54016
G1 X91.14 Y181.813 E3.29947
G1 X90.644 Y182.253 E3.30857
G1 X90.098 Y182.63 E3.31767
G1 X89.511 Y182.938 E3.32676
G1 X88.892 Y183.174 E3.33585
G1 X88.248 Y183.333 E3.34495
G1 X87.59 Y183.414 E3.35405
G1 X86.927 Y183.414 E3.36315
G1 X86.269 Y183.336 E3.37224
G1 X85.625 Y183.178 E3.38133
G1 X85.004 Y182.944 E3.39044
G1 X84.416 Y182.637 E3.39954
G1 X83.87 Y182.262 E3.40863
G1 X83.372 Y181.824 E3.41773
G1 X82.931 Y181.329 E3.42682
G1 X82.553 Y180.784 E3.43592
G1 X82.243 Y180.198 E3.44502
G1 X82.006 Y179.579 E3.45411
G1 X81.845 Y178.936 E3.4632
G1 X81.762 Y178.278 E3.4723
G1 X81.751 Y177.924 E3.47716
G1 X81.75 Y87.25 E4.72119
G0 F3600 X81.95 Y87.25
G1 F960 X81.99 Y86.6 E4.73013
G1 X82.109 Y85.961 E4.73904
G1 X82.306 Y85.34 E4.74798
G1 X82.577 Y84.749 E4.7569
G1 X82.919 Y84.195 E4.76584
G1 X83.326 Y83.687 E4.77477
G1 X83.793 Y83.233 E4.7837
G1 X84.311 Y82.839 E4.79263
G1 X84.874 Y82.513 E4.80156
G1 X85.472 Y82.257 E4.81048
G1 X86.098 Y82.077 E4.81942
G1 X86.741 Y81.975 E4.82835
G1 X87.25 Y81.95 E4.83534
G1 X177.923 Y81.95 E6.07936
G1 X178.573 Y81.99 E6.08829
G1 X179.212 Y82.109 E6.09721
G1 X179.833 Y82.306 E6.10615
G1 X180.424 Y82.577 E6.11507
G1 X180.978 Y82.919 E6.124
G1 X181.486 Y83.326 E6.13293
G1 X181.94 Y83.793 E6.14187
G1 X182.334 Y84.311 E6.1508
G1 X182.661 Y84.874 E6.15973
G1 X182.916 Y85.472 E6.16865
G1 X183.096 Y86.098 E6.17759
G1 X183.198 Y86.741 E6.18652
G1 X183.221 Y87.391 E6.19544
G1 X183.164 Y88.039 E6.20437
G1 X183.028 Y88.676 E6.2133
G1 X182.814 Y89.291 E6.22224
G1 X182.527 Y89.875 E6.23116
G1 X182.171 Y90.419 E6.24008
G1 X181.671 Y90.998 E6.25058
G1 X90.999 Y181.672 E8.00988
G1 X90.511 Y182.103 E8.01882
G1 X89.974 Y182.471 E8.02775
G1 X89.397 Y182.77 E8.03666
G1 X88.786 Y182.997 E8.04561
G1 X88.153 Y183.147 E8.05453
G1 X87.506 Y183.218 E8.06346
G1 X86.855 Y183.209 E8.07239
G1 X86.21 Y183.121 E8.08133
G1 X85.581 Y182.954 E8.09025
G1 X84.977 Y182.712 E8.09918
G1 X84.408 Y182.397 E8.1081
G1 X83.881 Y182.015 E8.11703
G1 X83.405 Y181.571 E8.12597
G1 X82.987 Y181.072 E8.1349
G1 X82.633 Y180.525 E8.14384
G1 X82.349 Y179.94 E8.15276
G1 X82.139 Y179.324 E8.16169
G1 X82.006 Y178.687 E8.17061
G1 X81.951 Y177.924 E8.18111
G1 X81.95 Y87.25 E9.42514
G0 F3600 X82.15 Y87.25
G1 F960 X82.19 Y86.613 E9.4339
G1 X82.309 Y85.986 E9.44265
G1 X82.506 Y85.378 E9.45142
G1 X82.777 Y84.8 E9.46018
G1 X83.118 Y84.261 E9.46893
G1 X83.524 Y83.768 E9.47769
G1 X83.988 Y83.329 E9.48646
G1 X84.504 Y82.953 E9.49522
G1 X85.062 Y82.643 E9.50397
G1 X85.655 Y82.406 E9.51273
G1 X86.272 Y82.245 E9.52148
G1 X86.905 Y82.162 E9.53024
G1 X87.25 Y82.15 E9.53498
G1 X177.923 Y82.15 E10.77899
G1 X178.56 Y82.19 E10.78775
G1 X179.187 Y82.309 E10.79651
G1 X179.795 Y82.506 E10.80528
G1 X180.373 Y82.777 E10.81403
G1 X180.912 Y83.118 E10.82278
G1 X181.405 Y83.524 E10.83155
G1 X181.844 Y83.988 E10.84031
G1 X182.22 Y84.504 E10.84907
G1 X182.53 Y85.062 E10.85783
G1 X182.767 Y85.655 E10.86659
G1 X182.928 Y86.272 E10.87534
G1 X183.011 Y86.905 E10.8841
G1 X183.015 Y87.544 E10.89286
G1 X182.938 Y88.178 E10.90163
G1 X182.783 Y88.797 E10.91038
G1 X182.551 Y89.392 E10.91914
G1 X182.247 Y89.953 E10.9279
G1 X181.876 Y90.473 E10.93666
G1 X181.529 Y90.856 E10.94375
G1 X90.857 Y181.53 E12.70306
G1 X90.378 Y181.953 E12.71182
G1 X89.851 Y182.312 E12.72057
G1 X89.282 Y182.602 E12.72933
G1 X88.682 Y182.819 E12.73809
G1 X88.059 Y182.96 E12.74685
G1 X87.423 Y183.021 E12.75562
G1 X86.785 Y183.003 E12.76437
G1 X86.154 Y182.905 E12.77313
G1 X85.541 Y182.729 E12.78188
G1 X84.954 Y182.477 E12.79065
G1 X84.403 Y182.155 E12.7994
G1 X83.897 Y181.766 E12.80816
G1 X83.443 Y181.316 E12.81693
G1 X83.049 Y180.814 E12.82569
G1 X82.721 Y180.267 E12.83444
G1 X82.464 Y179.682 E12.8432
G1 X82.281 Y179.07 E12.85197
G1 X82.177 Y178.44 E12.86073
G1 X82.151 Y177.924 E12.86782
G1 X82.15 Y87.25 E14.11185
G0 F3600 X82.35 Y87.25
G1 F960 X82.39 Y86.626 E14.12042
G1 X82.509 Y86.011 E14.12902
G1 X82.706 Y85.417 E14.13761
G1 X82.976 Y84.853 E14.14618
G1 X83.317 Y84.328 E14.15477
G1 X83.721 Y83.85 E14.16336
G1 X84.183 Y83.428 E14.17194
G1 X84.695 Y83.069 E14.18052
G1 X85.249 Y82.777 E14.18912
G1 X85.836 Y82.559 E14.19771
G1 X86.445 Y82.417 E14.20629
G1 X87.25 Y82.35 E14.21737
G1 X177.923 Y82.35 E15.46138
G1 X178.548 Y82.39 E15.46998
G1 X179.162 Y82.509 E15.47856
G1 X179.756 Y82.706 E15.48714
G1 X180.32 Y82.976 E15.49572
G1 X180.845 Y83.317 E15.50431
G1 X181.323 Y83.721 E15.5129
G1 X181.745 Y84.183 E15.52148
G1 X182.104 Y84.695 E15.53006
G1 X182.396 Y85.249 E15.53865
G1 X182.614 Y85.836 E15.54725
G1 X182.756 Y86.445 E15.55582
G1 X182.82 Y87.068 E15.56442
G1 X182.803 Y87.693 E15.573
G1 X182.707 Y88.311 E15.58158
G1 X182.532 Y88.913 E15.59018
G1 X182.283 Y89.486 E15.59875
G1 X181.962 Y90.024 E15.60734
G1 X181.388 Y90.715 E15.61967
G1 X90.716 Y181.389 E17.37897
G1 X90.246 Y181.802 E17.38756
G1 X89.727 Y182.152 E17.39615
G1 X89.168 Y182.433 E17.40473
G1 X88.578 Y182.641 E17.41331
G1 X87.966 Y182.772 E17.4219
G1 X87.342 Y182.823 E17.43049
G1 X86.717 Y182.795 E17.43907
G1 X86.101 Y182.687 E17.44765
G1 X85.503 Y182.502 E17.45624
G1 X84.934 Y182.242 E17.46482
G1 X84.402 Y181.911 E17.47342
G1 X83.918 Y181.515 E17.482
G1 X83.487 Y181.061 E17.49059
G1 X83.118 Y180.556 E17.49917
G1 X82.816 Y180.008 E17.50775
G1 X82.587 Y179.426 E17.51633
G1 X82.433 Y178.819 E17.52493
G1 X82.351 Y177.924 E17.53726
G1 X82.35 Y87.25 E18.78129
G0 F3600 X82.55 Y87.25
G1 F960 X82.59 Y86.638 E18.7897
G1 X82.709 Y86.037 E18.79811
G1 X82.906 Y85.457 E18.80651
G1 X83.176 Y84.907 E18.81492
G1 X83.515 Y84.397 E18.82332
G1 X83.918 Y83.935 E18.83173
G1 X84.378 Y83.53 E18.84014
G1 X84.887 Y83.187 E18.84856
G1 X85.435 Y82.914 E18.85696
G1 X86.015 Y82.715 E18.86537
G1 X86.615 Y82.593 E18.87377
G1 X87.25 Y82.55 E18.8825
G1 X177.923 Y82.55 E20.12652
G1 X178.535 Y82.59 E20.13494
G1 X179.136 Y82.709 E20.14334
G1 X179.716 Y82.906 E20.15174
G1 X180.266 Y83.176 E20.16015
G1 X180.777 Y83.515 E20.16856
G1 X181.238 Y83.918 E20.17696
G1 X181.644 Y84.378 E20.18538
G1 X181.986 Y84.887 E20.1938
G1 X182.259 Y85.435 E20.2022
G1 X182.458 Y86.015 E20.21061
G1 X182.58 Y86.615 E20.21901
G1 X182.623 Y87.227 E20.22743
G1 X182.586 Y87.839 E20.23584
G1 X182.47 Y88.44 E20.24424
G1 X182.276 Y89.022 E20.25265
G1 X182.009 Y89.573 E20.26105
G1 X181.672 Y90.085 E20.26946
G1 X181.246 Y90.573 E20.27835
G1 X90.574 Y181.247 E22.03765
G1 X90.114 Y181.652 E22.04606
G1 X89.604 Y181.992 E22.05447
G1 X89.055 Y182.264 E22.06288
G1 X88.475 Y182.462 E22.07129
G1 X87.874 Y182.583 E22.0797
G1 X87.263 Y182.624 E22.0881
G1 X86.651 Y182.586 E22.09651
G1 X86.05 Y182.468 E22.10492
G1 X85.469 Y182.273 E22.11332
G1 X84.918 Y182.004 E22.12174
G1 X84.407 Y181.666 E22.13014
G1 X83.944 Y181.264 E22.13855
G1 X83.538 Y180.805 E22.14696
G1 X83.194 Y180.297 E22.15538
G1 X82.92 Y179.749 E22.16378
G1 X82.719 Y179.17 E22.17219
G1 X82.596 Y178.57 E22.1806
G1 X82.551 Y177.924 E22.18948
G1 X82.55 Y87.25 E23.43351
G0 F3600 X82.75 Y87.25
G1 F960 X82.79 Y86.652 E23.44173
G1 X82.909 Y86.064 E23.44996
G1 X83.105 Y85.497 E23.45819
G1 X83.375 Y84.962 E23.46642
G1 X83.714 Y84.467 E23.47465
G1 X84.115 Y84.021 E23.48288
G1 X84.572 Y83.633 E23.4911
G1 X85.077 Y83.309 E23.49933
G1 X85.62 Y83.055 E23.50756
G1 X86.192 Y82.876 E23.51578
G1 X86.783 Y82.774 E23.52401
G1 X87.25 Y82.75 E23.53043
G1 X177.923 Y82.75 E24.77444
G1 X178.521 Y82.79 E24.78266
G1 X179.109 Y82.909 E24.79089
G1 X179.676 Y83.105 E24.79913
G1 X180.211 Y83.375 E24.80735
G1 X180.706 Y83.714 E24.81558
G1 X181.152 Y84.115 E24.82381
G1 X181.54 Y84.572 E24.83203
G1 X181.864 Y85.077 E24.84026
G1 X182.118 Y85.62 E24.84849
G1 X182.297 Y86.193 E24.85672
G1 X182.399 Y86.783 E24.86494
G1 X182.421 Y87.383 E24.87318
G1 X182.363 Y87.98 E24.88141
G1 X182.227 Y88.564 E24.88963
G1 X182.014 Y89.124 E24.89785
G1 X181.729 Y89.652 E24.90609
G1 X181.376 Y90.136 E24.9143
G1 X181.105 Y90.432 E24.91981
G1 X90.433 Y181.106 E26.67911
G1 X89.982 Y181.501 E26.68734
G1 X89.482 Y181.832 E26.69557
G1 X88.942 Y182.094 E26.7038
G1 X88.373 Y182.282 E26.71202
G1 X87.784 Y182.392 E26.72024
G1 X87.185 Y182.424 E26.72847
G1 X86.587 Y182.375 E26.73671
G1 X86.001 Y182.247 E26.74493
G1 X85.437 Y182.042 E26.75317
G1 X84.906 Y181.765 E26.76138
G1 X84.416 Y181.419 E26.76961
G1 X83.977 Y181.011 E26.77784
G1 X83.595 Y180.548 E26.78607
G1 X83.279 Y180.039 E26.79429
G1 X83.033 Y179.492 E26.80252
G1 X82.862 Y178.917 E26.81075
G1 X82.769 Y178.325 E26.81897
G1 X82.751 Y177.924 E26.82448
G1 X82.75 Y87.25 E28.06851
G0 F3600 X82.95 Y87.25
G1 F960 X82.99 Y86.665 E28.07655
G1 X83.109 Y86.091 E28.0846
G1 X83.305 Y85.539 E28.09263
G1 X83.574 Y85.018 E28.10068
G1 X83.912 Y84.539 E28.10872
G1 X84.312 Y84.11 E28.11677
G1 X84.766 Y83.74 E28.1248
G1 X85.267 Y83.435 E28.13285
G1 X85.804 Y83.2 E28.14089
G1 X86.368 Y83.041 E28.14893
G1 X86.949 Y82.961 E28.15698
G1 X87.25 Y82.95 E28.16111
G1 X177.923 Y82.95 E29.40513
G1 X178.508 Y82.99 E29.41317
G1 X179.082 Y83.109 E29.42122
G1 X179.634 Y83.305 E29.42925
G1 X180.155 Y83.575 E29.4373
G1 X180.634 Y83.912 E29.44534
G1 X181.063 Y84.312 E29.45339
G1 X181.433 Y84.766 E29.46142
G1 X181.738 Y85.267 E29.46947
G1 X181.973 Y85.804 E29.47751
G1 X182.132 Y86.368 E29.48555
G1 X182.212 Y86.949 E29.4936
G1 X182.214 Y87.535 E29.50164
G1 X182.135 Y88.116 E29.50968
G1 X181.978 Y88.681 E29.51773
G1 X181.746 Y89.219 E29.52576
G1 X181.443 Y89.72 E29.5338
G1 X180.964 Y90.291 E29.54402
G1 X90.292 Y180.965 E31.30333
G1 X89.85 Y181.35 E31.31137
G1 X89.36 Y181.671 E31.31941
G1 X88.831 Y181.923 E31.32744
G1 X88.272 Y182.101 E31.33549
G1 X87.694 Y182.201 E31.34354
G1 X87.109 Y182.222 E31.35157
G1 X86.525 Y182.162 E31.35963
G1 X85.956 Y182.024 E31.36766
G1 X85.41 Y181.81 E31.37571
G1 X84.899 Y181.524 E31.38374
G1 X84.431 Y181.17 E31.39179
G1 X84.016 Y180.756 E31.39983
G1 X83.661 Y180.29 E31.40787
G1 X83.372 Y179.78 E31.41591
G1 X83.156 Y179.235 E31.42396
G1 X83.015 Y178.666 E31.432
G1 X82.951 Y177.924 E31.44222
G1 X82.95 Y87.25 E32.68625
G0 F3600 X83.15 Y87.25
G1 F960 X83.19 Y86.679 E32.6941
G1 X83.309 Y86.119 E32.70195
G1 X83.505 Y85.581 E32.70981
G1 X83.774 Y85.076 E32.71766
G1 X84.11 Y84.613 E32.72551
G1 X84.508 Y84.202 E32.73336
G1 X84.959 Y83.85 E32.74121
G1 X85.455 Y83.564 E32.74906
G1 X85.986 Y83.35 E32.75692
G1 X86.542 Y83.212 E32.76478
G1 X87.25 Y83.15 E32.77453
G1 X177.923 Y83.15 E34.01854
G1 X178.494 Y83.19 E34.0264
G1 X179.054 Y83.309 E34.03425
G1 X179.592 Y83.505 E34.04211
G1 X180.097 Y83.774 E34.04996
G1 X180.56 Y84.11 E34.05781
G1 X180.971 Y84.508 E34.06566
G1 X181.323 Y84.959 E34.07351
G1 X181.609 Y85.455 E34.08136
G1 X181.823 Y85.986 E34.08922
G1 X181.961 Y86.542 E34.09707
G1 X182.021 Y87.111 E34.10492
G1 X182 Y87.683 E34.11278
G1 X181.9 Y88.246 E34.12062
G1 X181.723 Y88.791 E34.12848
G1 X181.471 Y89.305 E34.13634
G1 X181.15 Y89.779 E34.14419
G1 X180.822 Y90.149 E34.15098
G1 X90.15 Y180.823 E35.91028
G1 X89.718 Y181.199 E35.91814
G1 X89.238 Y181.51 E35.92599
G1 X88.719 Y181.752 E35.93384
G1 X88.172 Y181.919 E35.94169
G1 X87.607 Y182.009 E35.94954
G1 X87.034 Y182.018 E35.9574
G1 X86.466 Y181.948 E35.96525
G1 X85.913 Y181.8 E35.97311
G1 X85.387 Y181.576 E35.98095
G1 X84.896 Y181.28 E35.98882
G1 X84.452 Y180.92 E35.99666
G1 X84.062 Y180.501 E36.00451
G1 X83.734 Y180.032 E36.01236
G1 X83.475 Y179.521 E36.02022
G1 X83.289 Y178.98 E36.02807
G1 X83.181 Y178.418 E36.03592
G1 X83.151 Y177.924 E36.04271
G1 X83.15 Y87.25 E37.28674
G0 F3600 X83.35 Y87.25
G1 F960 X83.39 Y86.693 E37.29441
G1 X83.509 Y86.148 E37.30206
G1 X83.705 Y85.625 E37.30972
G1 X83.973 Y85.136 E37.31737
G1 X84.308 Y84.689 E37.32504
G1 X84.704 Y84.296 E37.33269
G1 X85.152 Y83.962 E37.34036
G1 X85.643 Y83.697 E37.34801
G1 X86.166 Y83.504 E37.35566
G1 X86.712 Y83.387 E37.36332
G1 X87.25 Y83.35 E37.37072
G1 X177.923 Y83.35 E38.61474
G1 X178.48 Y83.39 E38.6224
G1 X179.025 Y83.509 E38.63005
G1 X179.548 Y83.705 E38.63771
