;FLAVOR:Marlin
;TIME:16262
;Filament used:3.30743m
;Layer height: 0.18
;MINX:74.3
;MINY:74.3
;MINZ:0.18
;MAXX:145.7
;MAXY:145.7
;MAXZ:24.84
                                   
;Creality Print GCode Generated by CXEngineDEV
;Generated Time:2022-06-30 15:03:09
;----------Machine Config--------------
;Machine Name:Creality Ender-3
;Machine Height:250
;Machine Width:220
;Machine Depth:220
;Material name:Castable
;Number of Extruders:1
;ExtruderParams[0] Nozzle Diameter1000
;----------Profile Config---------------
;Layer Height:0.18
;Wall Thickness:0.9
;Top/Bottom Thickness:0.54
;Out Wall Line Width:0.18
;Inner Wall Line Width:0.18
;Inital Layer Height:180
;Wall Line Count:5
;Infill Line Distance:2.16
;Infill Pattern:triangles
;Infill Sparse Density:25
;Infill Wipe Distance:0
;Print Temperature:222
;Bed Temperature:58
;Support Enable:false
;Support Density:10
;Support Angle:0.349066
;Adhesion Type:brim
;machine is belt:false
;machine belt offset:10
;machine belt offset Y:0
;Raft Base Line Spacing:1.6
;Wait Heatup Sync:true
;----------Shell Config----------------
;Outer Wall Wipe Distance:200
;Infill Before Walls:false
;Infill Overlap:0.07
;Fill Gaps Between Walls:nowhere
;Minimum Infill Area:1
;Top Surface Skin Layer:0
;Top Layers:7
;Z Seam Alignment:sharpest_corner
;Seam Corner Preference:z_seam_corner_inner
;Z Seam X:110
;Z Seam Y:110
;Horizontal Expansion:0
;Top/Bottom Pattern:zigzag
;Ironing Pattern:zigzag
;Vase Model:false
;----------Support Config----------------
;Support Type:everywhere
;Support Pattern:lines
;Support Infill Layer Thickness:0.18
;Minimum Support Area:5
;Enable Support Roof:false
;Support Roof Thickness:0.8
;Support Roof Pattern:lines
;Connect Support Lines:0
;Connect Support ZigZags:1
;Minimum Support X/Y Distance:0.2
;Support Line Distance:1.8
; ---------PrintSpeed & Travel----------
;Enable Print Cool:true
;Avoid Printed Parts Traveling:true
;Enable Retraction:true
;Retraction Distance:8
;Retraction Speed:100
;Retraction Prime Speed:100
;Maximum Retraction Count:100
;Minimum Extrusion Distance Window:1
;Z Hop When Retracted:false
;Z Hop Height:0.2
;Retract Before Outer Wall:true
;Print Speed:32
;Infill Speed:32

;Prime Tower Speed:32
;Travel Speed:120
;Initial Layer Speed:16
;Skirt/Brim Speed:16
;Combing Mode:off
; --------SpecialModel&Mesh Fixes--------
;Union Overlapping Volum:true
;Remove All Holes:false
;Maximum Travel Resolution:0.36
;Maximum Deviation:0.05
;Maximum Model Angle:0.872665
;IS Mold Print:false
;Make Overhang Printable:false
;Enable Coasting:false
;Coasting Volumes:0.06
;Coasting Speed:0.9
;Raft AirGap:0.25
;Layer0 ZOverLap:0.13
;---------------------End of Head--------------------------
M140 S58
M105
M104 S222
M105
M109 S222
M105
M190 S58
M82 ;absolute extrusion mode
M220 S100 ;Reset Feedrate
M221 S100 ;Reset Flowrate

G28 ;Home

G92 E0 ;Reset Extruder
G1 Z2.0 F3000 ;Move Z Axis up
G1 X10.1 Y20 Z0.28 F5000.0 ;Move to start position
G1 X10.1 Y145.0 Z0.28 F1500.0 E15 ;Draw the first line
G1 X10.4 Y145.0 Z0.28 F5000.0 ;Move to side a little
G1 X10.4 Y20 Z0.28 F1500.0 E30 ;Draw the second line
G92 E0  ;Reset Extruder
G1 E-1.0000 F1800 ;Retract a bit
G1 Z2.0 F3000 ;Move Z Axis up
G1 E0.0000 F1800 

G92 E0
G92 E0
G1 F6000 E-8

;LAYER_COUNT:138

;LAYER:0
M107
G0 F3600 X99.818 Y78.105 Z0.18
;TYPE:SKIRT
G1 F6000 E0
G1 F960 X100.444 Y77.424 E0.01523
G1 X101.127 Y76.8 E0.03046
G1 X101.861 Y76.237 E0.04569
G1 X102.64 Y75.739 E0.06091
G1 X103.46 Y75.311 E0.07614
G1 X104.314 Y74.955 E0.09137
G1 X105.195 Y74.674 E0.1066
G1 X106.098 Y74.47 E0.12184
G1 X107.014 Y74.346 E0.13706
G1 X108 Y74.3 E0.15331
G1 X112 Y74.3 E0.21916
G1 X112.924 Y74.34 E0.23439
G1 X113.841 Y74.46 E0.24962
G1 X114.745 Y74.658 E0.26485
G1 X115.628 Y74.934 E0.28008
G1 X116.484 Y75.285 E0.29532
G1 X117.306 Y75.708 E0.31054
G1 X118.089 Y76.201 E0.32577
G1 X118.826 Y76.76 E0.341
G1 X119.512 Y77.38 E0.35622
G1 X120.142 Y78.057 E0.37145
G1 X120.711 Y78.787 E0.38669
G1 X121.215 Y79.562 E0.40191
G1 X121.65 Y80.378 E0.41713
G1 X122.014 Y81.229 E0.43237
G1 X122.302 Y82.108 E0.4476
G1 X122.513 Y83.009 E0.46283
G1 X122.652 Y83.985 E0.47906
G1 X123.814 Y96.186 E0.68085
G1 X136.015 Y97.348 E0.88263
G1 X136.931 Y97.476 E0.89786
G1 X137.833 Y97.682 E0.91309
G1 X138.713 Y97.965 E0.92831
G1 X139.566 Y98.323 E0.94354
G1 X140.385 Y98.754 E0.95878
G1 X141.163 Y99.253 E0.97399
G1 X141.896 Y99.818 E0.98923
G1 X142.577 Y100.444 E1.00446
G1 X143.201 Y101.127 E1.01969
G1 X143.764 Y101.861 E1.03492
G1 X144.261 Y102.641 E1.05015
G1 X144.689 Y103.461 E1.06538
G1 X145.045 Y104.315 E1.08061
G1 X145.326 Y105.196 E1.09583
G1 X145.53 Y106.098 E1.11106
G1 X145.655 Y107.015 E1.12629
G1 X145.7 Y108 E1.14253
G1 X145.7 Y112 E1.20838
G1 X145.66 Y112.924 E1.22361
G1 X145.54 Y113.841 E1.23884
G1 X145.342 Y114.745 E1.25407
G1 X145.066 Y115.628 E1.2693
G1 X144.715 Y116.484 E1.28454
G1 X144.292 Y117.306 E1.29976
G1 X143.799 Y118.089 E1.31499
G1 X143.24 Y118.826 E1.33022
G1 X142.62 Y119.512 E1.34544
G1 X141.943 Y120.142 E1.36067
G1 X141.213 Y120.711 E1.37591
G1 X140.438 Y121.215 E1.39113
G1 X139.622 Y121.65 E1.40635
G1 X138.771 Y122.014 E1.42159
G1 X137.892 Y122.302 E1.43682
G1 X136.991 Y122.513 E1.45205
G1 X136.014 Y122.652 E1.4683
G1 X123.814 Y123.814 E1.67007
G1 X122.652 Y136.015 E1.87185
G1 X122.524 Y136.931 E1.88708
G1 X122.318 Y137.832 E1.90229
G1 X122.035 Y138.713 E1.91753
G1 X121.677 Y139.566 E1.93276
G1 X121.246 Y140.385 E1.948
G1 X120.747 Y141.163 E1.96321
G1 X120.182 Y141.895 E1.97844
G1 X119.556 Y142.576 E1.99367
G1 X118.873 Y143.201 E2.00891
G1 X118.139 Y143.764 E2.02414
G1 X117.359 Y144.261 E2.03936
G1 X116.54 Y144.689 E2.05458
G1 X115.686 Y145.045 E2.06981
G1 X114.804 Y145.326 E2.08505
G1 X113.902 Y145.53 E2.10028
G1 X112.986 Y145.655 E2.1155
G1 X112 Y145.7 E2.13175
G1 X108 Y145.7 E2.1976
G1 X107.076 Y145.66 E2.21283
G1 X106.159 Y145.54 E2.22806
G1 X105.255 Y145.342 E2.24329
G1 X104.372 Y145.066 E2.25852
G1 X103.516 Y144.715 E2.27375
G1 X102.694 Y144.292 E2.28897
G1 X101.911 Y143.799 E2.30421
G1 X101.174 Y143.24 E2.31944
G1 X100.488 Y142.62 E2.33466
G1 X99.858 Y141.943 E2.34989
G1 X99.289 Y141.213 E2.36512
G1 X98.785 Y140.438 E2.38034
G1 X98.35 Y139.622 E2.39557
G1 X97.986 Y138.771 E2.41081
G1 X97.698 Y137.892 E2.42604
G1 X97.487 Y136.991 E2.44127
G1 X97.348 Y136.014 E2.45752
G1 X96.186 Y123.814 E2.65928
G1 X83.985 Y122.652 E2.86107
G1 X83.069 Y122.524 E2.8763
G1 X82.167 Y122.318 E2.89153
G1 X81.287 Y122.035 E2.90675
G1 X80.434 Y121.677 E2.92198
G1 X79.615 Y121.246 E2.93721
G1 X78.837 Y120.747 E2.95243
G1 X78.104 Y120.182 E2.96767
G1 X77.423 Y119.556 E2.9829
G1 X76.799 Y118.873 E2.99813
G1 X76.236 Y118.139 E3.01336
G1 X75.739 Y117.359 E3.02859
G1 X75.311 Y116.539 E3.04381
G1 X74.955 Y115.685 E3.05905
G1 X74.674 Y114.804 E3.07427
G1 X74.47 Y113.902 E3.0895
G1 X74.345 Y112.985 E3.10473
G1 X74.3 Y112 E3.12097
G1 X74.3 Y108 E3.18682
G1 X74.34 Y107.076 E3.20205
G1 X74.46 Y106.159 E3.21728
G1 X74.658 Y105.255 E3.23251
G1 X74.934 Y104.372 E3.24774
G1 X75.285 Y103.516 E3.26297
G1 X75.708 Y102.694 E3.27819
G1 X76.201 Y101.911 E3.29343
G1 X76.76 Y101.174 E3.30866
G1 X77.38 Y100.488 E3.32388
G1 X78.057 Y99.858 E3.33911
G1 X78.787 Y99.289 E3.35434
G1 X79.562 Y98.785 E3.36956
G1 X80.378 Y98.35 E3.38479
G1 X81.229 Y97.986 E3.40003
G1 X82.108 Y97.698 E3.41526
G1 X83.009 Y97.487 E3.43049
G1 X83.985 Y97.348 E3.44672
G1 X96.186 Y96.185 E3.64851
G1 X97.348 Y83.986 E3.85026
G1 X97.476 Y83.069 E3.8655
G1 X97.682 Y82.168 E3.88072
G1 X97.965 Y81.287 E3.89595
G1 X98.323 Y80.434 E3.91118
G1 X98.753 Y79.616 E3.9264
G1 X99.253 Y78.837 E3.94164
G1 X99.818 Y78.105 E3.95686
G0 F3600 X100.01 Y78.188
G1 F960 X100.634 Y77.517 E3.97195
G1 X101.315 Y76.903 E3.98704
G1 X102.046 Y76.351 E4.00212
G1 X102.823 Y75.865 E4.01721
G1 X103.639 Y75.449 E4.03229
G1 X104.488 Y75.105 E4.04737
G1 X105.364 Y74.836 E4.06246
G1 X106.26 Y74.645 E4.07754
G1 X107.17 Y74.533 E4.09264
G1 X108 Y74.5 E4.10631
G1 X112 Y74.5 E4.17217
G1 X112.915 Y74.54 E4.18725
G1 X113.824 Y74.66 E4.20234
G1 X114.718 Y74.858 E4.21742
G1 X115.592 Y75.134 E4.23251
G1 X116.439 Y75.484 E4.2476
G1 X117.252 Y75.908 E4.26269
G1 X118.024 Y76.4 E4.27776
G1 X118.751 Y76.958 E4.29285
G1 X119.426 Y77.577 E4.30793
G1 X120.045 Y78.253 E4.32302
G1 X120.603 Y78.98 E4.33811
G1 X121.095 Y79.753 E4.3532
G1 X121.518 Y80.566 E4.36828
G1 X121.868 Y81.413 E4.38337
G1 X122.143 Y82.287 E4.39846
G1 X122.341 Y83.181 E4.41353
G1 X122.453 Y84.004 E4.42721
G1 X123.631 Y96.369 E4.6317
G1 X135.996 Y97.547 E4.8362
G1 X136.903 Y97.674 E4.85128
G1 X137.796 Y97.879 E4.86636
G1 X138.668 Y98.162 E4.88146
G1 X139.512 Y98.519 E4.89654
G1 X140.321 Y98.948 E4.91162
G1 X141.09 Y99.447 E4.92671
G1 X141.813 Y100.01 E4.9418
G1 X142.483 Y100.635 E4.95688
G1 X143.097 Y101.315 E4.97197
G1 X143.649 Y102.046 E4.98705
G1 X144.135 Y102.823 E5.00214
G1 X144.552 Y103.639 E5.01722
G1 X144.895 Y104.489 E5.03231
G1 X145.164 Y105.365 E5.0474
G1 X145.355 Y106.261 E5.06248
G1 X145.467 Y107.17 E5.07756
G1 X145.5 Y108 E5.09124
G1 X145.5 Y112 E5.15709
G1 X145.46 Y112.915 E5.17217
G1 X145.34 Y113.824 E5.18727
G1 X145.142 Y114.718 E5.20234
G1 X144.866 Y115.592 E5.21743
G1 X144.516 Y116.439 E5.23252
G1 X144.092 Y117.252 E5.24762
G1 X143.6 Y118.024 E5.26269
G1 X143.042 Y118.751 E5.27778
G1 X142.423 Y119.426 E5.29286
G1 X141.747 Y120.045 E5.30795
G1 X141.02 Y120.603 E5.32303
G1 X140.247 Y121.095 E5.33812
G1 X139.434 Y121.518 E5.35321
G1 X138.587 Y121.868 E5.3683
G1 X137.713 Y122.143 E5.38338
G1 X136.819 Y122.341 E5.39846
G1 X135.995 Y122.453 E5.41215
G1 X123.631 Y123.63 E5.61663
G1 X122.453 Y135.996 E5.82114
G1 X122.326 Y136.903 E5.83622
G1 X122.121 Y137.796 E5.8513
G1 X121.839 Y138.668 E5.86639
G1 X121.481 Y139.512 E5.88148
G1 X121.052 Y140.321 E5.89656
G1 X120.554 Y141.09 E5.91164
G1 X119.99 Y141.812 E5.92673
G1 X119.366 Y142.483 E5.94181
G1 X118.685 Y143.097 E5.95691
G1 X117.954 Y143.649 E5.97199
G1 X117.177 Y144.135 E5.98708
G1 X116.361 Y144.552 E6.00217
G1 X115.512 Y144.895 E6.01724
G1 X114.636 Y145.164 E6.03233
G1 X113.739 Y145.355 E6.04743
G1 X112.83 Y145.467 E6.06251
G1 X112 Y145.5 E6.07618
G1 X108 Y145.5 E6.14204
G1 X107.085 Y145.46 E6.15712
G1 X106.176 Y145.34 E6.17221
G1 X105.282 Y145.142 E6.18729
G1 X104.408 Y144.866 E6.20238
G1 X103.561 Y144.516 E6.21746
G1 X102.748 Y144.092 E6.23256
G1 X101.976 Y143.6 E6.24763
G1 X101.249 Y143.042 E6.26272
G1 X100.574 Y142.423 E6.2778
G1 X99.955 Y141.747 E6.29289
G1 X99.397 Y141.02 E6.30798
G1 X98.905 Y140.247 E6.32306
G1 X98.482 Y139.434 E6.33815
G1 X98.132 Y138.587 E6.35324
G1 X97.857 Y137.713 E6.36832
G1 X97.659 Y136.819 E6.3834
G1 X97.547 Y135.995 E6.39709
G1 X96.369 Y123.631 E6.60157
G1 X84.004 Y122.453 E6.80607
G1 X83.097 Y122.326 E6.82115
G1 X82.204 Y122.121 E6.83623
G1 X81.332 Y121.838 E6.85132
G1 X80.488 Y121.481 E6.86641
G1 X79.679 Y121.052 E6.88149
G1 X78.91 Y120.553 E6.89658
G1 X78.187 Y119.99 E6.91167
G1 X77.517 Y119.365 E6.92675
G1 X76.903 Y118.685 E6.94183
G1 X76.351 Y117.954 E6.95692
G1 X75.865 Y117.177 E6.972
G1 X75.448 Y116.361 E6.98709
G1 X75.105 Y115.511 E7.00218
G1 X74.836 Y114.635 E7.01727
G1 X74.645 Y113.739 E7.03235
G1 X74.533 Y112.83 E7.04743
G1 X74.5 Y112 E7.06111
G1 X74.5 Y108 E7.12696
G1 X74.54 Y107.085 E7.14204
G1 X74.66 Y106.176 E7.15714
G1 X74.858 Y105.282 E7.17221
G1 X75.134 Y104.408 E7.1873
G1 X75.484 Y103.561 E7.20239
G1 X75.908 Y102.748 E7.21748
G1 X76.4 Y101.976 E7.23256
G1 X76.958 Y101.249 E7.24765
G1 X77.577 Y100.574 E7.26272
G1 X78.253 Y99.955 E7.27781
G1 X78.98 Y99.397 E7.2929
G1 X79.753 Y98.905 E7.30799
G1 X80.566 Y98.482 E7.32308
G1 X81.413 Y98.132 E7.33816
G1 X82.287 Y97.857 E7.35325
G1 X83.181 Y97.659 E7.36832
G1 X84.004 Y97.547 E7.382
G1 X96.37 Y96.369 E7.58651
G1 X97.547 Y84.005 E7.79099
G1 X97.674 Y83.097 E7.80608
G1 X97.879 Y82.204 E7.82117
G1 X98.161 Y81.332 E7.83626
G1 X98.519 Y80.489 E7.85134
G1 X98.948 Y79.679 E7.86643
G1 X99.446 Y78.91 E7.88151
G1 X100.01 Y78.188 E7.89659
G0 F3600 X100.202 Y78.271
G1 F960 X100.824 Y77.611 E7.91153
G1 X101.503 Y77.008 E7.92648
G1 X102.231 Y76.467 E7.94141
G1 X103.005 Y75.992 E7.95636
G1 X103.817 Y75.588 E7.97129
G1 X104.662 Y75.256 E7.98624
G1 X105.532 Y75 E8.00117
G1 X106.422 Y74.822 E8.01611
G1 X107.324 Y74.722 E8.03105
G1 X108 Y74.7 E8.04219
G1 X112 Y74.7 E8.10804
G1 X112.907 Y74.74 E8.12299
G1 X113.806 Y74.86 E8.13792
G1 X114.692 Y75.058 E8.15287
G1 X115.557 Y75.334 E8.16782
G1 X116.394 Y75.684 E8.18276
G1 X117.197 Y76.107 E8.1977
G1 X117.959 Y76.599 E8.21263
G1 X118.676 Y77.156 E8.22758
G1 X119.34 Y77.774 E8.24251
G1 X119.948 Y78.448 E8.25746
G1 X120.493 Y79.173 E8.27239
G1 X120.973 Y79.944 E8.28734
G1 X121.384 Y80.753 E8.30228
G1 X121.721 Y81.596 E8.31723
G1 X121.983 Y82.464 E8.33216
G1 X122.167 Y83.353 E8.3471
G1 X122.254 Y84.023 E8.35823
G1 X123.447 Y96.552 E8.56543
G1 X135.977 Y97.746 E8.77266
G1 X136.876 Y97.872 E8.78761
G1 X137.76 Y98.077 E8.80255
G1 X138.623 Y98.358 E8.81749
G1 X139.457 Y98.714 E8.83242
G1 X140.257 Y99.143 E8.84736
G1 X141.017 Y99.64 E8.86231
G1 X141.729 Y100.202 E8.87725
G1 X142.389 Y100.825 E8.89219
G1 X142.992 Y101.503 E8.90713
G1 X143.533 Y102.232 E8.92207
G1 X144.008 Y103.005 E8.93701
G1 X144.413 Y103.817 E8.95195
G1 X144.744 Y104.662 E8.96689
G1 X145 Y105.533 E8.98184
G1 X145.179 Y106.423 E8.99678
G1 X145.278 Y107.325 E9.01172
G1 X145.3 Y108 E9.02284
G1 X145.3 Y112 E9.0887
G1 X145.26 Y112.907 E9.10364
G1 X145.14 Y113.806 E9.11858
G1 X144.942 Y114.692 E9.13352
G1 X144.666 Y115.557 E9.14847
G1 X144.316 Y116.394 E9.16341
G1 X143.893 Y117.197 E9.17835
G1 X143.401 Y117.959 E9.19328
G1 X142.844 Y118.676 E9.20823
G1 X142.226 Y119.34 E9.22317
G1 X141.552 Y119.948 E9.23811
G1 X140.827 Y120.493 E9.25304
G1 X140.056 Y120.973 E9.268
G1 X139.247 Y121.384 E9.28294
G1 X138.404 Y121.721 E9.29788
G1 X137.536 Y121.983 E9.31281
G1 X136.647 Y122.167 E9.32776
G1 X135.976 Y122.254 E9.3389
G1 X123.447 Y123.447 E9.5461
G1 X122.254 Y135.977 E9.75333
G1 X122.128 Y136.875 E9.76826
G1 X121.923 Y137.76 E9.78321
G1 X121.642 Y138.622 E9.79814
G1 X121.286 Y139.457 E9.81308
G1 X120.857 Y140.257 E9.82803
G1 X120.36 Y141.016 E9.84297
G1 X119.798 Y141.729 E9.85791
G1 X119.176 Y142.389 E9.87284
G1 X118.497 Y142.992 E9.88779
G1 X117.769 Y143.533 E9.90273
G1 X116.995 Y144.008 E9.91768
G1 X116.183 Y144.412 E9.93261
G1 X115.338 Y144.744 E9.94756
G1 X114.467 Y145 E9.9625
G1 X113.578 Y145.178 E9.97743
G1 X112.676 Y145.278 E9.99237
G1 X112 Y145.3 E10.00351
G1 X108 Y145.3 E10.06936
G1 X107.093 Y145.26 E10.08431
G1 X106.194 Y145.14 E10.09924
G1 X105.308 Y144.942 E10.11419
G1 X104.443 Y144.666 E10.12914
G1 X103.606 Y144.316 E10.14407
G1 X102.803 Y143.893 E10.15902
G1 X102.041 Y143.401 E10.17395
G1 X101.324 Y142.844 E10.1889
G1 X100.66 Y142.226 E10.20383
G1 X100.052 Y141.552 E10.21878
G1 X99.507 Y140.827 E10.23371
G1 X99.027 Y140.056 E10.24866
G1 X98.616 Y139.247 E10.2636
G1 X98.279 Y138.404 E10.27855
G1 X98.017 Y137.536 E10.29347
G1 X97.833 Y136.647 E10.30842
G1 X97.746 Y135.977 E10.31954
G1 X96.553 Y123.448 E10.52675
G1 X84.023 Y122.254 E10.73398
G1 X83.124 Y122.128 E10.74892
G1 X82.24 Y121.923 E10.76386
G1 X81.377 Y121.642 E10.77881
G1 X80.543 Y121.286 E10.79374
G1 X79.743 Y120.857 E10.80868
G1 X78.983 Y120.36 E10.82363
G1 X78.271 Y119.798 E10.83856
G1 X77.611 Y119.175 E10.85351
G1 X77.008 Y118.497 E10.86845
G1 X76.467 Y117.768 E10.88339
G1 X75.992 Y116.995 E10.89833
G1 X75.587 Y116.183 E10.91327
G1 X75.256 Y115.338 E10.92821
G1 X75 Y114.467 E10.94316
G1 X74.821 Y113.577 E10.9581
G1 X74.722 Y112.675 E10.97304
G1 X74.7 Y112 E10.98416
G1 X74.7 Y108 E11.05002
G1 X74.74 Y107.093 E11.06496
G1 X74.86 Y106.194 E11.07989
G1 X75.058 Y105.308 E11.09484
G1 X75.334 Y104.443 E11.10979
G1 X75.684 Y103.606 E11.12473
G1 X76.107 Y102.803 E11.13967
G1 X76.599 Y102.041 E11.1546
G1 X77.156 Y101.324 E11.16955
G1 X77.774 Y100.66 E11.18448
G1 X78.448 Y100.052 E11.19943
G1 X79.173 Y99.507 E11.21436
G1 X79.944 Y99.027 E11.22931
G1 X80.753 Y98.616 E11.24425
G1 X81.596 Y98.279 E11.2592
G1 X82.464 Y98.017 E11.27413
G1 X83.353 Y97.833 E11.28907
G1 X84.023 Y97.746 E11.3002
G1 X96.553 Y96.552 E11.50742
G1 X97.746 Y84.024 E11.71461
G1 X97.872 Y83.125 E11.72956
