;FLAVOR:Marlin
;TIME:7892
;Filament used:1.80988m
;Layer height: 0.18
;MINX:59.104
;MINY:59.096
;MINZ:0.18
;MAXX:160.88
;MAXY:160.919
;MAXZ:2.88
                              
;Creality Print GCode Generated by CXEngineDEV
;Generated Time:2022-06-30 15:03:09
;----------Machine Config--------------
;Machine Name:Creality Ender-3
;Machine Height:250
;Machine Width:220
;Machine Depth:220
;Material name:Castable
;Number of Extruders:1
;ExtruderParams[0] Nozzle Diameter1000
;----------Profile Config---------------
;Layer Height:0.18
;Wall Thickness:1.26
;Top/Bottom Thickness:0.54
;Out Wall Line Width:0.18
;Inner Wall Line Width:0.18
;Inital Layer Height:180
;Wall Line Count:7
;Infill Line Distance:1.8
;Infill Pattern:grid
;Infill Sparse Density:20
;Infill Wipe Distance:0
;Print Temperature:222
;Bed Temperature:58
;Support Enable:false
;Support Density:10
;Support Angle:0.349066
;Adhesion Type:brim
;machine is belt:false
;machine belt offset:10
;machine belt offset Y:0
;Raft Base Line Spacing:1.6
;Wait Heatup Sync:true
;----------Shell Config----------------
;Outer Wall Wipe Distance:200
;Infill Before Walls:false
;Infill Overlap:0.07
;Fill Gaps Between Walls:nowhere
;Minimum Infill Area:1
;Top Surface Skin Layer:0
;Top Layers:5
;Z Seam Alignment:sharpest_corner
;Seam Corner Preference:z_seam_corner_inner
;Z Seam X:110
;Z Seam Y:110
;Horizontal Expansion:0
;Top/Bottom Pattern:zigzag
;Ironing Pattern:zigzag
;Vase Model:false
;----------Support Config----------------
;Support Type:everywhere
;Support Pattern:lines
;Support Infill Layer Thickness:0.18
;Minimum Support Area:5
;Enable Support Roof:false
;Support Roof Thickness:0.8
;Support Roof Pattern:lines
;Connect Support Lines:0
;Connect Support ZigZags:1
;Minimum Support X/Y Distance:0.2
;Support Line Distance:1.8
; ---------PrintSpeed & Travel----------
;Enable Print Cool:true
;Avoid Printed Parts Traveling:true
;Enable Retraction:true
;Retraction Distance:8
;Retraction Speed:100
;Retraction Prime Speed:100
;Maximum Retraction Count:100
;Minimum Extrusion Distance Window:1
;Z Hop When Retracted:false
;Z Hop Height:0.2
;Retract Before Outer Wall:true
;Print Speed:32
;Infill Speed:32

;Prime Tower Speed:32
;Travel Speed:120
;Initial Layer Speed:16
;Skirt/Brim Speed:16
;Combing Mode:off
; --------SpecialModel&Mesh Fixes--------
;Union Overlapping Volum:true
;Remove All Holes:false
;Maximum Travel Resolution:0.36
;Maximum Deviation:0.05
;Maximum Model Angle:0.872665
;IS Mold Print:false
;Make Overhang Printable:false
;Enable Coasting:false
;Coasting Volumes:0.06
;Coasting Speed:0.9
;Raft AirGap:0.25
;Layer0 ZOverLap:0.13
;---------------------End of Head--------------------------
M140 S58
M105
M104 S222
M105
M109 S222
M105
M190 S58
M82 ;absolute extrusion mode
M220 S100 ;Reset Feedrate
M221 S100 ;Reset Flowrate

G28 ;Home

G92 E0 ;Reset Extruder
G1 Z2.0 F3000 ;Move Z Axis up
G1 X10.1 Y20 Z0.28 F5000.0 ;Move to start position
G1 X10.1 Y145.0 Z0.28 F1500.0 E15 ;Draw the first line
G1 X10.4 Y145.0 Z0.28 F5000.0 ;Move to side a little
G1 X10.4 Y20 Z0.28 F1500.0 E30 ;Draw the second line
G92 E0  ;Reset Extruder
G1 E-1.0000 F1800 ;Retract a bit
G1 Z2.0 F3000 ;Move Z Axis up
G1 E0.0000 F1800 

G92 E0
G92 E0
G1 F6000 E-8

;LAYER_COUNT:16

;LAYER:0
M107
G0 F3600 X77.344 Y73.544 Z0.18
;;retract;;
G0 X92.503 Y96.288
;TYPE:SKIRT
G1 F6000 E0
G1 F960 X81.189 Y107.601 E0.26342
G1 X81.047 Y107.601 E0.26575
G1 X69.733 Y96.287 E0.52918
G1 X69.733 Y96.145 E0.53152
G1 X81.047 Y84.832 E0.79493
G1 X81.189 Y84.832 E0.79727
G1 X92.503 Y96.146 E1.0607
G1 X92.503 Y96.288 E1.06304
G0 F3600 X92.723 Y96.291
G1 F960 X92.644 Y96.429 E1.06565
G1 X81.33 Y107.742 E1.32907
G1 X81.044 Y107.821 E1.33395
G1 X80.906 Y107.742 E1.33657
G1 X69.592 Y96.428 E1.6
G1 X69.513 Y96.142 E1.60488
G1 X69.592 Y96.004 E1.6075
G1 X80.906 Y84.691 E1.87092
G1 X81.192 Y84.612 E1.8758
G1 X81.33 Y84.691 E1.87842
G1 X92.644 Y96.005 E2.14185
G1 X92.723 Y96.291 E2.14673
G0 F3600 X92.932 Y96.225
G1 F960 X92.786 Y96.571 E2.15292
G1 X81.472 Y107.884 E2.41633
G1 X81.11 Y108.03 E2.42276
G1 X80.764 Y107.884 E2.42894
G1 X69.45 Y96.57 E2.69237
G1 X69.304 Y96.208 E2.69879
G1 X69.45 Y95.862 E2.70498
G1 X80.764 Y84.549 E2.96839
G1 X81.126 Y84.403 E2.97482
G1 X81.472 Y84.549 E2.981
G1 X92.786 Y95.863 E3.24443
G1 X92.932 Y96.225 E3.25085
G0 F3600 X93.128 Y96.141
G1 F960 X93.022 Y96.594 E3.25851
G1 X92.927 Y96.712 E3.26101
G1 X81.613 Y108.025 E3.52442
G1 X81.194 Y108.226 E3.53207
G1 X80.741 Y108.12 E3.53973
G1 X80.623 Y108.025 E3.54223
G1 X69.309 Y96.711 E3.80566
G1 X69.108 Y96.292 E3.81331
G1 X69.214 Y95.839 E3.82097
G1 X69.309 Y95.721 E3.82346
G1 X80.623 Y84.408 E4.08688
G1 X81.042 Y84.207 E4.09453
G1 X81.495 Y84.313 E4.10219
G1 X81.613 Y84.408 E4.10468
G1 X92.927 Y95.722 E4.36811
G1 X93.128 Y96.141 E4.37576
G0 F3600 X93.327 Y96.316
G1 F960 X93.258 Y96.574 E4.38016
G1 X93.068 Y96.853 E4.38571
G1 X81.754 Y108.166 E4.64913
G1 X81.539 Y108.325 E4.65353
G1 X81.287 Y108.414 E4.65793
G1 X81.019 Y108.425 E4.66235
G1 X80.761 Y108.356 E4.66674
G1 X80.482 Y108.166 E4.6723
G1 X69.168 Y96.852 E4.93573
G1 X69.009 Y96.637 E4.94013
G1 X68.92 Y96.385 E4.94453
G1 X68.909 Y96.117 E4.94895
G1 X68.978 Y95.859 E4.95334
G1 X69.168 Y95.58 E4.9589
G1 X80.482 Y84.267 E5.22232
G1 X80.697 Y84.108 E5.22672
G1 X80.949 Y84.019 E5.23112
G1 X81.217 Y84.008 E5.23553
G1 X81.475 Y84.077 E5.23993
G1 X81.754 Y84.267 E5.24549
G1 X93.068 Y95.581 E5.50892
G1 X93.227 Y95.796 E5.51332
G1 X93.316 Y96.048 E5.51772
G1 X93.327 Y96.316 E5.52213
G0 F3600 X93.485 Y96.536
G1 F960 X93.362 Y96.805 E5.527
G1 X93.21 Y96.995 E5.53101
G1 X81.896 Y108.308 E5.79443
G1 X81.66 Y108.487 E5.7993
G1 X81.385 Y108.597 E5.80418
G1 X81.091 Y108.63 E5.80905
G1 X80.799 Y108.583 E5.81392
G1 X80.53 Y108.46 E5.81879
G1 X80.34 Y108.308 E5.82279
G1 X69.026 Y96.994 E6.08622
G1 X68.847 Y96.758 E6.0911
G1 X68.737 Y96.483 E6.09597
G1 X68.704 Y96.189 E6.10084
G1 X68.751 Y95.897 E6.10571
G1 X68.874 Y95.628 E6.11058
G1 X69.026 Y95.438 E6.11459
G1 X80.34 Y84.125 E6.37801
G1 X80.576 Y83.946 E6.38288
G1 X80.851 Y83.836 E6.38776
G1 X81.145 Y83.803 E6.39263
G1 X81.437 Y83.85 E6.3975
G1 X81.706 Y83.973 E6.40237
G1 X81.896 Y84.125 E6.40637
G1 X93.21 Y95.439 E6.6698
G1 X93.389 Y95.675 E6.67468
G1 X93.499 Y95.95 E6.67955
G1 X93.532 Y96.244 E6.68442
G1 X93.485 Y96.536 E6.68929
G0 F3600 X93.704 Y96.485
G1 F960 X93.599 Y96.789 E6.69459
G1 X93.351 Y97.136 E6.70161
G1 X82.037 Y108.449 E6.96503
G1 X81.783 Y108.647 E6.97033
G1 X81.488 Y108.776 E6.97563
G1 X81.171 Y108.829 E6.98092
G1 X80.85 Y108.802 E6.98622
G1 X80.546 Y108.697 E6.99152
G1 X80.199 Y108.449 E6.99854
G1 X68.885 Y97.135 E7.26197
G1 X68.687 Y96.881 E7.26727
G1 X68.558 Y96.586 E7.27257
G1 X68.505 Y96.269 E7.27786
G1 X68.532 Y95.948 E7.28317
G1 X68.637 Y95.644 E7.28846
G1 X68.885 Y95.297 E7.29548
G1 X80.199 Y83.984 E7.5589
G1 X80.453 Y83.786 E7.5642
G1 X80.748 Y83.657 E7.5695
G1 X81.065 Y83.604 E7.57479
G1 X81.386 Y83.631 E7.5801
G1 X81.69 Y83.736 E7.58539
G1 X82.037 Y83.984 E7.59241
G1 X93.351 Y95.298 E7.85584
G1 X93.549 Y95.552 E7.86114
G1 X93.678 Y95.847 E7.86645
G1 X93.731 Y96.164 E7.87174
G1 X93.704 Y96.485 E7.87704
G0 F3600 X93.918 Y96.425
G1 F960 X93.831 Y96.759 E7.88272
G1 X93.669 Y97.065 E7.88842
G1 X93.493 Y97.278 E7.89297
G1 X82.179 Y108.591 E8.15639
G1 X81.908 Y108.805 E8.16207
G1 X81.594 Y108.952 E8.16778
G1 X81.256 Y109.024 E8.17347
G1 X80.91 Y109.016 E8.17917
G1 X80.576 Y108.928 E8.18485
G1 X80.27 Y108.767 E8.19055
G1 X80.057 Y108.591 E8.1951
G1 X68.743 Y97.277 E8.45852
G1 X68.529 Y97.006 E8.46421
G1 X68.382 Y96.692 E8.46992
G1 X68.31 Y96.354 E8.47561
G1 X68.318 Y96.008 E8.4813
G1 X68.405 Y95.674 E8.48699
G1 X68.567 Y95.368 E8.49269
G1 X68.743 Y95.155 E8.49724
G1 X80.057 Y83.842 E8.76065
G1 X80.328 Y83.628 E8.76634
G1 X80.642 Y83.481 E8.77204
G1 X80.98 Y83.409 E8.77773
G1 X81.326 Y83.417 E8.78343
G1 X81.66 Y83.505 E8.78912
G1 X81.966 Y83.666 E8.79481
G1 X82.179 Y83.842 E8.79936
G1 X93.493 Y95.156 E9.06279
G1 X93.707 Y95.427 E9.06847
G1 X93.854 Y95.741 E9.07418
G1 X93.926 Y96.079 E9.07987
G1 X93.918 Y96.425 E9.08557
G0 F3600 X94.056 Y96.719
G1 F960 X93.91 Y97.057 E9.09163
G1 X93.634 Y97.419 E9.09912
G1 X82.32 Y108.732 E9.36254
G1 X82.033 Y108.963 E9.36861
G1 X81.703 Y109.126 E9.37466
G1 X81.346 Y109.215 E9.38072
G1 X80.977 Y109.224 E9.3868
G1 X80.616 Y109.154 E9.39285
G1 X80.278 Y109.008 E9.39892
G1 X79.916 Y108.732 E9.40641
G1 X68.602 Y97.418 E9.66984
G1 X68.371 Y97.131 E9.6759
G1 X68.208 Y96.801 E9.68196
G1 X68.119 Y96.444 E9.68802
G1 X68.11 Y96.075 E9.6941
G1 X68.18 Y95.714 E9.70015
G1 X68.326 Y95.376 E9.70621
G1 X68.602 Y95.014 E9.71371
G1 X79.916 Y83.701 E9.97712
G1 X80.203 Y83.47 E9.98319
G1 X80.533 Y83.307 E9.98925
G1 X80.89 Y83.218 E9.9953
G1 X81.259 Y83.209 E10.00138
G1 X81.62 Y83.279 E10.00744
G1 X81.958 Y83.425 E10.0135
G1 X82.32 Y83.701 E10.02099
G1 X93.634 Y95.015 E10.28442
G1 X93.865 Y95.302 E10.29048
G1 X94.028 Y95.632 E10.29654
G1 X94.117 Y95.989 E10.3026
G1 X94.126 Y96.358 E10.30868
G1 X94.056 Y96.719 E10.31473
G0 F3600 X94.277 Y96.671
G1 F960 X94.146 Y97.037 E10.32113
G1 X93.943 Y97.369 E10.32754
G1 X93.775 Y97.561 E10.33174
G1 X82.461 Y108.874 E10.59516
G1 X82.159 Y109.119 E10.60156
G1 X81.814 Y109.298 E10.60796
G1 X81.439 Y109.403 E10.61437
G1 X81.05 Y109.429 E10.62079
G1 X80.664 Y109.375 E10.6272
G1 X80.298 Y109.244 E10.6336
G1 X79.966 Y109.041 E10.64001
G1 X79.774 Y108.874 E10.6442
G1 X68.46 Y97.56 E10.90763
G1 X68.215 Y97.257 E10.91404
G1 X68.036 Y96.912 E10.92044
G1 X67.931 Y96.537 E10.92685
G1 X67.905 Y96.148 E10.93327
G1 X67.959 Y95.762 E10.93969
G1 X68.09 Y95.396 E10.94609
G1 X68.293 Y95.064 E10.9525
G1 X68.461 Y94.872 E10.9567
G1 X79.775 Y83.559 E11.22011
G1 X80.077 Y83.314 E11.22651
G1 X80.422 Y83.135 E11.23291
G1 X80.797 Y83.03 E11.23932
G1 X81.186 Y83.004 E11.24574
G1 X81.572 Y83.058 E11.25216
G1 X81.938 Y83.189 E11.25856
G1 X82.27 Y83.392 E11.26497
G1 X82.462 Y83.559 E11.26916
G1 X93.776 Y94.873 E11.53258
G1 X94.021 Y95.176 E11.539
G1 X94.2 Y95.521 E11.5454
G1 X94.305 Y95.896 E11.55181
G1 X94.331 Y96.285 E11.55823
G1 X94.277 Y96.671 E11.56464
G0 F3600 X94.494 Y96.615
G1 F960 X94.377 Y97.008 E11.57139
G1 X94.187 Y97.37 E11.57813
G1 X93.917 Y97.702 E11.58517
G1 X82.603 Y109.015 E11.84859
G1 X82.287 Y109.275 E11.85532
G1 X81.926 Y109.468 E11.86206
G1 X81.534 Y109.588 E11.86881
G1 X81.127 Y109.63 E11.87555
G1 X80.719 Y109.592 E11.8823
G1 X80.327 Y109.475 E11.88903
G1 X79.965 Y109.285 E11.89576
G1 X79.633 Y109.015 E11.90281
G1 X68.319 Y97.701 E12.16623
G1 X68.059 Y97.385 E12.17297
G1 X67.866 Y97.024 E12.17971
G1 X67.746 Y96.632 E12.18646
G1 X67.704 Y96.225 E12.1932
G1 X67.742 Y95.818 E12.19993
G1 X67.859 Y95.425 E12.20668
G1 X68.049 Y95.063 E12.21341
G1 X68.319 Y94.731 E12.22045
G1 X79.633 Y83.418 E12.48387
G1 X79.949 Y83.158 E12.49061
G1 X80.31 Y82.965 E12.49735
G1 X80.702 Y82.845 E12.50409
G1 X81.109 Y82.803 E12.51083
G1 X81.517 Y82.841 E12.51758
G1 X81.909 Y82.958 E12.52431
G1 X82.271 Y83.148 E12.53104
G1 X82.603 Y83.418 E12.53809
G1 X93.917 Y94.732 E12.80152
G1 X94.177 Y95.048 E12.80825
G1 X94.37 Y95.409 E12.81499
G1 X94.49 Y95.801 E12.82174
G1 X94.532 Y96.208 E12.82848
G1 X94.494 Y96.615 E12.83521
G0 F3600 X94.707 Y96.555
G1 F960 X94.605 Y96.971 E12.84226
G1 X94.427 Y97.361 E12.84932
G1 X94.058 Y97.843 E12.85931
G1 X82.744 Y109.156 E13.12273
G1 X82.414 Y109.43 E13.12979
G1 X82.039 Y109.637 E13.13684
G1 X81.633 Y109.772 E13.14389
G1 X81.208 Y109.828 E13.15094
G1 X80.78 Y109.805 E13.158
G1 X80.364 Y109.703 E13.16505
G1 X79.974 Y109.525 E13.17211
G1 X79.492 Y109.156 E13.1821
G1 X68.178 Y97.842 E13.44553
G1 X67.904 Y97.512 E13.45259
G1 X67.697 Y97.138 E13.45963
G1 X67.562 Y96.731 E13.46669
G1 X67.506 Y96.306 E13.47375
G1 X67.529 Y95.878 E13.4808
G1 X67.631 Y95.462 E13.48786
G1 X67.809 Y95.072 E13.49491
G1 X68.178 Y94.59 E13.50491
G1 X79.492 Y83.277 E13.76832
G1 X79.822 Y83.003 E13.77538
G1 X80.197 Y82.796 E13.78244
G1 X80.603 Y82.661 E13.78948
G1 X81.028 Y82.605 E13.79654
G1 X81.456 Y82.628 E13.8036
G1 X81.872 Y82.73 E13.81065
G1 X82.262 Y82.908 E13.81771
G1 X82.744 Y83.277 E13.8277
G1 X94.058 Y94.591 E14.09113
G1 X94.332 Y94.921 E14.09819
G1 X94.539 Y95.295 E14.10523
G1 X94.674 Y95.702 E14.11229
G1 X94.73 Y96.127 E14.11934
G1 X94.707 Y96.555 E14.1264
;;retract;;
G1 F6000 E6.1264
G0 F3600 X97.601 Y97.611
G1 F6000 E14.1264
G1 F960 X97.432 Y97.41 E14.13072
G1 X97.198 Y97.009 E14.13837
G1 X97.037 Y96.573 E14.14602
G1 X96.953 Y96.117 E14.15365
G1 X96.948 Y95.652 E14.16131
G1 X97.022 Y95.194 E14.16895
G1 X97.101 Y94.968 E14.17289
G1 X96.94 Y95.027 E14.17571
G1 X96.484 Y95.111 E14.18335
G1 X96.019 Y95.116 E14.191
G1 X95.561 Y95.042 E14.19864
G1 X95.122 Y94.889 E14.20629
G1 X94.716 Y94.664 E14.21394
G1 X94.471 Y94.462 E14.21916
G1 X94.64 Y94.663 E14.22349
G1 X94.874 Y95.064 E14.23113
G1 X95.035 Y95.5 E14.23878
G1 X95.119 Y95.956 E14.24642
G1 X95.124 Y96.421 E14.25407
G1 X95.05 Y96.879 E14.26171
G1 X94.971 Y97.106 E14.26567
G1 X95.132 Y97.046 E14.2685
G1 X95.589 Y96.962 E14.27615
G1 X96.053 Y96.957 E14.28379
G1 X96.511 Y97.031 E14.29142
G1 X96.95 Y97.184 E14.29908
G1 X97.356 Y97.409 E14.30672
G1 X97.601 Y97.611 E14.31195
;;retract;;
G1 F6000 E6.31195
G0 F3600 X107.233 Y110.892
G1 F6000 E14.31195
G1 F960 X107.233 Y111.034 E14.31429
G1 X95.92 Y122.347 E14.57769
G1 X95.778 Y122.347 E14.58003
G1 X84.463 Y111.033 E14.84347
G1 X84.463 Y110.891 E14.8458
G1 X95.778 Y99.578 E15.10923
G1 X95.92 Y99.578 E15.11157
G1 X107.233 Y110.892 E15.37498
G0 F3600 X107.453 Y111.037
G1 F960 X107.374 Y111.175 E15.3776
G1 X96.061 Y122.488 E15.64101
G1 X95.775 Y122.567 E15.64589
G1 X95.637 Y122.488 E15.64851
G1 X84.322 Y111.174 E15.91195
G1 X84.243 Y110.888 E15.91683
G1 X84.322 Y110.75 E15.91945
G1 X95.637 Y99.437 E16.18288
G1 X95.923 Y99.358 E16.18776
G1 X96.061 Y99.437 E16.19038
G1 X107.374 Y110.751 E16.4538
G1 X107.453 Y111.037 E16.45868
G0 F3600 X107.662 Y110.971
G1 F960 X107.516 Y111.317 E16.46486
G1 X96.203 Y122.63 E16.72827
G1 X95.841 Y122.776 E16.73469
G1 X95.495 Y122.63 E16.74088
G1 X84.18 Y111.316 E17.00432
G1 X84.034 Y110.954 E17.01074
G1 X84.18 Y110.608 E17.01693
G1 X95.495 Y99.295 E17.28035
G1 X95.857 Y99.149 E17.28678
G1 X96.203 Y99.295 E17.29296
G1 X107.516 Y110.609 E17.55638
G1 X107.662 Y110.971 E17.5628
G0 F3600 X107.858 Y110.887
G1 F960 X107.752 Y111.34 E17.57046
G1 X107.657 Y111.458 E17.57296
G1 X96.344 Y122.771 E17.83636
G1 X95.925 Y122.972 E17.84401
G1 X95.472 Y122.866 E17.85167
G1 X95.354 Y122.771 E17.85417
G1 X84.039 Y111.457 E18.1176
G1 X83.838 Y111.038 E18.12525
G1 X83.944 Y110.585 E18.13291
G1 X84.039 Y110.467 E18.13541
G1 X95.354 Y99.154 E18.39884
G1 X95.773 Y98.953 E18.40649
G1 X96.226 Y99.059 E18.41415
G1 X96.344 Y99.154 E18.41664
G1 X107.657 Y110.468 E18.68006
G1 X107.858 Y110.887 E18.68771
G0 F3600 X108.057 Y111.062
G1 F960 X107.988 Y111.32 E18.6921
G1 X107.798 Y111.599 E18.69766
G1 X96.485 Y122.912 E18.96106
G1 X96.27 Y123.071 E18.96547
G1 X96.018 Y123.16 E18.96987
G1 X95.75 Y123.171 E18.97428
G1 X95.492 Y123.102 E18.97868
G1 X95.213 Y122.912 E18.98424
G1 X83.898 Y111.598 E19.24768
G1 X83.739 Y111.383 E19.25208
G1 X83.65 Y111.131 E19.25648
G1 X83.639 Y110.863 E19.26089
G1 X83.708 Y110.605 E19.26529
G1 X83.898 Y110.326 E19.27085
G1 X95.213 Y99.013 E19.53428
G1 X95.428 Y98.854 E19.53868
G1 X95.68 Y98.765 E19.54308
G1 X95.948 Y98.754 E19.54749
G1 X96.206 Y98.823 E19.55189
G1 X96.485 Y99.013 E19.55745
G1 X107.798 Y110.327 E19.82086
G1 X107.957 Y110.542 E19.82527
G1 X108.046 Y110.794 E19.82967
G1 X108.057 Y111.062 E19.83408
G0 F3600 X108.262 Y110.99
G1 F960 X108.215 Y111.282 E19.83895
G1 X108.092 Y111.551 E19.84382
G1 X107.94 Y111.741 E19.84783
G1 X96.627 Y123.054 E20.11123
G1 X96.391 Y123.233 E20.11611
G1 X96.116 Y123.343 E20.12098
G1 X95.822 Y123.376 E20.12586
G1 X95.53 Y123.329 E20.13072
G1 X95.261 Y123.206 E20.13559
G1 X95.071 Y123.054 E20.1396
G1 X83.756 Y111.74 E20.40304
G1 X83.577 Y111.504 E20.40792
G1 X83.467 Y111.23 E20.41278
G1 X83.434 Y110.935 E20.41766
G1 X83.481 Y110.643 E20.42253
G1 X83.604 Y110.374 E20.4274
G1 X83.756 Y110.184 E20.43141
G1 X95.071 Y98.871 E20.69484
G1 X95.307 Y98.692 E20.69971
