;FLAVOR:Marlin
;TIME:3476
;Filament used:1.0987m
;Layer height: 0.2
;MINX:87.642
;MINY:53.024
;MINZ:0.15
;MAXX:132.364
;MAXY:166.983
;MAXZ:7.55
                              
;Creality Print GCode Generated by CXEngineDEV
;Generated Time:2022-06-30 15:03:09
;----------Machine Config--------------
;Machine Name:Creality Ender-3
;Machine Height:250
;Machine Width:220
;Machine Depth:220
;Material name:Castable
;Number of Extruders:1
;ExtruderParams[0] Nozzle Diameter1000
;----------Profile Config---------------
;Layer Height:0.2
;Wall Thickness:0.8
;Top/Bottom Thickness:1
;Out Wall Line Width:0.2
;Inner Wall Line Width:0.2
;Inital Layer Height:150
;Wall Line Count:4
;Infill Line Distance:2
;Infill Pattern:zigzag
;Infill Sparse Density:10
;Infill Wipe Distance:0
;Print Temperature:235
;Bed Temperature:74
;Support Enable:false
;Support Density:10
;Support Angle:0
;Adhesion Type:brim
;machine is belt:false
;machine belt offset:10
;machine belt offset Y:0
;Raft Base Line Spacing:1.6
;Wait Heatup Sync:true
;----------Shell Config----------------
;Outer Wall Wipe Distance:200
;Infill Before Walls:false
;Infill Overlap:0.08
;Fill Gaps Between Walls:everywhere
;Minimum Infill Area:1
;Top Surface Skin Layer:0
;Top Layers:3
;Z Seam Alignment:sharpest_corner
;Seam Corner Preference:z_seam_corner_inner
;Z Seam X:110
;Z Seam Y:110
;Horizontal Expansion:0
;Top/Bottom Pattern:zigzag
;Ironing Pattern:zigzag
;Vase Model:false
;----------Support Config----------------
;Support Type:everywhere
;Support Pattern:zigzag
;Support Infill Layer Thickness:0.2
;Minimum Support Area:5
;Enable Support Roof:false
;Support Roof Thickness:0.8
;Support Roof Pattern:lines
;Connect Support Lines:0
;Connect Support ZigZags:1
;Minimum Support X/Y Distance:0.2
;Support Line Distance:2
; ---------PrintSpeed & Travel----------
;Enable Print Cool:true
;Avoid Printed Parts Traveling:true
;Enable Retraction:true
;Retraction Distance:8
;Retraction Speed:100
;Retraction Prime Speed:100
;Maximum Retraction Count:100
;Minimum Extrusion Distance Window:1
;Z Hop When Retracted:false
;Z Hop Height:0.2
;Retract Before Outer Wall:true
;Print Speed:40
;Infill Speed:40

;Prime Tower Speed:40
;Travel Speed:120
;Initial Layer Speed:20
;Skirt/Brim Speed:20
;Combing Mode:off
; --------SpecialModel&Mesh Fixes--------
;Union Overlapping Volum:true
;Remove All Holes:false
;Maximum Travel Resolution:0.4
;Maximum Deviation:0.05
;Maximum Model Angle:0.872665
;IS Mold Print:false
;Make Overhang Printable:false
;Enable Coasting:false
;Coasting Volumes:0.06
;Coasting Speed:0.9
;Raft AirGap:0.25
;Layer0 ZOverLap:0.13
;---------------------End of Head--------------------------
M140 S74
M105
M104 S235
M105
M109 S235
M105
M190 S74
M82 ;absolute extrusion mode
M220 S100 ;Reset Feedrate
M221 S100 ;Reset Flowrate

G28 ;Home

G92 E0 ;Reset Extruder
G1 Z2.0 F3000 ;Move Z Axis up
G1 X10.1 Y20 Z0.28 F5000.0 ;Move to start position
G1 X10.1 Y145.0 Z0.28 F1500.0 E15 ;Draw the first line
G1 X10.4 Y145.0 Z0.28 F5000.0 ;Move to side a little
G1 X10.4 Y20 Z0.28 F1500.0 E30 ;Draw the second line
G92 E0  ;Reset Extruder
G1 E-1.0000 F1800 ;Retract a bit
G1 Z2.0 F3000 ;Move Z Axis up
G1 E0.0000 F1800 

G92 E0
G92 E0
G1 F6000 E-8

;LAYER_COUNT:38

;LAYER:0
M107
G0 F3600 X88.836 Y61.765 Z0.15
;;retract;;
G0 X95.459 Y65.888
;TYPE:SKIRT
G1 F6000 E0
G1 F1200 X99.885 Y60.85 E0.09201
G1 X100.026 Y60.841 E0.09394
G1 X107.097 Y67.054 E0.22309
G1 X113.184 Y74.35 E0.35345
G1 X118.073 Y82.491 E0.48373
G1 X121.653 Y91.294 E0.61411
G1 X123.834 Y100.536 E0.7444
G1 X124.566 Y110.006 E0.87471
G1 X123.831 Y119.479 E1.00507
G1 X121.648 Y128.721 E1.13536
G1 X118.067 Y137.522 E1.26572
G1 X113.175 Y145.663 E1.39602
G1 X107.088 Y152.955 E1.52634
G1 X100.026 Y159.159 E1.65531
G1 X99.885 Y159.15 E1.65725
G1 X95.466 Y154.121 E1.7491
G1 X95.471 Y153.983 E1.75099
G1 X95.644 Y153.815 E1.7543
G1 X102.134 Y148.116 E1.8728
G1 X107.537 Y141.642 E1.98849
G1 X111.879 Y134.41 E2.10422
G1 X115.053 Y126.613 E2.21972
G1 X116.988 Y118.41 E2.33535
G1 X117.639 Y109.998 E2.45111
G1 X116.988 Y101.59 E2.56681
G1 X115.05 Y93.387 E2.68245
G1 X111.88 Y85.588 E2.79795
G1 X107.537 Y78.358 E2.91367
G1 X102.132 Y71.882 E3.0294
G1 X95.468 Y66.029 E3.15108
G1 X95.459 Y65.888 E3.15302
;;retract;;
G1 F6000 E-4.84698
G0 F3600 X109.259 Y117.199
G1 F6000 E3.15302
G1 F1200 X109.817 Y109.998 E3.25212
G1 X109.259 Y102.801 E3.35115
G1 X107.595 Y95.758 E3.45044
G1 X104.884 Y89.09 E3.5492
G1 X101.161 Y82.891 E3.64841
G1 X96.533 Y77.346 E3.7475
G1 X90.321 Y71.89 E3.86093
G1 X89.751 Y71.336 E3.87184
G1 X89.239 Y70.728 E3.88274
G1 X88.792 Y70.071 E3.89364
G1 X88.412 Y69.373 E3.90455
G1 X88.105 Y68.64 E3.91545
G1 X87.872 Y67.88 E3.92636
G1 X87.718 Y67.1 E3.93727
G1 X87.642 Y66.309 E3.94817
G1 X87.646 Y65.514 E3.95908
G1 X87.73 Y64.724 E3.96997
G1 X87.893 Y63.946 E3.98088
G1 X88.134 Y63.189 E3.99178
G1 X88.449 Y62.459 E4.00269
G1 X88.836 Y61.765 E4.01359
G1 X89.291 Y61.113 E4.0245
G1 X89.599 Y60.74 E4.03113
G1 X94.025 Y55.702 E4.12314
G1 X94.579 Y55.132 E4.13405
G1 X95.187 Y54.621 E4.14494
G1 X95.844 Y54.173 E4.15585
G1 X96.542 Y53.794 E4.16675
G1 X97.275 Y53.486 E4.17766
G1 X98.035 Y53.254 E4.18856
G1 X98.815 Y53.099 E4.19947
G1 X99.606 Y53.024 E4.21037
G1 X100.401 Y53.028 E4.22128
G1 X101.191 Y53.112 E4.23218
G1 X101.969 Y53.276 E4.24309
G1 X102.726 Y53.516 E4.25398
G1 X103.456 Y53.831 E4.26489
G1 X104.15 Y54.219 E4.2758
G1 X104.801 Y54.673 E4.28669
G1 X105.174 Y54.981 E4.29333
G1 X112.234 Y61.183 E4.42225
G1 X112.804 Y61.737 E4.43316
G1 X113.085 Y62.056 E4.43899
G1 X119.163 Y69.339 E4.56914
G1 X119.641 Y69.974 E4.58004
G1 X119.87 Y70.333 E4.58588
G1 X124.752 Y78.461 E4.71597
G1 X125.127 Y79.162 E4.72688
G1 X125.297 Y79.551 E4.7327
G1 X128.873 Y88.339 E4.86287
G1 X129.136 Y89.09 E4.87379
G1 X129.245 Y89.502 E4.87963
G1 X131.423 Y98.729 E5.00971
G1 X131.566 Y99.511 E5.02061
G1 X131.61 Y99.934 E5.02645
G1 X132.342 Y109.388 E5.15654
G1 X132.364 Y110.183 E5.16745
G1 X132.342 Y110.608 E5.17329
G1 X131.61 Y120.066 E5.30344
G1 X131.509 Y120.854 E5.31434
G1 X131.423 Y121.272 E5.3202
G1 X129.244 Y130.499 E5.45027
G1 X129.022 Y131.262 E5.46117
G1 X128.873 Y131.659 E5.46699
G1 X125.299 Y140.447 E5.59715
G1 X124.963 Y141.167 E5.60805
G1 X124.753 Y141.539 E5.61391
G1 X119.87 Y149.667 E5.744
G1 X119.427 Y150.327 E5.75491
G1 X119.163 Y150.661 E5.76075
G1 X113.087 Y157.942 E5.89086
G1 X112.548 Y158.525 E5.90175
G1 X112.236 Y158.815 E5.9076
G1 X105.174 Y165.019 E6.03656
G1 X104.551 Y165.513 E6.04747
G1 X103.882 Y165.942 E6.05837
G1 X103.173 Y166.301 E6.06928
G1 X102.432 Y166.587 E6.08018
G1 X101.666 Y166.798 E6.09108
G1 X100.882 Y166.93 E6.10198
G1 X100.089 Y166.983 E6.11289
G1 X99.295 Y166.956 E6.12379
G1 X98.507 Y166.849 E6.1347
G1 X97.734 Y166.664 E6.1456
G1 X96.984 Y166.402 E6.1565
G1 X96.264 Y166.066 E6.1674
G1 X95.581 Y165.659 E6.17831
G1 X94.943 Y165.186 E6.18921
G1 X94.355 Y164.651 E6.20011
G1 X94.026 Y164.299 E6.20673
G1 X89.607 Y159.27 E6.29857
G1 X89.113 Y158.647 E6.30948
G1 X88.684 Y157.978 E6.32039
G1 X88.324 Y157.269 E6.3313
G1 X88.038 Y156.528 E6.34219
G1 X87.827 Y155.761 E6.35311
G1 X87.695 Y154.978 E6.364
G1 X87.642 Y154.185 E6.37491
G1 X87.669 Y153.391 E6.38581
G1 X87.776 Y152.603 E6.39672
G1 X87.961 Y151.83 E6.40762
G1 X88.223 Y151.08 E6.41852
G1 X88.559 Y150.36 E6.42942
G1 X88.965 Y149.677 E6.44032
G1 X89.438 Y149.038 E6.45123
G1 X90.022 Y148.402 E6.46308
G1 X90.497 Y147.954 E6.47203
G1 X96.535 Y142.652 E6.58228
G1 X101.161 Y137.109 E6.68133
G1 X104.882 Y130.911 E6.78052
G1 X107.598 Y124.239 E6.87935
G1 X109.259 Y117.199 E6.97859
G0 F3600 X109.457 Y117.234
G1 F1200 X110.017 Y109.998 E7.07816
G1 X109.457 Y102.771 E7.17761
G1 X107.785 Y95.696 E7.27735
G1 X105.064 Y89.001 E7.3765
G1 X101.324 Y82.776 E7.47614
G1 X96.672 Y77.201 E7.57576
G1 X90.453 Y71.739 E7.68932
G1 X89.89 Y71.192 E7.70009
G1 X89.387 Y70.591 E7.71084
G1 X88.947 Y69.941 E7.72161
G1 X88.575 Y69.25 E7.73237
G1 X88.276 Y68.525 E7.74313
G1 X88.052 Y67.773 E7.7539
G1 X87.906 Y67.002 E7.76467
G1 X87.839 Y66.22 E7.77543
G1 X87.851 Y65.436 E7.78619
G1 X87.944 Y64.657 E7.79695
G1 X88.116 Y63.891 E7.80773
G1 X88.364 Y63.147 E7.81849
G1 X88.687 Y62.432 E7.82925
G1 X89.081 Y61.753 E7.84002
G1 X89.749 Y60.872 E7.85519
G1 X94.175 Y55.834 E7.94719
G1 X94.722 Y55.272 E7.95795
G1 X95.324 Y54.768 E7.96873
G1 X95.974 Y54.328 E7.9795
G1 X96.665 Y53.957 E7.99026
G1 X97.39 Y53.657 E8.00102
G1 X98.142 Y53.434 E8.01178
G1 X98.913 Y53.288 E8.02255
G1 X99.695 Y53.221 E8.03332
G1 X100.479 Y53.234 E8.04407
G1 X101.258 Y53.326 E8.05484
G1 X102.024 Y53.498 E8.06561
G1 X102.768 Y53.746 E8.07637
G1 X103.483 Y54.069 E8.08713
G1 X104.162 Y54.463 E8.0979
G1 X105.042 Y55.131 E8.11306
G1 X112.102 Y61.333 E8.24199
G1 X112.664 Y61.88 E8.25275
G1 X112.932 Y62.184 E8.25831
G1 X119.01 Y69.467 E8.38845
G1 X119.481 Y70.095 E8.39922
G1 X119.699 Y70.436 E8.40478
G1 X124.581 Y78.564 E8.53486
G1 X124.95 Y79.257 E8.54563
G1 X125.112 Y79.627 E8.55117
G1 X128.688 Y88.415 E8.68134
G1 X128.946 Y89.156 E8.69211
G1 X129.05 Y89.548 E8.69767
G1 X131.228 Y98.775 E8.82774
G1 X131.369 Y99.547 E8.83851
G1 X131.411 Y99.95 E8.84407
G1 X132.143 Y109.404 E8.97417
G1 X132.164 Y110.188 E8.98493
G1 X132.143 Y110.592 E8.99048
G1 X131.411 Y120.05 E9.12063
G1 X131.311 Y120.828 E9.13139
G1 X131.228 Y121.226 E9.13697
G1 X129.049 Y130.453 E9.26704
G1 X128.83 Y131.206 E9.2778
G1 X128.688 Y131.584 E9.28334
G1 X125.114 Y140.372 E9.4135
G1 X124.781 Y141.083 E9.42427
G1 X124.581 Y141.436 E9.42984
G1 X119.698 Y149.564 E9.55993
G1 X119.261 Y150.215 E9.57068
G1 X119.01 Y150.532 E9.57623
G1 X112.934 Y157.813 E9.70634
G1 X112.401 Y158.389 E9.71711
G1 X112.104 Y158.665 E9.72267
G1 X105.042 Y164.869 E9.85164
G1 X104.427 Y165.356 E9.8624
G1 X103.765 Y165.778 E9.87317
G1 X103.064 Y166.13 E9.88393
G1 X102.331 Y166.41 E9.8947
G1 X101.573 Y166.613 E9.90546
G1 X100.799 Y166.738 E9.91622
G1 X100.016 Y166.784 E9.92698
G1 X99.232 Y166.749 E9.93775
G1 X98.456 Y166.636 E9.94851
G1 X97.695 Y166.443 E9.95928
G1 X96.958 Y166.175 E9.97004
G1 X96.252 Y165.832 E9.98081
G1 X95.584 Y165.42 E9.99157
G1 X94.962 Y164.942 E10.00234
G1 X94.176 Y164.167 E10.01748
G1 X89.757 Y159.138 E10.10933
G1 X89.27 Y158.523 E10.12009
G1 X88.848 Y157.861 E10.13086
G1 X88.495 Y157.16 E10.14163
G1 X88.215 Y156.427 E10.1524
G1 X88.012 Y155.669 E10.16316
G1 X87.887 Y154.895 E10.17392
G1 X87.841 Y154.112 E10.18468
G1 X87.875 Y153.328 E10.19545
G1 X87.989 Y152.551 E10.20622
G1 X88.181 Y151.791 E10.21698
G1 X88.45 Y151.053 E10.22775
G1 X88.792 Y150.347 E10.23852
G1 X89.205 Y149.68 E10.24928
G1 X89.683 Y149.058 E10.26004
G1 X90.162 Y148.545 E10.26967
G1 X90.629 Y148.104 E10.27848
G1 X96.677 Y142.793 E10.38891
G1 X101.324 Y137.224 E10.48843
G1 X105.062 Y130.998 E10.58806
G1 X107.79 Y124.298 E10.68731
G1 X109.457 Y117.234 E10.78689
G0 F3600 X109.655 Y117.264
G1 F1200 X110.217 Y109.998 E10.88687
G1 X109.655 Y102.736 E10.9868
G1 X107.977 Y95.637 E11.08689
G1 X105.242 Y88.908 E11.18654
G1 X101.489 Y82.66 E11.28654
G1 X96.817 Y77.063 E11.38656
G1 X90.585 Y71.589 E11.50037
G1 X90.03 Y71.049 E11.51099
G1 X89.534 Y70.454 E11.52162
G1 X89.102 Y69.812 E11.53223
G1 X88.739 Y69.128 E11.54286
G1 X88.448 Y68.41 E11.55349
G1 X88.232 Y67.667 E11.5641
G1 X88.094 Y66.904 E11.57474
G1 X88.036 Y66.132 E11.58536
G1 X88.058 Y65.358 E11.59599
G1 X88.159 Y64.591 E11.6066
G1 X88.339 Y63.837 E11.61724
G1 X88.595 Y63.107 E11.62785
G1 X88.926 Y62.407 E11.63847
G1 X89.327 Y61.744 E11.6491
G1 X89.9 Y61.004 E11.66194
G1 X94.326 Y55.966 E11.75395
G1 X94.866 Y55.411 E11.76457
G1 X95.461 Y54.916 E11.77519
G1 X96.103 Y54.484 E11.78581
G1 X96.787 Y54.12 E11.79644
G1 X97.505 Y53.829 E11.80707
G1 X98.249 Y53.614 E11.81769
G1 X99.011 Y53.476 E11.82832
G1 X99.783 Y53.418 E11.83894
G1 X100.557 Y53.44 E11.84956
G1 X101.324 Y53.541 E11.86018
G1 X102.078 Y53.721 E11.87081
G1 X102.808 Y53.978 E11.88143
G1 X103.508 Y54.308 E11.89205
G1 X104.171 Y54.71 E11.90269
G1 X104.91 Y55.281 E11.9155
G1 X111.97 Y61.483 E12.04443
G1 X112.778 Y62.312 E12.06031
G1 X118.856 Y69.595 E12.19046
G1 X119.527 Y70.539 E12.20635
G1 X124.409 Y78.667 E12.33643
G1 X124.927 Y79.702 E12.35231
G1 X128.503 Y88.49 E12.48248
G1 X128.855 Y89.594 E12.49838
G1 X131.033 Y98.821 E12.62845
G1 X131.212 Y99.965 E12.64433
G1 X131.944 Y109.419 E12.77443
G1 X131.944 Y110.577 E12.79032
G1 X131.212 Y120.035 E12.92047
G1 X131.033 Y121.18 E12.93637
G1 X128.854 Y130.407 E13.06644
G1 X128.502 Y131.508 E13.0823
G1 X124.928 Y140.296 E13.21246
G1 X124.41 Y141.333 E13.22836
G1 X119.527 Y149.461 E13.35845
G1 X118.856 Y150.404 E13.37433
G1 X112.78 Y157.685 E13.50444
G1 X111.972 Y158.515 E13.52033
G1 X104.91 Y164.719 E13.6493
G1 X104.303 Y165.199 E13.65992
G1 X103.649 Y165.614 E13.67054
G1 X102.956 Y165.96 E13.68117
G1 X102.231 Y166.232 E13.69179
G1 X101.482 Y166.428 E13.70242
G1 X100.717 Y166.546 E13.71304
G1 X99.943 Y166.584 E13.72367
G1 X99.17 Y166.542 E13.73429
G1 X98.405 Y166.421 E13.74492
G1 X97.657 Y166.222 E13.75554
G1 X96.933 Y165.946 E13.76617
G1 X96.242 Y165.598 E13.77678
G1 X95.59 Y165.179 E13.78741
G1 X94.985 Y164.696 E13.79804
G1 X94.326 Y164.035 E13.81084
G1 X89.907 Y159.006 E13.90269
G1 X89.427 Y158.398 E13.91332
G1 X89.011 Y157.745 E13.92394
G1 X88.666 Y157.052 E13.93456
G1 X88.393 Y156.327 E13.94519
G1 X88.197 Y155.578 E13.95581
G1 X88.079 Y154.813 E13.96643
G1 X88.041 Y154.039 E13.97706
G1 X88.083 Y153.266 E13.98769
G1 X88.204 Y152.501 E13.99831
G1 X88.403 Y151.753 E14.00893
G1 X88.678 Y151.029 E14.01956
G1 X89.027 Y150.338 E14.03018
G1 X89.445 Y149.686 E14.0408
G1 X89.928 Y149.081 E14.05142
G1 X90.302 Y148.689 E14.05886
G1 X90.761 Y148.254 E14.06753
G1 X96.826 Y142.929 E14.17827
G1 X101.487 Y137.343 E14.27808
G1 X105.242 Y131.088 E14.37817
G1 X107.979 Y124.366 E14.47775
G1 X109.655 Y117.264 E14.57786
G0 F3600 X109.854 Y117.291
G1 F1200 X110.418 Y109.998 E14.67822
G1 X109.854 Y102.706 E14.77856
G1 X108.169 Y95.58 E14.87903
G1 X105.421 Y88.819 E14.97916
G1 X101.651 Y82.542 E15.07962
G1 X96.962 Y76.924 E15.18001
G1 X90.717 Y71.439 E15.29405
G1 X90.17 Y70.905 E15.30454
G1 X89.682 Y70.318 E15.31501
G1 X89.258 Y69.682 E15.3255
G1 X88.903 Y69.006 E15.33597
G1 X88.62 Y68.296 E15.34646
G1 X88.413 Y67.561 E15.35693
G1 X88.284 Y66.808 E15.36742
G1 X88.235 Y66.046 E15.37789
G1 X88.265 Y65.282 E15.38838
G1 X88.375 Y64.526 E15.39886
G1 X88.563 Y63.786 E15.40934
G1 X88.828 Y63.069 E15.41983
G1 X89.166 Y62.384 E15.43031
G1 X89.574 Y61.738 E15.44079
G1 X90.05 Y61.136 E15.45132
G1 X94.476 Y56.098 E15.54332
G1 X95.009 Y55.551 E15.5538
G1 X95.597 Y55.063 E15.56429
G1 X96.233 Y54.639 E15.57477
G1 X96.909 Y54.284 E15.58525
G1 X97.619 Y54.002 E15.59573
G1 X98.354 Y53.795 E15.60621
G1 X99.107 Y53.666 E15.61669
G1 X99.869 Y53.617 E15.62716
G1 X100.633 Y53.647 E15.63765
G1 X101.389 Y53.757 E15.64814
G1 X102.129 Y53.946 E15.65861
G1 X102.846 Y54.211 E15.6691
G1 X103.531 Y54.549 E15.67958
G1 X104.176 Y54.957 E15.69005
G1 X104.778 Y55.432 E15.70057
G1 X111.838 Y61.634 E15.8295
G1 X112.625 Y62.441 E15.84497
G1 X118.703 Y69.724 E15.97511
G1 X119.356 Y70.642 E15.99057
G1 X124.238 Y78.77 E16.12065
G1 X124.742 Y79.778 E16.13611
G1 X128.318 Y88.566 E16.26628
G1 X128.661 Y89.64 E16.28175
G1 X130.839 Y98.867 E16.41182
G1 X131.012 Y99.98 E16.42728
G1 X131.744 Y109.434 E16.55737
G1 X131.744 Y110.561 E16.57284
G1 X131.012 Y120.019 E16.70299
G1 X130.839 Y121.134 E16.71847
G1 X128.66 Y130.361 E16.84854
G1 X128.317 Y131.433 E16.86398
G1 X124.743 Y140.221 E16.99414
G1 X124.239 Y141.23 E17.00962
G1 X119.356 Y149.358 E17.13971
G1 X118.703 Y150.276 E17.15516
G1 X112.627 Y157.557 E17.28527
G1 X111.84 Y158.364 E17.30074
G1 X104.778 Y164.568 E17.4297
G1 X104.178 Y165.042 E17.44019
G1 X103.533 Y165.45 E17.45066
G1 X102.848 Y165.788 E17.46114
G1 X102.131 Y166.054 E17.47164
G1 X101.391 Y166.242 E17.48211
G1 X100.635 Y166.353 E17.4926
G1 X99.872 Y166.383 E17.50307
G1 X99.11 Y166.334 E17.51355
G1 X98.357 Y166.206 E17.52403
G1 X97.621 Y165.999 E17.53452
G1 X96.911 Y165.717 E17.545
G1 X96.235 Y165.362 E17.55547
G1 X95.599 Y164.938 E17.56596
G1 X95.011 Y164.45 E17.57644
G1 X94.476 Y163.903 E17.58694
G1 X90.057 Y158.874 E17.67879
