;FLAVOR:Marlin
;TIME:7565
;Filament used:2.51788m
;Layer height: 0.2
;MINX:71.637
;MINY:71.637
;MINZ:0.15
;MAXX:148.363
;MAXY:148.363
;MAXZ:21.35
                            
;Creality Print GCode Generated by CXEngineDEV
;Generated Time:2022-06-30 15:03:09
;----------Machine Config--------------
;Machine Name:Creality Ender-3
;Machine Height:250
;Machine Width:220
;Machine Depth:220
;Material name:Castable
;Number of Extruders:1
;ExtruderParams[0] Nozzle Diameter1000
;----------Profile Config---------------
;Layer Height:0.2
;Wall Thickness:0.8
;Top/Bottom Thickness:1
;Out Wall Line Width:0.2
;Inner Wall Line Width:0.2
;Inital Layer Height:150
;Wall Line Count:4
;Infill Line Distance:2
;Infill Pattern:zigzag
;Infill Sparse Density:10
;Infill Wipe Distance:0
;Print Temperature:235
;Bed Temperature:74
;Support Enable:false
;Support Density:10
;Support Angle:0
;Adhesion Type:brim
;machine is belt:false
;machine belt offset:10
;machine belt offset Y:0
;Raft Base Line Spacing:1.6
;Wait Heatup Sync:true
;----------Shell Config----------------
;Outer Wall Wipe Distance:200
;Infill Before Walls:false
;Infill Overlap:0.08
;Fill Gaps Between Walls:everywhere
;Minimum Infill Area:1
;Top Surface Skin Layer:0
;Top Layers:3
;Z Seam Alignment:sharpest_corner
;Seam Corner Preference:z_seam_corner_inner
;Z Seam X:110
;Z Seam Y:110
;Horizontal Expansion:0
;Top/Bottom Pattern:zigzag
;Ironing Pattern:zigzag
;Vase Model:false
;----------Support Config----------------
;Support Type:everywhere
;Support Pattern:zigzag
;Support Infill Layer Thickness:0.2
;Minimum Support Area:5
;Enable Support Roof:false
;Support Roof Thickness:0.8
;Support Roof Pattern:lines
;Connect Support Lines:0
;Connect Support ZigZags:1
;Minimum Support X/Y Distance:0.2
;Support Line Distance:2
; ---------PrintSpeed & Travel----------
;Enable Print Cool:true
;Avoid Printed Parts Traveling:true
;Enable Retraction:true
;Retraction Distance:8
;Retraction Speed:100
;Retraction Prime Speed:100
;Maximum Retraction Count:100
;Minimum Extrusion Distance Window:1
;Z Hop When Retracted:false
;Z Hop Height:0.2
;Retract Before Outer Wall:true
;Print Speed:40
;Infill Speed:40

;Prime Tower Speed:40
;Travel Speed:120
;Initial Layer Speed:20
;Skirt/Brim Speed:20
;Combing Mode:off
; --------SpecialModel&Mesh Fixes--------
;Union Overlapping Volum:true
;Remove All Holes:false
;Maximum Travel Resolution:0.4
;Maximum Deviation:0.05
;Maximum Model Angle:0.872665
;IS Mold Print:false
;Make Overhang Printable:false
;Enable Coasting:false
;Coasting Volumes:0.06
;Coasting Speed:0.9
;Raft AirGap:0.25
;Layer0 ZOverLap:0.13
;---------------------End of Head--------------------------
M140 S74
M105
M104 S235
M105
M109 S235
M105
M190 S74
M82 ;absolute extrusion mode
M220 S100 ;Reset Feedrate
M221 S100 ;Reset Flowrate

G28 ;Home

G92 E0 ;Reset Extruder
G1 Z2.0 F3000 ;Move Z Axis up
G1 X10.1 Y20 Z0.28 F5000.0 ;Move to start position
G1 X10.1 Y145.0 Z0.28 F1500.0 E15 ;Draw the first line
G1 X10.4 Y145.0 Z0.28 F5000.0 ;Move to side a little
G1 X10.4 Y20 Z0.28 F1500.0 E30 ;Draw the second line
G92 E0  ;Reset Extruder
G1 E-1.0000 F1800 ;Retract a bit
G1 Z2.0 F3000 ;Move Z Axis up
G1 E0.0000 F1800 

G92 E0
G92 E0
G1 F6000 E-8

;LAYER_COUNT:107

;LAYER:0
M107
G0 F3600 X83.238 Y82.507 Z0.15
;;retract;;
G0 X131.62 Y131.627
;TYPE:SKIRT
G1 F6000 E0
G1 F1200 X128.612 Y134.263 E0.05487
G1 X125.283 Y136.486 E0.10979
G1 X121.695 Y138.256 E0.16468
G1 X117.91 Y139.538 E0.21951
G1 X113.984 Y140.319 E0.27443
G1 X109.993 Y140.58 E0.3293
G1 X106.003 Y140.317 E0.38416
G1 X102.078 Y139.535 E0.43907
G1 X98.293 Y138.251 E0.49391
G1 X94.705 Y136.479 E0.54881
G1 X91.378 Y134.255 E0.60372
G1 X88.371 Y131.618 E0.65859
G1 X85.737 Y128.612 E0.71342
G1 X83.514 Y125.283 E0.76834
G1 X81.744 Y121.695 E0.82323
G1 X80.462 Y117.91 E0.87806
G1 X79.681 Y113.984 E0.93298
G1 X79.42 Y109.994 E0.98784
G1 X79.683 Y106.003 E1.04271
G1 X80.465 Y102.078 E1.09762
G1 X81.749 Y98.293 E1.15246
G1 X83.521 Y94.705 E1.20736
G1 X85.745 Y91.378 E1.26227
G1 X88.38 Y88.373 E1.3171
G1 X91.388 Y85.737 E1.37197
G1 X94.717 Y83.514 E1.42689
G1 X98.305 Y81.744 E1.48179
G1 X102.09 Y80.462 E1.53661
G1 X106.016 Y79.681 E1.59153
G1 X110.007 Y79.42 E1.6464
G1 X113.997 Y79.683 E1.70127
G1 X117.922 Y80.465 E1.75617
G1 X121.707 Y81.749 E1.81101
G1 X125.295 Y83.521 E1.86591
G1 X128.622 Y85.745 E1.92082
G1 X131.627 Y88.38 E1.97565
G1 X134.263 Y91.388 E2.03052
G1 X136.485 Y94.715 E2.08541
G1 X138.255 Y98.302 E2.14029
G1 X139.538 Y102.09 E2.19516
G1 X140.319 Y106.016 E2.25008
G1 X140.58 Y110.006 E2.30494
G1 X140.317 Y113.997 E2.35982
G1 X139.535 Y117.922 E2.41473
G1 X138.251 Y121.707 E2.46956
G1 X136.479 Y125.295 E2.52446
G1 X134.255 Y128.622 E2.57937
G1 X131.62 Y131.627 E2.6342
G0 F3600 X131.752 Y131.778
G1 F1200 X128.723 Y134.429 E2.68943
G1 X125.372 Y136.665 E2.7447
G1 X121.759 Y138.445 E2.79996
G1 X117.949 Y139.734 E2.85514
G1 X113.997 Y140.518 E2.91042
G1 X109.98 Y140.779 E2.96565
G1 X105.964 Y140.513 E3.02087
G1 X102.014 Y139.724 E3.07613
G1 X98.204 Y138.43 E3.13133
G1 X94.594 Y136.645 E3.18659
G1 X91.246 Y134.406 E3.24185
G1 X88.22 Y131.75 E3.29709
G1 X85.571 Y128.723 E3.35227
G1 X83.335 Y125.372 E3.40754
G1 X81.555 Y121.759 E3.4628
G1 X80.266 Y117.949 E3.51799
G1 X79.482 Y113.997 E3.57326
G1 X79.221 Y109.981 E3.62848
G1 X79.487 Y105.964 E3.68371
G1 X80.276 Y102.014 E3.73897
G1 X81.57 Y98.204 E3.79418
G1 X83.355 Y94.594 E3.84943
G1 X85.594 Y91.246 E3.90469
G1 X88.248 Y88.222 E3.95989
G1 X91.277 Y85.571 E4.01512
G1 X94.628 Y83.335 E4.07039
G1 X98.241 Y81.555 E4.12565
G1 X102.051 Y80.266 E4.18083
G1 X106.003 Y79.482 E4.23611
G1 X110.02 Y79.221 E4.29134
G1 X114.036 Y79.487 E4.34656
G1 X117.986 Y80.276 E4.40182
G1 X121.796 Y81.57 E4.45702
G1 X125.406 Y83.355 E4.51228
G1 X128.754 Y85.594 E4.56754
G1 X131.778 Y88.248 E4.62274
G1 X134.429 Y91.277 E4.67796
G1 X136.664 Y94.626 E4.7332
G1 X138.444 Y98.238 E4.78845
G1 X139.734 Y102.051 E4.84368
G1 X140.518 Y106.003 E4.89895
G1 X140.779 Y110.019 E4.95417
G1 X140.513 Y114.036 E5.0094
G1 X139.724 Y117.986 E5.06466
G1 X138.43 Y121.796 E5.11987
G1 X136.645 Y125.406 E5.17512
G1 X134.406 Y128.754 E5.23038
G1 X131.752 Y131.778 E5.28558
G0 F3600 X131.93 Y131.882
G1 F1200 X128.886 Y134.556 E5.34117
G1 X125.517 Y136.812 E5.3968
G1 X121.884 Y138.609 E5.45241
G1 X121.824 Y138.635 E5.4533
G1 X117.988 Y139.93 E5.50885
G1 X114.01 Y140.718 E5.56449
G1 X109.967 Y140.979 E5.62007
G1 X105.925 Y140.709 E5.67565
G1 X101.949 Y139.914 E5.73128
G1 X98.176 Y138.635 E5.78594
G1 X94.54 Y136.844 E5.84155
G1 X91.166 Y134.596 E5.89717
G1 X88.116 Y131.928 E5.95277
G1 X85.444 Y128.886 E6.00832
G1 X83.188 Y125.517 E6.06395
G1 X81.391 Y121.884 E6.11956
G1 X81.365 Y121.824 E6.12045
G1 X80.07 Y117.988 E6.176
G1 X79.282 Y114.01 E6.23164
G1 X79.021 Y109.968 E6.28721
G1 X79.291 Y105.925 E6.3428
G1 X80.086 Y101.949 E6.39843
G1 X81.365 Y98.176 E6.45309
G1 X83.156 Y94.54 E6.5087
G1 X85.404 Y91.166 E6.56432
G1 X88.07 Y88.118 E6.61988
G1 X91.114 Y85.444 E6.67547
G1 X94.483 Y83.188 E6.7311
G1 X98.116 Y81.391 E6.78671
G1 X98.176 Y81.365 E6.7876
G1 X102.012 Y80.07 E6.84315
G1 X105.99 Y79.282 E6.89879
G1 X110.033 Y79.021 E6.95437
G1 X114.075 Y79.291 E7.00995
G1 X118.051 Y80.086 E7.06558
G1 X121.824 Y81.365 E7.12024
G1 X125.46 Y83.156 E7.17585
G1 X128.834 Y85.404 E7.23147
G1 X131.882 Y88.07 E7.28703
G1 X134.556 Y91.114 E7.34262
G1 X136.811 Y94.481 E7.39822
G1 X138.608 Y98.113 E7.45381
G1 X138.634 Y98.173 E7.45471
G1 X139.93 Y102.012 E7.5103
G1 X140.718 Y105.99 E7.56594
G1 X140.979 Y110.032 E7.62151
G1 X140.709 Y114.075 E7.6771
G1 X139.914 Y118.051 E7.73273
G1 X138.635 Y121.824 E7.78739
G1 X136.844 Y125.46 E7.843
G1 X134.596 Y128.834 E7.89862
G1 X131.93 Y131.882 E7.95418
G0 F3600 X132.015 Y132.078
G1 F1200 X129.017 Y134.706 E8.00888
G1 X128.945 Y134.762 E8.01013
G1 X125.628 Y136.978 E8.06486
G1 X125.549 Y137.024 E8.06611
G1 X121.973 Y138.789 E8.12083
G1 X121.888 Y138.824 E8.12209
G1 X118.115 Y140.103 E8.17674
G1 X118.027 Y140.127 E8.178
G1 X114.114 Y140.906 E8.23274
G1 X110.046 Y141.178 E8.28867
G1 X109.954 Y141.178 E8.28993
G1 X105.886 Y140.906 E8.34587
G1 X101.973 Y140.127 E8.40061
G1 X101.885 Y140.103 E8.40186
G1 X98.112 Y138.824 E8.45652
G1 X98.027 Y138.789 E8.45778
G1 X94.451 Y137.024 E8.51249
G1 X94.372 Y136.978 E8.51375
G1 X91.055 Y134.762 E8.56848
G1 X90.983 Y134.706 E8.56973
G1 X87.985 Y132.078 E8.62443
G1 X87.92 Y132.013 E8.62569
G1 X85.294 Y129.017 E8.68035
G1 X85.238 Y128.945 E8.6816
G1 X83.022 Y125.628 E8.73633
G1 X82.976 Y125.549 E8.73758
G1 X81.211 Y121.973 E8.7923
G1 X81.176 Y121.888 E8.79356
G1 X79.897 Y118.115 E8.84821
G1 X79.873 Y118.027 E8.84947
G1 X79.094 Y114.114 E8.90421
G1 X78.822 Y110.047 E8.96013
G1 X78.822 Y109.955 E8.96139
G1 X79.094 Y105.886 E9.01734
G1 X79.873 Y101.973 E9.07208
G1 X79.897 Y101.885 E9.07333
G1 X81.176 Y98.112 E9.12799
G1 X81.211 Y98.027 E9.12925
G1 X82.976 Y94.451 E9.18396
G1 X83.022 Y94.372 E9.18522
G1 X85.238 Y91.055 E9.23995
G1 X85.294 Y90.983 E9.2412
G1 X87.92 Y87.987 E9.29586
G1 X87.985 Y87.922 E9.29712
G1 X90.983 Y85.294 E9.35182
G1 X91.055 Y85.238 E9.35307
G1 X94.372 Y83.022 E9.4078
G1 X94.451 Y82.976 E9.40905
G1 X98.027 Y81.211 E9.46377
G1 X98.112 Y81.176 E9.46503
G1 X101.885 Y79.897 E9.51969
G1 X101.973 Y79.873 E9.52094
G1 X105.886 Y79.094 E9.57568
G1 X109.954 Y78.822 E9.63161
G1 X110.046 Y78.822 E9.63287
G1 X114.114 Y79.094 E9.68881
G1 X118.027 Y79.873 E9.74355
G1 X118.115 Y79.897 E9.7448
G1 X121.888 Y81.176 E9.79946
G1 X121.973 Y81.211 E9.80072
G1 X125.549 Y82.976 E9.85543
G1 X125.628 Y83.022 E9.85669
G1 X128.945 Y85.238 E9.91142
G1 X129.017 Y85.294 E9.91267
G1 X132.013 Y87.92 E9.96733
G1 X132.078 Y87.985 E9.96859
G1 X134.706 Y90.983 E10.02329
G1 X134.762 Y91.055 E10.02454
G1 X136.977 Y94.37 E10.07924
G1 X137.023 Y94.449 E10.08049
G1 X138.788 Y98.024 E10.13519
G1 X138.823 Y98.109 E10.13645
G1 X140.103 Y101.885 E10.19116
G1 X140.127 Y101.973 E10.19241
G1 X140.906 Y105.886 E10.24715
G1 X141.178 Y109.953 E10.30307
G1 X141.178 Y110.045 E10.30433
G1 X140.906 Y114.114 E10.36028
G1 X140.127 Y118.027 E10.41502
G1 X140.103 Y118.115 E10.41627
G1 X138.824 Y121.888 E10.47093
G1 X138.789 Y121.973 E10.47219
G1 X137.024 Y125.549 E10.52691
G1 X136.978 Y125.628 E10.52816
G1 X134.762 Y128.945 E10.58289
G1 X134.706 Y129.017 E10.58414
G1 X132.08 Y132.013 E10.6388
G1 X132.015 Y132.078 E10.64006
G0 F3600 X132.147 Y132.229
G1 F1200 X129.149 Y134.857 E10.69476
G1 X129.056 Y134.928 E10.69636
G1 X125.739 Y137.144 E10.75109
G1 X125.637 Y137.203 E10.75271
G1 X122.061 Y138.968 E10.80742
G1 X121.952 Y139.013 E10.80904
G1 X118.179 Y140.292 E10.8637
G1 X118.066 Y140.323 E10.86531
G1 X114.153 Y141.102 E10.92005
G1 X114.036 Y141.117 E10.92166
G1 X110.059 Y141.378 E10.97635
G1 X109.941 Y141.378 E10.97796
G1 X105.964 Y141.117 E11.03265
G1 X105.847 Y141.102 E11.03426
G1 X101.934 Y140.323 E11.089
G1 X101.821 Y140.292 E11.09061
G1 X98.048 Y139.013 E11.14527
G1 X97.939 Y138.968 E11.14689
G1 X94.363 Y137.203 E11.2016
G1 X94.261 Y137.144 E11.20322
G1 X90.944 Y134.928 E11.25795
G1 X90.851 Y134.857 E11.25955
G1 X87.853 Y132.229 E11.31425
G1 X87.769 Y132.145 E11.31588
G1 X85.143 Y129.149 E11.37054
G1 X85.072 Y129.056 E11.37214
G1 X82.856 Y125.739 E11.42687
G1 X82.797 Y125.637 E11.42849
G1 X81.032 Y122.061 E11.4832
G1 X80.987 Y121.952 E11.48482
G1 X79.708 Y118.179 E11.53948
G1 X79.677 Y118.066 E11.54109
G1 X78.898 Y114.153 E11.59583
G1 X78.883 Y114.036 E11.59744
G1 X78.622 Y110.06 E11.65211
G1 X78.622 Y109.942 E11.65373
G1 X78.883 Y105.964 E11.70843
G1 X78.898 Y105.847 E11.71004
G1 X79.677 Y101.934 E11.76478
G1 X79.708 Y101.821 E11.76639
G1 X80.987 Y98.048 E11.82105
G1 X81.032 Y97.939 E11.82267
G1 X82.797 Y94.363 E11.87738
G1 X82.856 Y94.261 E11.879
G1 X85.072 Y90.944 E11.93373
G1 X85.143 Y90.851 E11.93533
G1 X87.769 Y87.855 E11.98999
G1 X87.853 Y87.771 E11.99162
G1 X90.851 Y85.143 E12.04632
G1 X90.944 Y85.072 E12.04792
G1 X94.261 Y82.856 E12.10265
G1 X94.363 Y82.797 E12.10427
G1 X97.939 Y81.032 E12.15898
G1 X98.048 Y80.987 E12.1606
G1 X101.821 Y79.708 E12.21526
G1 X101.934 Y79.677 E12.21687
G1 X105.847 Y78.898 E12.27161
G1 X105.964 Y78.883 E12.27322
G1 X109.941 Y78.622 E12.3279
G1 X110.059 Y78.622 E12.32952
G1 X114.036 Y78.883 E12.3842
G1 X114.153 Y78.898 E12.38582
G1 X118.066 Y79.677 E12.44056
G1 X118.179 Y79.708 E12.44217
G1 X121.952 Y80.987 E12.49683
G1 X122.061 Y81.032 E12.49845
G1 X125.637 Y82.797 E12.55316
G1 X125.739 Y82.856 E12.55477
G1 X129.056 Y85.072 E12.6095
G1 X129.149 Y85.143 E12.61111
G1 X132.145 Y87.769 E12.66577
G1 X132.229 Y87.853 E12.6674
G1 X134.857 Y90.851 E12.7221
G1 X134.928 Y90.944 E12.7237
G1 X137.143 Y94.259 E12.7784
G1 X137.202 Y94.361 E12.78002
G1 X138.967 Y97.936 E12.83472
G1 X139.012 Y98.045 E12.83634
G1 X140.292 Y101.821 E12.89104
G1 X140.323 Y101.934 E12.89265
G1 X141.102 Y105.847 E12.94739
G1 X141.117 Y105.964 E12.949
G1 X141.378 Y109.94 E13.00367
G1 X141.378 Y110.058 E13.00529
G1 X141.117 Y114.036 E13.05998
G1 X141.102 Y114.153 E13.0616
G1 X140.323 Y118.066 E13.11634
G1 X140.292 Y118.179 E13.11795
G1 X139.013 Y121.952 E13.17261
G1 X138.968 Y122.061 E13.17423
G1 X137.203 Y125.637 E13.22894
G1 X137.144 Y125.739 E13.23055
G1 X134.928 Y129.056 E13.28528
G1 X134.857 Y129.149 E13.28689
G1 X132.231 Y132.145 E13.34155
G1 X132.147 Y132.229 E13.34318
G0 F3600 X132.279 Y132.379
G1 F1200 X129.281 Y135.007 E13.39788
G1 X129.167 Y135.095 E13.39985
G1 X125.85 Y137.311 E13.45458
G1 X125.726 Y137.382 E13.45654
G1 X122.15 Y139.147 E13.51126
G1 X122.016 Y139.203 E13.51325
G1 X118.243 Y140.482 E13.56791
G1 X118.105 Y140.519 E13.56987
G1 X114.192 Y141.298 E13.62461
G1 X114.049 Y141.317 E13.62659
G1 X110.072 Y141.578 E13.68127
G1 X109.928 Y141.578 E13.68324
G1 X105.951 Y141.317 E13.73792
G1 X105.808 Y141.298 E13.7399
G1 X101.895 Y140.519 E13.79464
G1 X101.757 Y140.482 E13.7966
G1 X97.984 Y139.203 E13.85126
G1 X97.85 Y139.147 E13.85325
G1 X94.274 Y137.382 E13.90796
G1 X94.15 Y137.311 E13.90993
G1 X90.833 Y135.095 E13.96466
G1 X90.719 Y135.007 E13.96663
G1 X87.721 Y132.379 E14.02133
G1 X87.619 Y132.277 E14.02331
G1 X84.993 Y129.281 E14.07797
G1 X84.905 Y129.167 E14.07994
G1 X82.689 Y125.85 E14.13467
G1 X82.618 Y125.726 E14.13663
G1 X80.853 Y122.15 E14.19135
G1 X80.797 Y122.016 E14.19334
G1 X79.518 Y118.243 E14.248
G1 X79.481 Y118.105 E14.24996
G1 X78.702 Y114.192 E14.3047
G1 X78.683 Y114.049 E14.30668
G1 X78.422 Y110.073 E14.36134
G1 X78.422 Y109.929 E14.36332
G1 X78.683 Y105.951 E14.41801
G1 X78.702 Y105.808 E14.41999
G1 X79.481 Y101.895 E14.47473
G1 X79.518 Y101.757 E14.47669
G1 X80.797 Y97.984 E14.53135
G1 X80.853 Y97.85 E14.53334
G1 X82.618 Y94.274 E14.58805
G1 X82.689 Y94.15 E14.59001
G1 X84.905 Y90.833 E14.64475
G1 X84.993 Y90.719 E14.64672
G1 X87.619 Y87.723 E14.70138
G1 X87.721 Y87.621 E14.70336
G1 X90.719 Y84.993 E14.75806
G1 X90.833 Y84.905 E14.76003
G1 X94.15 Y82.689 E14.81476
G1 X94.274 Y82.618 E14.81672
G1 X97.85 Y80.853 E14.87144
G1 X97.984 Y80.797 E14.87343
G1 X101.757 Y79.518 E14.92809
G1 X101.895 Y79.481 E14.93005
G1 X105.808 Y78.702 E14.98479
G1 X105.951 Y78.683 E14.98677
G1 X109.928 Y78.422 E15.04145
G1 X110.072 Y78.422 E15.04342
G1 X114.049 Y78.683 E15.0981
G1 X114.192 Y78.702 E15.10008
G1 X118.105 Y79.481 E15.15482
G1 X118.243 Y79.518 E15.15678
G1 X122.016 Y80.797 E15.21144
G1 X122.15 Y80.853 E15.21343
G1 X125.726 Y82.618 E15.26814
G1 X125.85 Y82.689 E15.2701
G1 X129.167 Y84.905 E15.32484
G1 X129.281 Y84.993 E15.32681
G1 X132.277 Y87.619 E15.38147
G1 X132.379 Y87.721 E15.38345
G1 X135.007 Y90.719 E15.43815
G1 X135.095 Y90.833 E15.44012
G1 X137.31 Y94.148 E15.49482
G1 X137.381 Y94.272 E15.49678
G1 X139.146 Y97.847 E15.55148
G1 X139.202 Y97.981 E15.55348
G1 X140.482 Y101.757 E15.60818
G1 X140.519 Y101.895 E15.61014
G1 X141.298 Y105.808 E15.66488
G1 X141.317 Y105.951 E15.66686
G1 X141.578 Y109.927 E15.72152
G1 X141.578 Y110.071 E15.7235
G1 X141.317 Y114.049 E15.77819
G1 X141.298 Y114.192 E15.78017
G1 X140.519 Y118.105 E15.83491
G1 X140.482 Y118.243 E15.83687
G1 X139.203 Y122.016 E15.89153
G1 X139.147 Y122.15 E15.89352
G1 X137.382 Y125.726 E15.94824
G1 X137.311 Y125.85 E15.9502
G1 X135.095 Y129.167 E16.00493
