;FLAVOR:Marlin
;TIME:3682
;Filament used:1.20421m
;Layer height: 0.2
;MINX:97.02
;MINY:53.84
;MINZ:0.15
;MAXX:122.98
;MAXY:166.16
;MAXZ:7.55
                                 
;Creality Print GCode Generated by CXEngineDEV
;Generated Time:2022-06-30 15:03:09
;----------Machine Config--------------
;Machine Name:Creality Ender-3
;Machine Height:250
;Machine Width:220
;Machine Depth:220
;Material name:Castable
;Number of Extruders:1
;ExtruderParams[0] Nozzle Diameter1000
;----------Profile Config---------------
;Layer Height:0.2
;Wall Thickness:0.8
;Top/Bottom Thickness:1
;Out Wall Line Width:0.2
;Inner Wall Line Width:0.2
;Inital Layer Height:150
;Wall Line Count:4
;Infill Line Distance:2
;Infill Pattern:zigzag
;Infill Sparse Density:10
;Infill Wipe Distance:0
;Print Temperature:235
;Bed Temperature:74
;Support Enable:false
;Support Density:10
;Support Angle:0
;Adhesion Type:brim
;machine is belt:false
;machine belt offset:10
;machine belt offset Y:0
;Raft Base Line Spacing:1.6
;Wait Heatup Sync:true
;----------Shell Config----------------
;Outer Wall Wipe Distance:200
;Infill Before Walls:false
;Infill Overlap:0.08
;Fill Gaps Between Walls:everywhere
;Minimum Infill Area:1
;Top Surface Skin Layer:0
;Top Layers:3
;Z Seam Alignment:sharpest_corner
;Seam Corner Preference:z_seam_corner_inner
;Z Seam X:110
;Z Seam Y:110
;Horizontal Expansion:0
;Top/Bottom Pattern:zigzag
;Ironing Pattern:zigzag
;Vase Model:false
;----------Support Config----------------
;Support Type:everywhere
;Support Pattern:zigzag
;Support Infill Layer Thickness:0.2
;Minimum Support Area:5
;Enable Support Roof:false
;Support Roof Thickness:0.8
;Support Roof Pattern:lines
;Connect Support Lines:0
;Connect Support ZigZags:1
;Minimum Support X/Y Distance:0.2
;Support Line Distance:2
; ---------PrintSpeed & Travel----------
;Enable Print Cool:true
;Avoid Printed Parts Traveling:true
;Enable Retraction:true
;Retraction Distance:8
;Retraction Speed:100
;Retraction Prime Speed:100
;Maximum Retraction Count:100
;Minimum Extrusion Distance Window:1
;Z Hop When Retracted:false
;Z Hop Height:0.2
;Retract Before Outer Wall:true
;Print Speed:40
;Infill Speed:40

;Prime Tower Speed:40
;Travel Speed:120
;Initial Layer Speed:20
;Skirt/Brim Speed:20
;Combing Mode:off
; --------SpecialModel&Mesh Fixes--------
;Union Overlapping Volum:true
;Remove All Holes:false
;Maximum Travel Resolution:0.4
;Maximum Deviation:0.05
;Maximum Model Angle:0.872665
;IS Mold Print:false
;Make Overhang Printable:false
;Enable Coasting:false
;Coasting Volumes:0.06
;Coasting Speed:0.9
;Raft AirGap:0.25
;Layer0 ZOverLap:0.13
;---------------------End of Head--------------------------
M140 S74
M105
M104 S235
M105
M109 S235
M105
M190 S74
M82 ;absolute extrusion mode
M220 S100 ;Reset Feedrate
M221 S100 ;Reset Flowrate

G28 ;Home

G92 E0 ;Reset Extruder
G1 Z2.0 F3000 ;Move Z Axis up
G1 X10.1 Y20 Z0.28 F5000.0 ;Move to start position
G1 X10.1 Y145.0 Z0.28 F1500.0 E15 ;Draw the first line
G1 X10.4 Y145.0 Z0.28 F5000.0 ;Move to side a little
G1 X10.4 Y20 Z0.28 F1500.0 E30 ;Draw the second line
G92 E0  ;Reset Extruder
G1 E-1.0000 F1800 ;Retract a bit
G1 Z2.0 F3000 ;Move Z Axis up
G1 E0.0000 F1800 

G92 E0
G92 E0
G1 F6000 E-8

;LAYER_COUNT:38

;LAYER:0
M107
G0 F3600 X97.999 Y57.93 Z0.15
;;retract;;
G0 X115.18 Y158.26
;TYPE:SKIRT
G1 F6000 E0
G1 F1200 X115.08 Y158.36 E0.00194
G1 X104.92 Y158.36 E0.14133
G1 X104.82 Y158.26 E0.14327
G1 X104.82 Y61.74 E1.46751
G1 X104.92 Y61.64 E1.46945
G1 X115.08 Y61.64 E1.60884
G1 X115.18 Y61.74 E1.61078
G1 X115.18 Y158.26 E2.93502
G0 F3600 X115.38 Y158.26
G1 F1200 X115.233 Y158.518 E2.93909
G1 X115.08 Y158.56 E2.94127
G1 X104.92 Y158.56 E3.08066
G1 X104.662 Y158.413 E3.08474
G1 X104.62 Y158.26 E3.08691
G1 X104.62 Y61.74 E4.41115
G1 X104.767 Y61.482 E4.41522
G1 X104.92 Y61.44 E4.4174
G1 X115.08 Y61.44 E4.55679
G1 X115.338 Y61.587 E4.56087
G1 X115.38 Y61.74 E4.56304
G1 X115.38 Y158.26 E5.88728
G0 F3600 X115.58 Y158.26
G1 F1200 X115.428 Y158.619 E5.89263
G1 X115.08 Y158.76 E5.89778
G1 X104.92 Y158.76 E6.03717
G1 X104.561 Y158.608 E6.04252
G1 X104.42 Y158.26 E6.04767
G1 X104.42 Y61.74 E7.37191
G1 X104.572 Y61.381 E7.37726
G1 X104.92 Y61.24 E7.38241
G1 X115.08 Y61.24 E7.5218
G1 X115.439 Y61.392 E7.52715
G1 X115.58 Y61.74 E7.5323
G1 X115.58 Y158.26 E8.85654
G0 F3600 X115.78 Y158.26
G1 F1200 X115.626 Y158.698 E8.86291
G1 X115.231 Y158.944 E8.86929
G1 X115.08 Y158.96 E8.87138
G1 X104.92 Y158.96 E9.01077
G1 X104.482 Y158.806 E9.01714
G1 X104.236 Y158.411 E9.02352
G1 X104.22 Y158.26 E9.02561
G1 X104.22 Y61.74 E10.34984
G1 X104.374 Y61.302 E10.35621
G1 X104.769 Y61.056 E10.3626
G1 X104.92 Y61.04 E10.36468
G1 X115.08 Y61.04 E10.50407
G1 X115.518 Y61.194 E10.51044
G1 X115.764 Y61.589 E10.51683
G1 X115.78 Y61.74 E10.51891
G1 X115.78 Y158.26 E11.84315
G0 F3600 X115.98 Y158.26
G1 F1200 X115.94 Y158.525 E11.84682
G1 X115.824 Y158.766 E11.85049
G1 X115.643 Y158.962 E11.85415
G1 X115.411 Y159.097 E11.85784
G1 X115.08 Y159.16 E11.86246
G1 X104.92 Y159.16 E12.00185
G1 X104.655 Y159.12 E12.00553
G1 X104.414 Y159.004 E12.0092
G1 X104.218 Y158.823 E12.01286
G1 X104.083 Y158.591 E12.01654
G1 X104.02 Y158.26 E12.02116
G1 X104.02 Y61.74 E13.3454
G1 X104.06 Y61.475 E13.34908
G1 X104.176 Y61.234 E13.35275
G1 X104.357 Y61.038 E13.35641
G1 X104.589 Y60.903 E13.36009
G1 X104.92 Y60.84 E13.36471
G1 X115.08 Y60.84 E13.5041
G1 X115.345 Y60.88 E13.50778
G1 X115.586 Y60.996 E13.51145
G1 X115.782 Y61.177 E13.51511
G1 X115.917 Y61.409 E13.51879
G1 X115.98 Y61.74 E13.52342
G1 X115.98 Y158.26 E14.84765
G0 F3600 X116.18 Y158.26
G1 F1200 X116.14 Y158.553 E14.85171
G1 X116.024 Y158.825 E14.85577
G1 X115.839 Y159.056 E14.85983
G1 X115.599 Y159.23 E14.86389
G1 X115.322 Y159.333 E14.86795
G1 X115.08 Y159.36 E14.87129
G1 X104.92 Y159.36 E15.01068
G1 X104.627 Y159.32 E15.01474
G1 X104.355 Y159.204 E15.0188
G1 X104.124 Y159.019 E15.02286
G1 X103.95 Y158.779 E15.02692
G1 X103.847 Y158.502 E15.03098
G1 X103.82 Y158.26 E15.03432
G1 X103.82 Y61.74 E16.35856
G1 X103.86 Y61.447 E16.36261
G1 X103.976 Y61.175 E16.36667
G1 X104.161 Y60.944 E16.37073
G1 X104.401 Y60.77 E16.3748
G1 X104.678 Y60.667 E16.37885
G1 X104.92 Y60.64 E16.38219
G1 X115.08 Y60.64 E16.52159
G1 X115.373 Y60.68 E16.52564
G1 X115.645 Y60.796 E16.5297
G1 X115.876 Y60.981 E16.53376
G1 X116.05 Y61.221 E16.53783
G1 X116.153 Y61.498 E16.54188
G1 X116.18 Y61.74 E16.54522
G1 X116.18 Y158.26 E17.86946
G0 F3600 X116.38 Y158.26
G1 F1200 X116.34 Y158.579 E17.87387
G1 X116.223 Y158.879 E17.87829
G1 X116.036 Y159.141 E17.8827
G1 X115.79 Y159.349 E17.88712
G1 X115.501 Y159.49 E17.89154
G1 X115.08 Y159.56 E17.89739
G1 X104.92 Y159.56 E18.03678
G1 X104.601 Y159.52 E18.04119
G1 X104.301 Y159.403 E18.04561
G1 X104.039 Y159.216 E18.05003
G1 X103.831 Y158.97 E18.05445
G1 X103.69 Y158.681 E18.05886
G1 X103.62 Y158.26 E18.06472
G1 X103.62 Y61.74 E19.38895
G1 X103.66 Y61.421 E19.39336
G1 X103.777 Y61.121 E19.39778
G1 X103.964 Y60.859 E19.4022
G1 X104.21 Y60.651 E19.40662
G1 X104.499 Y60.51 E19.41103
G1 X104.92 Y60.44 E19.41688
G1 X115.08 Y60.44 E19.55628
G1 X115.399 Y60.48 E19.56069
G1 X115.699 Y60.597 E19.56511
G1 X115.961 Y60.784 E19.56952
G1 X116.169 Y61.03 E19.57394
G1 X116.31 Y61.319 E19.57835
G1 X116.38 Y61.74 E19.58421
G1 X116.38 Y158.26 E20.90844
G0 F3600 X116.58 Y158.26
G1 F1200 X116.54 Y158.604 E20.9132
G1 X116.423 Y158.929 E20.91793
G1 X116.234 Y159.219 E20.92268
G1 X115.984 Y159.457 E20.92742
G1 X115.685 Y159.632 E20.93217
G1 X115.355 Y159.735 E20.93692
G1 X115.08 Y159.76 E20.9407
G1 X104.92 Y159.76 E21.0801
G1 X104.576 Y159.72 E21.08485
G1 X104.251 Y159.603 E21.08959
G1 X103.961 Y159.414 E21.09434
G1 X103.723 Y159.164 E21.09907
G1 X103.548 Y158.865 E21.10383
G1 X103.445 Y158.535 E21.10857
G1 X103.42 Y158.26 E21.11236
G1 X103.42 Y61.74 E22.43659
G1 X103.46 Y61.396 E22.44134
G1 X103.577 Y61.071 E22.44608
G1 X103.766 Y60.781 E22.45083
G1 X104.016 Y60.543 E22.45557
G1 X104.315 Y60.368 E22.46032
G1 X104.645 Y60.265 E22.46506
G1 X104.92 Y60.24 E22.46885
G1 X115.08 Y60.24 E22.60825
G1 X115.424 Y60.28 E22.613
G1 X115.749 Y60.397 E22.61774
G1 X116.039 Y60.586 E22.62249
G1 X116.277 Y60.836 E22.62722
G1 X116.452 Y61.135 E22.63197
G1 X116.555 Y61.465 E22.63672
G1 X116.58 Y61.74 E22.64051
G1 X116.58 Y158.26 E23.96474
G0 F3600 X116.78 Y158.26
G1 F1200 X116.74 Y158.626 E23.96979
G1 X116.622 Y158.975 E23.97485
G1 X116.432 Y159.29 E23.97989
G1 X116.179 Y159.557 E23.98494
G1 X115.873 Y159.763 E23.99
G1 X115.531 Y159.899 E23.99505
G1 X115.08 Y159.96 E24.0013
G1 X104.92 Y159.96 E24.14069
G1 X104.554 Y159.92 E24.14574
G1 X104.205 Y159.802 E24.15079
G1 X103.89 Y159.612 E24.15584
G1 X103.623 Y159.359 E24.16089
G1 X103.417 Y159.053 E24.16595
G1 X103.281 Y158.711 E24.171
G1 X103.22 Y158.26 E24.17724
G1 X103.22 Y61.74 E25.50148
G1 X103.26 Y61.374 E25.50653
G1 X103.378 Y61.025 E25.51158
G1 X103.568 Y60.71 E25.51663
G1 X103.821 Y60.443 E25.52168
G1 X104.127 Y60.237 E25.52674
G1 X104.469 Y60.101 E25.53179
G1 X104.92 Y60.04 E25.53803
G1 X115.08 Y60.04 E25.67743
G1 X115.446 Y60.08 E25.68248
G1 X115.795 Y60.198 E25.68753
G1 X116.11 Y60.388 E25.69258
G1 X116.377 Y60.641 E25.69763
G1 X116.583 Y60.947 E25.70269
G1 X116.719 Y61.289 E25.70774
G1 X116.78 Y61.74 E25.71398
G1 X116.78 Y158.26 E27.03822
G0 F3600 X116.98 Y158.26
G1 F1200 X116.94 Y158.647 E27.04355
G1 X116.822 Y159.018 E27.04889
G1 X116.631 Y159.358 E27.05424
G1 X116.375 Y159.651 E27.05958
G1 X116.064 Y159.885 E27.06492
G1 X115.712 Y160.052 E27.07027
G1 X115.333 Y160.143 E27.07562
G1 X115.08 Y160.16 E27.07909
G1 X104.92 Y160.16 E27.21849
G1 X104.533 Y160.12 E27.22383
G1 X104.162 Y160.002 E27.22917
G1 X103.822 Y159.811 E27.23452
G1 X103.529 Y159.555 E27.23986
G1 X103.295 Y159.244 E27.2452
G1 X103.128 Y158.892 E27.25054
G1 X103.037 Y158.513 E27.25589
G1 X103.02 Y158.26 E27.25937
G1 X103.02 Y61.74 E28.5836
G1 X103.06 Y61.353 E28.58894
G1 X103.178 Y60.982 E28.59428
G1 X103.369 Y60.642 E28.59963
G1 X103.625 Y60.349 E28.60497
G1 X103.936 Y60.115 E28.61031
G1 X104.288 Y59.948 E28.61566
G1 X104.667 Y59.857 E28.621
G1 X104.92 Y59.84 E28.62448
G1 X115.08 Y59.84 E28.76388
G1 X115.467 Y59.88 E28.76921
G1 X115.838 Y59.998 E28.77455
G1 X116.178 Y60.189 E28.7799
G1 X116.471 Y60.445 E28.78524
G1 X116.705 Y60.756 E28.79058
G1 X116.872 Y61.108 E28.79593
G1 X116.963 Y61.487 E28.80128
G1 X116.98 Y61.74 E28.80475
G1 X116.98 Y158.26 E30.12899
G0 F3600 X117.18 Y158.26
G1 F1200 X117.14 Y158.667 E30.1346
G1 X117.022 Y159.059 E30.14022
G1 X116.83 Y159.421 E30.14584
G1 X116.571 Y159.738 E30.15146
G1 X116.256 Y160 E30.15708
G1 X115.896 Y160.195 E30.16269
G1 X115.505 Y160.316 E30.16831
G1 X115.08 Y160.36 E30.17417
G1 X104.92 Y160.36 E30.31356
G1 X104.513 Y160.32 E30.31918
G1 X104.121 Y160.202 E30.32479
G1 X103.759 Y160.01 E30.33041
G1 X103.442 Y159.751 E30.33603
G1 X103.18 Y159.436 E30.34165
G1 X102.985 Y159.076 E30.34727
G1 X102.864 Y158.685 E30.35288
G1 X102.82 Y158.26 E30.35875
G1 X102.82 Y61.74 E31.68298
G1 X102.86 Y61.333 E31.68859
G1 X102.978 Y60.941 E31.69421
G1 X103.17 Y60.579 E31.69983
G1 X103.429 Y60.262 E31.70545
G1 X103.744 Y60 E31.71107
G1 X104.104 Y59.805 E31.71669
G1 X104.495 Y59.684 E31.7223
G1 X104.92 Y59.64 E31.72816
G1 X115.08 Y59.64 E31.86756
G1 X115.487 Y59.68 E31.87317
G1 X115.879 Y59.798 E31.87878
G1 X116.241 Y59.99 E31.88441
G1 X116.558 Y60.249 E31.89002
G1 X116.82 Y60.564 E31.89564
G1 X117.015 Y60.924 E31.90126
G1 X117.136 Y61.315 E31.90688
G1 X117.18 Y61.74 E31.91274
G1 X117.18 Y158.26 E33.23697
G0 F3600 X117.38 Y158.26
G1 F1200 X117.34 Y158.687 E33.24286
G1 X117.222 Y159.098 E33.24872
G1 X117.029 Y159.481 E33.25461
G1 X116.769 Y159.821 E33.26048
G1 X116.45 Y160.108 E33.26637
G1 X116.083 Y160.33 E33.27225
G1 X115.682 Y160.48 E33.27813
G1 X115.08 Y160.56 E33.28646
G1 X104.92 Y160.56 E33.42585
G1 X104.493 Y160.52 E33.43174
G1 X104.082 Y160.402 E33.4376
G1 X103.699 Y160.209 E33.44349
G1 X103.359 Y159.949 E33.44936
G1 X103.072 Y159.63 E33.45525
G1 X102.85 Y159.263 E33.46113
G1 X102.7 Y158.862 E33.46701
G1 X102.62 Y158.26 E33.47534
G1 X102.62 Y61.74 E34.79957
G1 X102.66 Y61.313 E34.80546
G1 X102.778 Y60.902 E34.81132
G1 X102.971 Y60.519 E34.81721
G1 X103.231 Y60.179 E34.82308
G1 X103.55 Y59.892 E34.82897
G1 X103.917 Y59.67 E34.83485
G1 X104.318 Y59.52 E34.84073
G1 X104.92 Y59.44 E34.84906
G1 X115.08 Y59.44 E34.98845
G1 X115.507 Y59.48 E34.99433
G1 X115.918 Y59.598 E35.0002
G1 X116.301 Y59.791 E35.00609
G1 X116.641 Y60.051 E35.01196
G1 X116.928 Y60.37 E35.01785
G1 X117.15 Y60.737 E35.02373
G1 X117.3 Y61.138 E35.0296
G1 X117.38 Y61.74 E35.03794
G1 X117.38 Y158.26 E36.36217
G0 F3600 X117.58 Y158.26
G1 F1200 X117.54 Y158.705 E36.3683
G1 X117.422 Y159.136 E36.37443
G1 X117.228 Y159.539 E36.38057
G1 X116.966 Y159.901 E36.3867
G1 X116.644 Y160.21 E36.39282
G1 X116.272 Y160.457 E36.39895
G1 X115.862 Y160.635 E36.40508
G1 X115.427 Y160.736 E36.41121
G1 X115.08 Y160.76 E36.41598
G1 X104.92 Y160.76 E36.55537
G1 X104.475 Y160.72 E36.5615
G1 X104.044 Y160.602 E36.56763
G1 X103.641 Y160.408 E36.57377
G1 X103.279 Y160.146 E36.5799
G1 X102.97 Y159.824 E36.58602
G1 X102.723 Y159.452 E36.59215
G1 X102.545 Y159.042 E36.59828
G1 X102.444 Y158.607 E36.60441
G1 X102.42 Y158.26 E36.60918
G1 X102.42 Y61.74 E37.93342
G1 X102.46 Y61.295 E37.93955
G1 X102.578 Y60.864 E37.94568
G1 X102.772 Y60.461 E37.95181
G1 X103.034 Y60.099 E37.95795
G1 X103.356 Y59.79 E37.96407
G1 X103.728 Y59.543 E37.97019
G1 X104.138 Y59.365 E37.97633
G1 X104.573 Y59.264 E37.98245
G1 X104.92 Y59.24 E37.98723
G1 X115.08 Y59.24 E38.12662
G1 X115.525 Y59.28 E38.13275
G1 X115.956 Y59.398 E38.13888
G1 X116.359 Y59.592 E38.14502
G1 X116.721 Y59.854 E38.15115
G1 X117.03 Y60.176 E38.15727
G1 X117.277 Y60.548 E38.1634
G1 X117.455 Y60.958 E38.16953
G1 X117.556 Y61.393 E38.17566
G1 X117.58 Y61.74 E38.18043
G1 X117.58 Y158.26 E39.50466
G0 F3600 X117.78 Y158.26
G1 F1200 X117.74 Y158.723 E39.51104
G1 X117.621 Y159.172 E39.51741
G1 X117.428 Y159.594 E39.52378
G1 X117.165 Y159.976 E39.53014
G1 X116.84 Y160.308 E39.53652
G1 X116.463 Y160.579 E39.54289
G1 X116.045 Y160.782 E39.54926
G1 X115.599 Y160.91 E39.55563
G1 X115.08 Y160.96 E39.56278
G1 X104.92 Y160.96 E39.70217
G1 X104.457 Y160.92 E39.70855
G1 X104.008 Y160.801 E39.71492
G1 X103.586 Y160.608 E39.72129
G1 X103.204 Y160.345 E39.72765
G1 X102.872 Y160.02 E39.73403
G1 X102.601 Y159.643 E39.7404
G1 X102.398 Y159.225 E39.74677
G1 X102.27 Y158.779 E39.75314
G1 X102.22 Y158.26 E39.76029
G1 X102.22 Y61.74 E41.08453
G1 X102.26 Y61.277 E41.0909
G1 X102.379 Y60.828 E41.09728
G1 X102.572 Y60.406 E41.10364
G1 X102.835 Y60.024 E41.11001
G1 X103.16 Y59.692 E41.11638
G1 X103.537 Y59.421 E41.12275
G1 X103.955 Y59.218 E41.12913
G1 X104.401 Y59.09 E41.13549
G1 X104.92 Y59.04 E41.14265
G1 X115.08 Y59.04 E41.28204
G1 X115.543 Y59.08 E41.28841
G1 X115.992 Y59.199 E41.29479
G1 X116.414 Y59.392 E41.30115
G1 X116.796 Y59.655 E41.30752
G1 X117.128 Y59.98 E41.31389
G1 X117.399 Y60.357 E41.32026
G1 X117.602 Y60.775 E41.32664
G1 X117.73 Y61.221 E41.333
G1 X117.78 Y61.74 E41.34016
G1 X117.78 Y158.26 E42.66439
G0 F3600 X117.98 Y158.26
G1 F1200 X117.94 Y158.74 E42.671
G1 X117.821 Y159.206 E42.6776
G1 X117.627 Y159.646 E42.6842
G1 X117.363 Y160.048 E42.69079
G1 X117.036 Y160.401 E42.6974
G1 X116.655 Y160.695 E42.704
G1 X116.23 Y160.922 E42.71061
G1 X115.774 Y161.076 E42.71721
G1 X115.08 Y161.16 E42.7268
G1 X104.92 Y161.16 E42.8662
G1 X104.44 Y161.12 E42.87281
G1 X103.974 Y161.001 E42.8794
G1 X103.534 Y160.807 E42.886
G1 X103.132 Y160.543 E42.8926
G1 X102.779 Y160.216 E42.8992
G1 X102.485 Y159.835 E42.9058
G1 X102.258 Y159.41 E42.91241
G1 X102.104 Y158.954 E42.91902
G1 X102.02 Y158.26 E42.92861
G1 X102.02 Y61.74 E44.25284
G1 X102.06 Y61.26 E44.25945
G1 X102.179 Y60.794 E44.26605
G1 X102.373 Y60.354 E44.27265
G1 X102.637 Y59.952 E44.27925
G1 X102.964 Y59.599 E44.28585
G1 X103.345 Y59.305 E44.29245
G1 X103.77 Y59.078 E44.29906
G1 X104.226 Y58.924 E44.30567
G1 X104.92 Y58.84 E44.31526
G1 X115.08 Y58.84 E44.45465
G1 X115.56 Y58.88 E44.46126
G1 X116.026 Y58.999 E44.46786
G1 X116.466 Y59.193 E44.47445
G1 X116.868 Y59.457 E44.48105
G1 X117.221 Y59.784 E44.48765
