;FLAVOR:Marlin
;TIME:22383
;Filament used:8.5199m
;Layer height: 0.2
;MINX:43.68
;MINY:79.483
;MINZ:0.15
;MAXX:176.32
;MAXY:140.76
;MAXZ:31.75
                               
;Creality Print GCode Generated by CXEngineDEV
;Generated Time:2022-06-30 15:03:09
;----------Machine Config--------------
;Machine Name:Creality Ender-3
;Machine Height:250
;Machine Width:220
;Machine Depth:220
;Material name:Castable
;Number of Extruders:1
;ExtruderParams[0] Nozzle Diameter1000
;----------Profile Config---------------
;Layer Height:0.2
;Wall Thickness:0.8
;Top/Bottom Thickness:1
;Out Wall Line Width:0.2
;Inner Wall Line Width:0.2
;Inital Layer Height:150
;Wall Line Count:4
;Infill Line Distance:2
;Infill Pattern:zigzag
;Infill Sparse Density:10
;Infill Wipe Distance:0
;Print Temperature:235
;Bed Temperature:74
;Support Enable:false
;Support Density:10
;Support Angle:0
;Adhesion Type:brim
;machine is belt:false
;machine belt offset:10
;machine belt offset Y:0
;Raft Base Line Spacing:1.6
;Wait Heatup Sync:true
;----------Shell Config----------------
;Outer Wall Wipe Distance:200
;Infill Before Walls:false
;Infill Overlap:0.08
;Fill Gaps Between Walls:everywhere
;Minimum Infill Area:1
;Top Surface Skin Layer:0
;Top Layers:3
;Z Seam Alignment:sharpest_corner
;Seam Corner Preference:z_seam_corner_inner
;Z Seam X:110
;Z Seam Y:110
;Horizontal Expansion:0
;Top/Bottom Pattern:zigzag
;Ironing Pattern:zigzag
;Vase Model:false
;----------Support Config----------------
;Support Type:everywhere
;Support Pattern:zigzag
;Support Infill Layer Thickness:0.2
;Minimum Support Area:5
;Enable Support Roof:false
;Support Roof Thickness:0.8
;Support Roof Pattern:lines
;Connect Support Lines:0
;Connect Support ZigZags:1
;Minimum Support X/Y Distance:0.2
;Support Line Distance:2
; ---------PrintSpeed & Travel----------
;Enable Print Cool:true
;Avoid Printed Parts Traveling:true
;Enable Retraction:true
;Retraction Distance:8
;Retraction Speed:100
;Retraction Prime Speed:100
;Maximum Retraction Count:100
;Minimum Extrusion Distance Window:1
;Z Hop When Retracted:false
;Z Hop Height:0.2
;Retract Before Outer Wall:true
;Print Speed:40
;Infill Speed:40

;Prime Tower Speed:40
;Travel Speed:120
;Initial Layer Speed:20
;Skirt/Brim Speed:20
;Combing Mode:off
; --------SpecialModel&Mesh Fixes--------
;Union Overlapping Volum:true
;Remove All Holes:false
;Maximum Travel Resolution:0.4
;Maximum Deviation:0.05
;Maximum Model Angle:0.872665
;IS Mold Print:false
;Make Overhang Printable:false
;Enable Coasting:false
;Coasting Volumes:0.06
;Coasting Speed:0.9
;Raft AirGap:0.25
;Layer0 ZOverLap:0.13
;---------------------End of Head--------------------------
M140 S74
M105
M104 S235
M105
M109 S235
M105
M190 S74
M82 ;absolute extrusion mode
M220 S100 ;Reset Feedrate
M221 S100 ;Reset Flowrate

G28 ;Home

G92 E0 ;Reset Extruder
G1 Z2.0 F3000 ;Move Z Axis up
G1 X10.1 Y20 Z0.28 F5000.0 ;Move to start position
G1 X10.1 Y145.0 Z0.28 F1500.0 E15 ;Draw the first line
G1 X10.4 Y145.0 Z0.28 F5000.0 ;Move to side a little
G1 X10.4 Y20 Z0.28 F1500.0 E30 ;Draw the second line
G92 E0  ;Reset Extruder
G1 E-1.0000 F1800 ;Retract a bit
G1 Z2.0 F3000 ;Move Z Axis up
G1 E0.0000 F1800 

G92 E0
G92 E0
G1 F6000 E-8

;LAYER_COUNT:159

;LAYER:0
M107
G0 F3600 X47.354 Y80.708 Z0.15
;;retract;;
G0 X168.42 Y132.96
;TYPE:SKIRT
G1 F6000 E0
G1 F1200 X51.58 Y132.96 E1.60302
G1 X51.48 Y132.86 E1.60496
G1 X51.48 Y87.383 E2.2289
G1 X51.58 Y87.283 E2.23084
G1 X168.42 Y87.283 E3.83386
G1 X168.52 Y87.383 E3.8358
G1 X168.52 Y132.86 E4.45974
G1 X168.42 Y132.96 E4.46168
G0 F3600 X168.42 Y133.16
G1 F1200 X51.58 Y133.16 E6.0647
G1 X51.322 Y133.013 E6.06877
G1 X51.28 Y132.86 E6.07095
G1 X51.28 Y87.383 E6.69488
G1 X51.427 Y87.125 E6.69896
G1 X51.58 Y87.083 E6.70114
G1 X168.42 Y87.083 E8.30416
G1 X168.678 Y87.23 E8.30823
G1 X168.72 Y87.383 E8.31041
G1 X168.72 Y132.86 E8.93434
G1 X168.573 Y133.118 E8.93842
G1 X168.42 Y133.16 E8.94059
G0 F3600 X168.42 Y133.36
G1 F1200 X51.58 Y133.36 E10.54362
G1 X51.221 Y133.208 E10.54897
G1 X51.08 Y132.86 E10.55412
G1 X51.08 Y87.383 E11.17805
G1 X51.232 Y87.024 E11.1834
G1 X51.58 Y86.883 E11.18855
G1 X168.42 Y86.883 E12.79158
G1 X168.779 Y87.035 E12.79692
G1 X168.92 Y87.383 E12.80208
G1 X168.92 Y132.86 E13.42601
G1 X168.768 Y133.219 E13.43136
G1 X168.42 Y133.36 E13.43651
G0 F3600 X168.42 Y133.56
G1 F1200 X51.58 Y133.56 E15.03953
G1 X51.142 Y133.406 E15.0459
G1 X50.896 Y133.011 E15.05229
G1 X50.88 Y132.86 E15.05437
G1 X50.88 Y87.383 E15.67831
G1 X51.034 Y86.945 E15.68468
G1 X51.429 Y86.699 E15.69106
G1 X51.58 Y86.683 E15.69314
G1 X168.42 Y86.683 E17.29617
G1 X168.858 Y86.837 E17.30254
G1 X169.104 Y87.232 E17.30892
G1 X169.12 Y87.383 E17.311
G1 X169.12 Y132.86 E17.93494
G1 X168.966 Y133.298 E17.94131
G1 X168.571 Y133.544 E17.94769
G1 X168.42 Y133.56 E17.94978
G0 F3600 X168.42 Y133.76
G1 F1200 X51.58 Y133.76 E19.5528
G1 X51.315 Y133.72 E19.55648
G1 X51.074 Y133.604 E19.56015
G1 X50.878 Y133.423 E19.56381
G1 X50.743 Y133.191 E19.56749
G1 X50.68 Y132.86 E19.57211
G1 X50.68 Y87.383 E20.19605
G1 X50.72 Y87.118 E20.19972
G1 X50.836 Y86.877 E20.20339
G1 X51.017 Y86.681 E20.20705
G1 X51.249 Y86.546 E20.21074
G1 X51.58 Y86.483 E20.21536
G1 X168.42 Y86.483 E21.81838
G1 X168.685 Y86.523 E21.82206
G1 X168.926 Y86.639 E21.82573
G1 X169.122 Y86.82 E21.82939
G1 X169.257 Y87.052 E21.83307
G1 X169.32 Y87.383 E21.83769
G1 X169.32 Y132.86 E22.46163
G1 X169.28 Y133.125 E22.46531
G1 X169.164 Y133.366 E22.46898
G1 X168.983 Y133.562 E22.47264
G1 X168.751 Y133.697 E22.47632
G1 X168.42 Y133.76 E22.48094
G0 F3600 X168.42 Y133.96
G1 F1200 X51.58 Y133.96 E24.08396
G1 X51.287 Y133.92 E24.08802
G1 X51.015 Y133.804 E24.09208
G1 X50.784 Y133.619 E24.09614
G1 X50.61 Y133.379 E24.1002
G1 X50.507 Y133.102 E24.10426
G1 X50.48 Y132.86 E24.1076
G1 X50.48 Y87.383 E24.73154
G1 X50.52 Y87.09 E24.73559
G1 X50.636 Y86.818 E24.73965
G1 X50.821 Y86.587 E24.74371
G1 X51.061 Y86.413 E24.74778
G1 X51.338 Y86.31 E24.75183
G1 X51.58 Y86.283 E24.75517
G1 X168.42 Y86.283 E26.35819
G1 X168.713 Y86.323 E26.36225
G1 X168.985 Y86.439 E26.36631
G1 X169.216 Y86.624 E26.37037
G1 X169.39 Y86.864 E26.37444
G1 X169.493 Y87.141 E26.37849
G1 X169.52 Y87.383 E26.38183
G1 X169.52 Y132.86 E27.00577
G1 X169.48 Y133.153 E27.00982
G1 X169.364 Y133.425 E27.01388
G1 X169.179 Y133.656 E27.01794
G1 X168.939 Y133.83 E27.02201
G1 X168.662 Y133.933 E27.02606
G1 X168.42 Y133.96 E27.0294
G0 F3600 X168.42 Y134.16
G1 F1200 X51.58 Y134.16 E28.63243
G1 X51.261 Y134.12 E28.63684
G1 X50.961 Y134.003 E28.64126
G1 X50.699 Y133.816 E28.64567
G1 X50.491 Y133.57 E28.65009
G1 X50.35 Y133.281 E28.6545
G1 X50.28 Y132.86 E28.66036
G1 X50.28 Y87.383 E29.28429
G1 X50.32 Y87.064 E29.28871
G1 X50.437 Y86.764 E29.29312
G1 X50.624 Y86.502 E29.29754
G1 X50.87 Y86.294 E29.30196
G1 X51.159 Y86.153 E29.30637
G1 X51.58 Y86.083 E29.31223
G1 X168.42 Y86.083 E30.91525
G1 X168.739 Y86.123 E30.91966
G1 X169.039 Y86.24 E30.92408
G1 X169.301 Y86.427 E30.92849
G1 X169.509 Y86.673 E30.93291
G1 X169.65 Y86.962 E30.93732
G1 X169.72 Y87.383 E30.94318
G1 X169.72 Y132.86 E31.56712
G1 X169.68 Y133.179 E31.57153
G1 X169.563 Y133.479 E31.57594
G1 X169.376 Y133.741 E31.58036
G1 X169.13 Y133.949 E31.58478
G1 X168.841 Y134.09 E31.58919
G1 X168.42 Y134.16 E31.59505
G0 F3600 X168.42 Y134.36
G1 F1200 X51.58 Y134.36 E33.19807
G1 X51.236 Y134.32 E33.20282
G1 X50.911 Y134.203 E33.20756
G1 X50.621 Y134.014 E33.21231
G1 X50.383 Y133.764 E33.21705
G1 X50.208 Y133.465 E33.2218
G1 X50.105 Y133.135 E33.22654
G1 X50.08 Y132.86 E33.23033
G1 X50.08 Y87.383 E33.85427
G1 X50.12 Y87.039 E33.85902
G1 X50.237 Y86.714 E33.86376
G1 X50.426 Y86.424 E33.86851
G1 X50.676 Y86.186 E33.87324
G1 X50.975 Y86.011 E33.87799
G1 X51.305 Y85.908 E33.88274
G1 X51.58 Y85.883 E33.88653
G1 X168.42 Y85.883 E35.48955
G1 X168.764 Y85.923 E35.4943
G1 X169.089 Y86.04 E35.49904
G1 X169.379 Y86.229 E35.50379
G1 X169.617 Y86.479 E35.50852
G1 X169.792 Y86.778 E35.51328
G1 X169.895 Y87.108 E35.51802
G1 X169.92 Y87.383 E35.52181
G1 X169.92 Y132.86 E36.14574
G1 X169.88 Y133.204 E36.15049
G1 X169.763 Y133.529 E36.15523
G1 X169.574 Y133.819 E36.15998
G1 X169.324 Y134.057 E36.16472
G1 X169.025 Y134.232 E36.16947
G1 X168.695 Y134.335 E36.17421
G1 X168.42 Y134.36 E36.178
G0 F3600 X168.42 Y134.56
G1 F1200 X51.58 Y134.56 E37.78103
G1 X51.214 Y134.52 E37.78608
G1 X50.865 Y134.402 E37.79113
G1 X50.55 Y134.212 E37.79618
G1 X50.283 Y133.959 E37.80122
G1 X50.077 Y133.653 E37.80629
G1 X49.941 Y133.311 E37.81134
G1 X49.88 Y132.86 E37.81758
G1 X49.88 Y87.383 E38.44151
G1 X49.92 Y87.017 E38.44657
G1 X50.038 Y86.668 E38.45162
G1 X50.228 Y86.353 E38.45667
G1 X50.481 Y86.086 E38.46171
G1 X50.787 Y85.88 E38.46678
G1 X51.129 Y85.744 E38.47182
G1 X51.58 Y85.683 E38.47807
G1 X168.42 Y85.683 E40.08109
G1 X168.786 Y85.723 E40.08614
G1 X169.135 Y85.841 E40.0912
G1 X169.45 Y86.031 E40.09624
G1 X169.717 Y86.284 E40.10129
G1 X169.923 Y86.59 E40.10635
G1 X170.059 Y86.932 E40.1114
G1 X170.12 Y87.383 E40.11764
G1 X170.12 Y132.86 E40.74158
G1 X170.08 Y133.226 E40.74663
G1 X169.962 Y133.575 E40.75169
G1 X169.772 Y133.89 E40.75673
G1 X169.519 Y134.157 E40.76178
G1 X169.213 Y134.363 E40.76684
G1 X168.871 Y134.499 E40.77189
G1 X168.42 Y134.56 E40.77813
G0 F3600 X168.42 Y134.76
G1 F1200 X51.58 Y134.76 E42.38116
G1 X51.193 Y134.72 E42.38649
G1 X50.822 Y134.602 E42.39184
G1 X50.482 Y134.411 E42.39719
G1 X50.189 Y134.155 E42.40252
G1 X49.955 Y133.844 E42.40786
G1 X49.788 Y133.492 E42.41321
G1 X49.697 Y133.113 E42.41856
G1 X49.68 Y132.86 E42.42204
G1 X49.68 Y87.383 E43.04597
G1 X49.72 Y86.996 E43.05131
G1 X49.838 Y86.625 E43.05665
G1 X50.029 Y86.285 E43.062
G1 X50.285 Y85.992 E43.06734
G1 X50.596 Y85.758 E43.07268
G1 X50.948 Y85.591 E43.07802
G1 X51.327 Y85.5 E43.08337
G1 X51.58 Y85.483 E43.08685
G1 X168.42 Y85.483 E44.68987
G1 X168.807 Y85.523 E44.69521
G1 X169.178 Y85.641 E44.70055
G1 X169.518 Y85.832 E44.7059
G1 X169.811 Y86.088 E44.71124
G1 X170.045 Y86.399 E44.71658
G1 X170.212 Y86.751 E44.72193
G1 X170.303 Y87.13 E44.72727
G1 X170.32 Y87.383 E44.73075
G1 X170.32 Y132.86 E45.35469
G1 X170.28 Y133.247 E45.36003
G1 X170.162 Y133.618 E45.36537
G1 X169.971 Y133.958 E45.37072
G1 X169.715 Y134.251 E45.37606
G1 X169.404 Y134.485 E45.38139
G1 X169.052 Y134.652 E45.38674
G1 X168.673 Y134.743 E45.39209
G1 X168.42 Y134.76 E45.39557
G0 F3600 X168.42 Y134.96
G1 F1200 X51.58 Y134.96 E46.99859
G1 X51.173 Y134.92 E47.0042
G1 X50.781 Y134.802 E47.00982
G1 X50.419 Y134.61 E47.01544
G1 X50.102 Y134.351 E47.02105
G1 X49.84 Y134.036 E47.02668
G1 X49.645 Y133.676 E47.03229
G1 X49.524 Y133.285 E47.03791
G1 X49.48 Y132.86 E47.04377
G1 X49.48 Y87.383 E47.66771
G1 X49.52 Y86.976 E47.67332
G1 X49.638 Y86.584 E47.67893
G1 X49.83 Y86.222 E47.68456
G1 X50.089 Y85.905 E47.69017
G1 X50.404 Y85.643 E47.69579
G1 X50.764 Y85.448 E47.70141
G1 X51.155 Y85.327 E47.70703
G1 X51.58 Y85.283 E47.71289
G1 X168.42 Y85.283 E49.31591
G1 X168.827 Y85.323 E49.32152
G1 X169.219 Y85.441 E49.32714
G1 X169.581 Y85.633 E49.33276
G1 X169.898 Y85.892 E49.33838
G1 X170.16 Y86.207 E49.344
G1 X170.355 Y86.567 E49.34961
G1 X170.476 Y86.958 E49.35523
G1 X170.52 Y87.383 E49.36109
G1 X170.52 Y132.86 E49.98503
G1 X170.48 Y133.267 E49.99064
G1 X170.362 Y133.659 E49.99625
G1 X170.17 Y134.021 E50.00188
G1 X169.911 Y134.338 E50.00749
G1 X169.596 Y134.6 E50.01311
G1 X169.236 Y134.795 E50.01873
G1 X168.845 Y134.916 E50.02435
G1 X168.42 Y134.96 E50.03021
G0 F3600 X168.42 Y135.16
G1 F1200 X51.58 Y135.16 E51.63323
G1 X51.153 Y135.12 E51.63911
G1 X50.742 Y135.002 E51.64498
G1 X50.359 Y134.809 E51.65087
G1 X50.019 Y134.549 E51.65674
G1 X49.732 Y134.23 E51.66262
G1 X49.51 Y133.863 E51.66851
G1 X49.36 Y133.462 E51.67438
G1 X49.28 Y132.86 E51.68272
G1 X49.28 Y87.383 E52.30665
G1 X49.32 Y86.956 E52.31253
G1 X49.438 Y86.545 E52.3184
G1 X49.631 Y86.162 E52.32429
G1 X49.891 Y85.822 E52.33016
G1 X50.21 Y85.535 E52.33605
G1 X50.577 Y85.313 E52.34193
G1 X50.978 Y85.163 E52.3478
G1 X51.58 Y85.083 E52.35614
G1 X168.42 Y85.083 E53.95916
G1 X168.847 Y85.123 E53.96504
G1 X169.258 Y85.241 E53.97091
G1 X169.641 Y85.434 E53.97679
G1 X169.981 Y85.694 E53.98266
G1 X170.268 Y86.013 E53.98855
G1 X170.49 Y86.38 E53.99444
G1 X170.64 Y86.781 E54.00031
G1 X170.72 Y87.383 E54.00864
G1 X170.72 Y132.86 E54.63258
G1 X170.68 Y133.287 E54.63846
G1 X170.562 Y133.698 E54.64433
G1 X170.369 Y134.081 E54.65021
G1 X170.109 Y134.421 E54.65609
G1 X169.79 Y134.708 E54.66197
G1 X169.423 Y134.93 E54.66786
G1 X169.022 Y135.08 E54.67373
G1 X168.42 Y135.16 E54.68206
G0 F3600 X168.42 Y135.36
G1 F1200 X51.58 Y135.36 E56.28509
G1 X51.135 Y135.32 E56.29122
G1 X50.704 Y135.202 E56.29735
G1 X50.301 Y135.008 E56.30348
G1 X49.939 Y134.746 E56.30961
G1 X49.63 Y134.424 E56.31574
G1 X49.383 Y134.052 E56.32186
G1 X49.205 Y133.642 E56.328
G1 X49.104 Y133.207 E56.33412
G1 X49.08 Y132.86 E56.33889
G1 X49.08 Y87.383 E56.96283
G1 X49.12 Y86.938 E56.96896
G1 X49.238 Y86.507 E56.97509
G1 X49.432 Y86.104 E56.98123
G1 X49.694 Y85.742 E56.98736
G1 X50.016 Y85.433 E56.99348
G1 X50.388 Y85.186 E56.99961
G1 X50.798 Y85.008 E57.00574
G1 X51.233 Y84.907 E57.01187
G1 X51.58 Y84.883 E57.01664
G1 X168.42 Y84.883 E58.61966
G1 X168.865 Y84.923 E58.62579
G1 X169.296 Y85.041 E58.63192
G1 X169.699 Y85.235 E58.63806
G1 X170.061 Y85.497 E58.64419
G1 X170.37 Y85.819 E58.65031
G1 X170.617 Y86.191 E58.65644
G1 X170.795 Y86.601 E58.66257
G1 X170.896 Y87.036 E58.6687
G1 X170.92 Y87.383 E58.67347
G1 X170.92 Y132.86 E59.2974
G1 X170.88 Y133.305 E59.30353
G1 X170.762 Y133.736 E59.30967
G1 X170.568 Y134.139 E59.3158
G1 X170.306 Y134.501 E59.32193
G1 X169.984 Y134.81 E59.32806
G1 X169.612 Y135.057 E59.33418
G1 X169.202 Y135.235 E59.34031
G1 X168.767 Y135.336 E59.34644
G1 X168.42 Y135.36 E59.35121
G0 F3600 X168.42 Y135.56
G1 F1200 X51.58 Y135.56 E60.95424
G1 X51.117 Y135.52 E60.96061
G1 X50.668 Y135.401 E60.96698
G1 X50.246 Y135.208 E60.97335
G1 X49.864 Y134.945 E60.97971
G1 X49.532 Y134.62 E60.98609
G1 X49.261 Y134.243 E60.99246
G1 X49.058 Y133.825 E60.99883
G1 X48.93 Y133.379 E61.0052
G1 X48.88 Y132.86 E61.01235
G1 X48.88 Y87.383 E61.63629
G1 X48.92 Y86.92 E61.64266
G1 X49.039 Y86.471 E61.64904
G1 X49.232 Y86.049 E61.6554
G1 X49.495 Y85.667 E61.66177
G1 X49.82 Y85.335 E61.66814
G1 X50.197 Y85.064 E61.67451
G1 X50.615 Y84.861 E61.68089
G1 X51.061 Y84.733 E61.68725
G1 X51.58 Y84.683 E61.69441
G1 X168.42 Y84.683 E63.29743
G1 X168.883 Y84.723 E63.3038
G1 X169.332 Y84.842 E63.31018
G1 X169.754 Y85.035 E63.31654
G1 X170.136 Y85.298 E63.32291
G1 X170.468 Y85.623 E63.32928
G1 X170.739 Y86 E63.33565
G1 X170.942 Y86.418 E63.34203
G1 X171.07 Y86.864 E63.34839
G1 X171.12 Y87.383 E63.35555
G1 X171.12 Y132.86 E63.97948
G1 X171.08 Y133.323 E63.98586
G1 X170.961 Y133.772 E63.99223
G1 X170.768 Y134.194 E63.9986
G1 X170.505 Y134.576 E64.00496
G1 X170.18 Y134.908 E64.01133
G1 X169.803 Y135.179 E64.0177
G1 X169.385 Y135.382 E64.02408
G1 X168.939 Y135.51 E64.03045
G1 X168.42 Y135.56 E64.0376
G0 F3600 X168.42 Y135.76
G1 F1200 X51.58 Y135.76 E65.64062
G1 X51.1 Y135.72 E65.64723
G1 X50.634 Y135.601 E65.65383
G1 X50.194 Y135.407 E65.66043
G1 X49.792 Y135.143 E65.66702
G1 X49.439 Y134.816 E65.67363
G1 X49.145 Y134.435 E65.68023
G1 X48.918 Y134.01 E65.68684
G1 X48.764 Y133.554 E65.69344
G1 X48.68 Y132.86 E65.70303
G1 X48.68 Y87.383 E66.32697
G1 X48.72 Y86.903 E66.33358
G1 X48.839 Y86.437 E66.34018
G1 X49.033 Y85.997 E66.34677
G1 X49.297 Y85.595 E66.35337
G1 X49.624 Y85.242 E66.35997
G1 X50.005 Y84.948 E66.36658
G1 X50.43 Y84.721 E66.37319
G1 X50.886 Y84.567 E66.37979
G1 X51.58 Y84.483 E66.38938
G1 X168.42 Y84.483 E67.9924
G1 X168.9 Y84.523 E67.99901
G1 X169.366 Y84.642 E68.00561
G1 X169.806 Y84.836 E68.01221
G1 X170.208 Y85.1 E68.01881
G1 X170.561 Y85.427 E68.02541
G1 X170.855 Y85.808 E68.03201
G1 X171.082 Y86.233 E68.03862
G1 X171.236 Y86.689 E68.04522
G1 X171.32 Y87.383 E68.05481
G1 X171.32 Y132.86 E68.67875
G1 X171.28 Y133.34 E68.68536
G1 X171.161 Y133.806 E68.69196
G1 X170.967 Y134.246 E68.69855
G1 X170.703 Y134.648 E68.70515
G1 X170.376 Y135.001 E68.71175
G1 X169.995 Y135.295 E68.71836
G1 X169.57 Y135.522 E68.72497
G1 X169.114 Y135.676 E68.73157
