;FLAVOR:Marlin
;TIME:15394
;Filament used:5.96565m
;Layer height: 0.2
;MINX:82.415
;MINY:51.3
;MINZ:0.15
;MAXX:138.855
;MAXY:168.7
;MAXZ:16.35
                               
;Creality Print GCode Generated by CXEngineDEV
;Generated Time:2022-06-30 15:03:09
;----------Machine Config--------------
;Machine Name:Creality Ender-3
;Machine Height:250
;Machine Width:220
;Machine Depth:220
;Material name:Castable
;Number of Extruders:1
;ExtruderParams[0] Nozzle Diameter1000
;----------Profile Config---------------
;Layer Height:0.2
;Wall Thickness:0.8
;Top/Bottom Thickness:1
;Out Wall Line Width:0.2
;Inner Wall Line Width:0.2
;Inital Layer Height:150
;Wall Line Count:4
;Infill Line Distance:2
;Infill Pattern:zigzag
;Infill Sparse Density:10
;Infill Wipe Distance:0
;Print Temperature:235
;Bed Temperature:74
;Support Enable:false
;Support Density:10
;Support Angle:0
;Adhesion Type:brim
;machine is belt:false
;machine belt offset:10
;machine belt offset Y:0
;Raft Base Line Spacing:1.6
;Wait Heatup Sync:true
;----------Shell Config----------------
;Outer Wall Wipe Distance:200
;Infill Before Walls:false
;Infill Overlap:0.08
;Fill Gaps Between Walls:everywhere
;Minimum Infill Area:1
;Top Surface Skin Layer:0
;Top Layers:3
;Z Seam Alignment:sharpest_corner
;Seam Corner Preference:z_seam_corner_inner
;Z Seam X:110
;Z Seam Y:110
;Horizontal Expansion:0
;Top/Bottom Pattern:zigzag
;Ironing Pattern:zigzag
;Vase Model:false
;----------Support Config----------------
;Support Type:everywhere
;Support Pattern:zigzag
;Support Infill Layer Thickness:0.2
;Minimum Support Area:5
;Enable Support Roof:false
;Support Roof Thickness:0.8
;Support Roof Pattern:lines
;Connect Support Lines:0
;Connect Support ZigZags:1
;Minimum Support X/Y Distance:0.2
;Support Line Distance:2
; ---------PrintSpeed & Travel----------
;Enable Print Cool:true
;Avoid Printed Parts Traveling:true
;Enable Retraction:true
;Retraction Distance:8
;Retraction Speed:100
;Retraction Prime Speed:100
;Maximum Retraction Count:100
;Minimum Extrusion Distance Window:1
;Z Hop When Retracted:false
;Z Hop Height:0.2
;Retract Before Outer Wall:true
;Print Speed:40
;Infill Speed:40

;Prime Tower Speed:40
;Travel Speed:120
;Initial Layer Speed:20
;Skirt/Brim Speed:20
;Combing Mode:off
; --------SpecialModel&Mesh Fixes--------
;Union Overlapping Volum:true
;Remove All Holes:false
;Maximum Travel Resolution:0.4
;Maximum Deviation:0.05
;Maximum Model Angle:0.872665
;IS Mold Print:false
;Make Overhang Printable:false
;Enable Coasting:false
;Coasting Volumes:0.06
;Coasting Speed:0.9
;Raft AirGap:0.25
;Layer0 ZOverLap:0.13
;---------------------End of Head--------------------------
M140 S74
M105
M104 S235
M105
M109 S235
M105
M190 S74
M82 ;absolute extrusion mode
M220 S100 ;Reset Feedrate
M221 S100 ;Reset Flowrate

G28 ;Home

G92 E0 ;Reset Extruder
G1 Z2.0 F3000 ;Move Z Axis up
G1 X10.1 Y20 Z0.28 F5000.0 ;Move to start position
G1 X10.1 Y145.0 Z0.28 F1500.0 E15 ;Draw the first line
G1 X10.4 Y145.0 Z0.28 F5000.0 ;Move to side a little
G1 X10.4 Y20 Z0.28 F1500.0 E30 ;Draw the second line
G92 E0  ;Reset Extruder
G1 E-1.0000 F1800 ;Retract a bit
G1 Z2.0 F3000 ;Move Z Axis up
G1 E0.0000 F1800 

G92 E0
G92 E0
G1 F6000 E-8

;LAYER_COUNT:82

;LAYER:0
M107
G0 F3600 X83.812 Y54.714 Z0.15
;;retract;;
G0 X131.055 Y160.8
;TYPE:SKIRT
G1 F6000 E0
G1 F1200 X130.955 Y160.9 E0.00194
G1 X90.315 Y160.9 E0.55951
G1 X90.215 Y160.8 E0.56145
G1 X90.215 Y59.2 E1.95539
G1 X90.315 Y59.1 E1.95733
G1 X130.951 Y59.1 E2.51484
G1 X131.051 Y59.2 E2.51678
G1 X131.055 Y160.8 E3.91072
G0 F3600 X131.255 Y160.8
G1 F1200 X131.108 Y161.058 E3.91479
G1 X130.955 Y161.1 E3.91697
G1 X90.315 Y161.1 E4.47454
G1 X90.057 Y160.953 E4.47861
G1 X90.015 Y160.8 E4.48079
G1 X90.015 Y59.2 E5.87472
G1 X90.162 Y58.942 E5.8788
G1 X90.315 Y58.9 E5.88097
G1 X130.951 Y58.9 E6.43849
G1 X131.209 Y59.047 E6.44257
G1 X131.251 Y59.2 E6.44474
G1 X131.255 Y160.8 E7.83867
G0 F3600 X131.455 Y160.8
G1 F1200 X131.303 Y161.159 E7.84402
G1 X130.955 Y161.3 E7.84918
G1 X90.315 Y161.3 E8.40675
G1 X89.956 Y161.148 E8.4121
G1 X89.815 Y160.8 E8.41725
G1 X89.815 Y59.2 E9.81118
G1 X89.967 Y58.841 E9.81653
G1 X90.315 Y58.7 E9.82168
G1 X130.951 Y58.7 E10.3792
G1 X131.31 Y58.852 E10.38455
G1 X131.451 Y59.2 E10.3897
G1 X131.455 Y160.8 E11.78363
G0 F3600 X131.655 Y160.8
G1 F1200 X131.501 Y161.238 E11.79
G1 X131.106 Y161.484 E11.79639
G1 X130.955 Y161.5 E11.79847
G1 X90.315 Y161.5 E12.35604
G1 X89.877 Y161.346 E12.36241
G1 X89.631 Y160.951 E12.3688
G1 X89.615 Y160.8 E12.37088
G1 X89.615 Y59.2 E13.76481
G1 X89.769 Y58.762 E13.77118
G1 X90.164 Y58.516 E13.77757
G1 X90.315 Y58.5 E13.77965
G1 X130.951 Y58.5 E14.33717
G1 X131.389 Y58.654 E14.34354
G1 X131.635 Y59.049 E14.34992
G1 X131.651 Y59.2 E14.352
G1 X131.655 Y160.8 E15.74594
G0 F3600 X131.855 Y160.8
G1 F1200 X131.815 Y161.065 E15.74961
G1 X131.699 Y161.306 E15.75328
G1 X131.518 Y161.502 E15.75694
G1 X131.286 Y161.637 E15.76063
G1 X130.955 Y161.7 E15.76525
G1 X90.315 Y161.7 E16.32282
G1 X90.05 Y161.66 E16.3265
G1 X89.809 Y161.544 E16.33017
G1 X89.613 Y161.363 E16.33383
G1 X89.478 Y161.131 E16.33751
G1 X89.415 Y160.8 E16.34213
G1 X89.415 Y59.2 E17.73607
G1 X89.455 Y58.935 E17.73974
G1 X89.571 Y58.694 E17.74341
G1 X89.752 Y58.498 E17.74707
G1 X89.984 Y58.363 E17.75076
G1 X90.315 Y58.3 E17.75538
G1 X130.951 Y58.3 E18.3129
G1 X131.216 Y58.34 E18.31657
G1 X131.457 Y58.456 E18.32024
G1 X131.653 Y58.637 E18.3239
G1 X131.788 Y58.869 E18.32759
G1 X131.851 Y59.2 E18.33221
G1 X131.855 Y160.8 E19.72614
G0 F3600 X132.055 Y160.8
G1 F1200 X132.015 Y161.093 E19.7302
G1 X131.899 Y161.365 E19.73426
G1 X131.714 Y161.596 E19.73832
G1 X131.474 Y161.77 E19.74238
G1 X131.197 Y161.873 E19.74644
G1 X130.955 Y161.9 E19.74978
G1 X90.315 Y161.9 E20.30735
G1 X90.022 Y161.86 E20.31141
G1 X89.75 Y161.744 E20.31547
G1 X89.519 Y161.559 E20.31953
G1 X89.345 Y161.319 E20.32359
G1 X89.242 Y161.042 E20.32765
G1 X89.215 Y160.8 E20.33099
G1 X89.215 Y59.2 E21.72492
G1 X89.255 Y58.907 E21.72898
G1 X89.371 Y58.635 E21.73303
G1 X89.556 Y58.404 E21.7371
G1 X89.796 Y58.23 E21.74116
G1 X90.073 Y58.127 E21.74522
G1 X90.315 Y58.1 E21.74856
G1 X130.951 Y58.1 E22.30608
G1 X131.244 Y58.14 E22.31013
G1 X131.516 Y58.256 E22.31419
G1 X131.747 Y58.441 E22.31825
G1 X131.921 Y58.681 E22.32232
G1 X132.024 Y58.958 E22.32637
G1 X132.051 Y59.2 E22.32971
G1 X132.055 Y160.8 E23.72364
G0 F3600 X132.255 Y160.8
G1 F1200 X132.215 Y161.119 E23.72806
G1 X132.098 Y161.419 E23.73247
G1 X131.911 Y161.681 E23.73689
G1 X131.665 Y161.889 E23.74131
G1 X131.376 Y162.03 E23.74572
G1 X130.955 Y162.1 E23.75158
G1 X90.315 Y162.1 E24.30915
G1 X89.996 Y162.06 E24.31356
G1 X89.696 Y161.943 E24.31798
G1 X89.434 Y161.756 E24.32239
G1 X89.226 Y161.51 E24.32681
G1 X89.085 Y161.221 E24.33123
G1 X89.015 Y160.8 E24.33708
G1 X89.015 Y59.2 E25.73101
G1 X89.055 Y58.881 E25.73542
G1 X89.172 Y58.581 E25.73984
G1 X89.359 Y58.319 E25.74426
G1 X89.605 Y58.111 E25.74868
G1 X89.894 Y57.97 E25.75309
G1 X90.315 Y57.9 E25.75895
G1 X130.951 Y57.9 E26.31646
G1 X131.27 Y57.94 E26.32087
G1 X131.57 Y58.057 E26.32529
G1 X131.832 Y58.244 E26.32971
G1 X132.04 Y58.49 E26.33413
G1 X132.181 Y58.779 E26.33854
G1 X132.251 Y59.2 E26.3444
G1 X132.255 Y160.8 E27.73833
G0 F3600 X132.455 Y160.8
G1 F1200 X132.415 Y161.143 E27.74307
G1 X132.298 Y161.469 E27.74782
G1 X132.109 Y161.758 E27.75256
G1 X131.859 Y161.997 E27.7573
G1 X131.56 Y162.172 E27.76205
G1 X131.23 Y162.275 E27.7668
G1 X130.955 Y162.3 E27.77059
G1 X90.315 Y162.3 E28.32816
G1 X89.971 Y162.26 E28.33291
G1 X89.646 Y162.143 E28.33765
G1 X89.356 Y161.954 E28.3424
G1 X89.118 Y161.704 E28.34713
G1 X88.943 Y161.405 E28.35189
G1 X88.84 Y161.075 E28.35663
G1 X88.815 Y160.8 E28.36042
G1 X88.815 Y59.2 E29.75435
G1 X88.855 Y58.856 E29.7591
G1 X88.972 Y58.531 E29.76384
G1 X89.161 Y58.241 E29.76859
G1 X89.411 Y58.003 E29.77333
G1 X89.71 Y57.828 E29.77808
G1 X90.04 Y57.725 E29.78282
G1 X90.315 Y57.7 E29.78661
G1 X130.951 Y57.7 E30.34413
G1 X131.295 Y57.74 E30.34888
G1 X131.62 Y57.857 E30.35362
G1 X131.91 Y58.046 E30.35837
G1 X132.148 Y58.296 E30.3631
G1 X132.323 Y58.595 E30.36786
G1 X132.426 Y58.925 E30.3726
G1 X132.451 Y59.2 E30.37639
G1 X132.455 Y160.8 E31.77032
G0 F3600 X132.655 Y160.8
G1 F1200 X132.615 Y161.166 E31.77537
G1 X132.497 Y161.515 E31.78043
G1 X132.307 Y161.83 E31.78547
G1 X132.054 Y162.097 E31.79052
G1 X131.749 Y162.303 E31.79557
G1 X131.406 Y162.439 E31.80063
G1 X130.955 Y162.5 E31.80688
G1 X90.315 Y162.5 E32.36445
G1 X89.949 Y162.46 E32.3695
G1 X89.6 Y162.342 E32.37455
G1 X89.285 Y162.152 E32.3796
G1 X89.018 Y161.899 E32.38465
G1 X88.812 Y161.593 E32.38971
G1 X88.676 Y161.251 E32.39476
G1 X88.615 Y160.8 E32.401
G1 X88.615 Y59.2 E33.79494
G1 X88.655 Y58.834 E33.79999
G1 X88.773 Y58.485 E33.80504
G1 X88.963 Y58.17 E33.81009
G1 X89.216 Y57.903 E33.81513
G1 X89.522 Y57.697 E33.8202
G1 X89.864 Y57.561 E33.82525
G1 X90.315 Y57.5 E33.83149
G1 X130.951 Y57.5 E34.38901
G1 X131.317 Y57.54 E34.39406
G1 X131.666 Y57.658 E34.39911
G1 X131.981 Y57.848 E34.40416
G1 X132.248 Y58.101 E34.40921
G1 X132.454 Y58.407 E34.41427
G1 X132.59 Y58.749 E34.41932
G1 X132.651 Y59.2 E34.42556
G1 X132.655 Y160.8 E35.81949
G0 F3600 X132.855 Y160.8
G1 F1200 X132.815 Y161.187 E35.82483
G1 X132.697 Y161.558 E35.83017
G1 X132.506 Y161.897 E35.83551
G1 X132.25 Y162.191 E35.84086
G1 X131.939 Y162.425 E35.8462
G1 X131.587 Y162.592 E35.85154
G1 X131.209 Y162.683 E35.85688
G1 X130.955 Y162.7 E35.86037
G1 X90.315 Y162.7 E36.41794
G1 X89.928 Y162.66 E36.42328
G1 X89.557 Y162.542 E36.42862
G1 X89.217 Y162.351 E36.43397
G1 X88.924 Y162.095 E36.43931
G1 X88.69 Y161.784 E36.44465
G1 X88.523 Y161.432 E36.45
G1 X88.432 Y161.053 E36.45534
G1 X88.415 Y160.8 E36.45882
G1 X88.415 Y59.2 E37.85276
G1 X88.455 Y58.813 E37.85809
G1 X88.573 Y58.442 E37.86343
G1 X88.764 Y58.102 E37.86879
G1 X89.02 Y57.809 E37.87412
G1 X89.331 Y57.575 E37.87946
G1 X89.683 Y57.408 E37.88481
G1 X90.062 Y57.317 E37.89016
G1 X90.315 Y57.3 E37.89363
G1 X130.951 Y57.3 E38.45115
G1 X131.338 Y57.34 E38.45649
G1 X131.709 Y57.458 E38.46183
G1 X132.049 Y57.649 E38.46718
G1 X132.342 Y57.905 E38.47252
G1 X132.576 Y58.216 E38.47786
G1 X132.743 Y58.568 E38.48321
G1 X132.834 Y58.947 E38.48855
G1 X132.851 Y59.2 E38.49203
G1 X132.855 Y160.8 E39.88596
G0 F3600 X133.055 Y160.8
G1 F1200 X133.015 Y161.207 E39.89158
G1 X132.897 Y161.599 E39.89719
G1 X132.705 Y161.961 E39.90281
G1 X132.446 Y162.278 E39.90843
G1 X132.131 Y162.54 E39.91405
G1 X131.771 Y162.735 E39.91967
G1 X131.381 Y162.856 E39.92527
G1 X130.955 Y162.9 E39.93115
G1 X90.315 Y162.9 E40.48872
G1 X89.908 Y162.86 E40.49433
G1 X89.516 Y162.742 E40.49995
G1 X89.154 Y162.55 E40.50557
G1 X88.837 Y162.291 E40.51119
G1 X88.575 Y161.976 E40.51681
G1 X88.38 Y161.616 E40.52242
G1 X88.259 Y161.225 E40.52804
G1 X88.215 Y160.8 E40.5339
G1 X88.215 Y59.2 E41.92783
G1 X88.255 Y58.793 E41.93344
G1 X88.373 Y58.401 E41.93906
G1 X88.565 Y58.039 E41.94468
G1 X88.824 Y57.722 E41.9503
G1 X89.139 Y57.46 E41.95592
G1 X89.499 Y57.265 E41.96154
G1 X89.89 Y57.144 E41.96715
G1 X90.315 Y57.1 E41.97301
G1 X130.951 Y57.1 E42.53053
G1 X131.358 Y57.14 E42.53614
G1 X131.75 Y57.258 E42.54176
G1 X132.112 Y57.45 E42.54738
G1 X132.429 Y57.709 E42.553
G1 X132.691 Y58.024 E42.55862
G1 X132.886 Y58.384 E42.56424
G1 X133.007 Y58.775 E42.56985
G1 X133.051 Y59.2 E42.57571
G1 X133.055 Y160.8 E43.96965
G0 F3600 X133.255 Y160.8
G1 F1200 X133.215 Y161.227 E43.97553
G1 X133.097 Y161.638 E43.9814
G1 X132.904 Y162.021 E43.98728
G1 X132.644 Y162.361 E43.99315
G1 X132.325 Y162.648 E43.99904
G1 X131.958 Y162.87 E44.00493
G1 X131.557 Y163.02 E44.0108
G1 X130.955 Y163.1 E44.01913
G1 X90.315 Y163.1 E44.5767
G1 X89.888 Y163.06 E44.58259
G1 X89.477 Y162.942 E44.58846
G1 X89.094 Y162.749 E44.59434
G1 X88.754 Y162.489 E44.60021
G1 X88.467 Y162.17 E44.6061
G1 X88.245 Y161.803 E44.61198
G1 X88.095 Y161.402 E44.61786
G1 X88.015 Y160.8 E44.62619
G1 X88.015 Y59.2 E46.02012
G1 X88.055 Y58.773 E46.02601
G1 X88.173 Y58.362 E46.03187
G1 X88.366 Y57.979 E46.03776
G1 X88.626 Y57.639 E46.04363
G1 X88.945 Y57.352 E46.04952
G1 X89.312 Y57.13 E46.0554
G1 X89.713 Y56.98 E46.06127
G1 X90.315 Y56.9 E46.06961
G1 X130.951 Y56.9 E46.62712
G1 X131.378 Y56.94 E46.63301
G1 X131.789 Y57.058 E46.63888
G1 X132.172 Y57.251 E46.64476
G1 X132.512 Y57.511 E46.65063
G1 X132.799 Y57.83 E46.65652
G1 X133.021 Y58.197 E46.6624
G1 X133.171 Y58.598 E46.66828
G1 X133.251 Y59.2 E46.67661
G1 X133.255 Y160.8 E48.07054
G0 F3600 X133.455 Y160.8
G1 F1200 X133.415 Y161.245 E48.07667
G1 X133.297 Y161.676 E48.0828
G1 X133.103 Y162.078 E48.08893
G1 X132.842 Y162.44 E48.09505
G1 X132.519 Y162.75 E48.10119
G1 X132.147 Y162.997 E48.10732
G1 X131.737 Y163.174 E48.11344
G1 X131.302 Y163.276 E48.11957
G1 X130.955 Y163.3 E48.12435
G1 X90.315 Y163.3 E48.68192
G1 X89.87 Y163.26 E48.68805
G1 X89.439 Y163.142 E48.69418
G1 X89.036 Y162.948 E48.70032
G1 X88.674 Y162.686 E48.70645
G1 X88.365 Y162.364 E48.71257
G1 X88.118 Y161.992 E48.7187
G1 X87.94 Y161.582 E48.72483
G1 X87.839 Y161.147 E48.73096
G1 X87.815 Y160.8 E48.73573
G1 X87.815 Y59.2 E50.12966
G1 X87.855 Y58.755 E50.13579
G1 X87.973 Y58.324 E50.14192
G1 X88.167 Y57.921 E50.14806
G1 X88.429 Y57.559 E50.15419
G1 X88.751 Y57.25 E50.16031
G1 X89.123 Y57.003 E50.16644
G1 X89.533 Y56.825 E50.17257
G1 X89.968 Y56.724 E50.1787
G1 X90.315 Y56.7 E50.18347
G1 X130.951 Y56.7 E50.74099
G1 X131.396 Y56.74 E50.74712
G1 X131.827 Y56.858 E50.75325
G1 X132.23 Y57.052 E50.75938
G1 X132.592 Y57.314 E50.76552
G1 X132.901 Y57.636 E50.77164
G1 X133.148 Y58.008 E50.77776
G1 X133.326 Y58.418 E50.7839
G1 X133.427 Y58.853 E50.79002
G1 X133.451 Y59.2 E50.7948
G1 X133.455 Y160.8 E52.18873
G0 F3600 X133.655 Y160.8
G1 F1200 X133.615 Y161.263 E52.1951
G1 X133.497 Y161.711 E52.20146
G1 X133.303 Y162.133 E52.20783
G1 X133.04 Y162.516 E52.21421
G1 X132.715 Y162.848 E52.22058
G1 X132.338 Y163.119 E52.22695
G1 X131.92 Y163.322 E52.23333
G1 X131.474 Y163.45 E52.23969
G1 X130.955 Y163.5 E52.24685
G1 X90.315 Y163.5 E52.80442
G1 X89.852 Y163.46 E52.8108
G1 X89.403 Y163.341 E52.81717
G1 X88.981 Y163.148 E52.82353
G1 X88.599 Y162.885 E52.8299
G1 X88.267 Y162.56 E52.83627
G1 X87.996 Y162.183 E52.84264
G1 X87.793 Y161.765 E52.84902
G1 X87.665 Y161.319 E52.85538
G1 X87.615 Y160.8 E52.86254
G1 X87.615 Y59.2 E54.25647
G1 X87.655 Y58.737 E54.26284
G1 X87.774 Y58.288 E54.26922
G1 X87.967 Y57.866 E54.27558
G1 X88.23 Y57.484 E54.28195
G1 X88.555 Y57.152 E54.28832
G1 X88.932 Y56.881 E54.29469
G1 X89.35 Y56.678 E54.30107
G1 X89.796 Y56.55 E54.30743
G1 X90.315 Y56.5 E54.31459
G1 X130.951 Y56.5 E54.8721
G1 X131.414 Y56.54 E54.87848
G1 X131.863 Y56.659 E54.88485
G1 X132.285 Y56.852 E54.89122
G1 X132.667 Y57.115 E54.89758
G1 X132.999 Y57.44 E54.90396
G1 X133.27 Y57.817 E54.91033
G1 X133.473 Y58.235 E54.9167
G1 X133.601 Y58.681 E54.92307
G1 X133.651 Y59.2 E54.93022
G1 X133.655 Y160.8 E56.32415
G0 F3600 X133.855 Y160.8
G1 F1200 X133.815 Y161.279 E56.33075
G1 X133.696 Y161.746 E56.33736
G1 X133.502 Y162.186 E56.34396
G1 X133.238 Y162.588 E56.35056
G1 X132.911 Y162.941 E56.35716
G1 X132.53 Y163.235 E56.36376
G1 X132.105 Y163.462 E56.37037
G1 X131.649 Y163.616 E56.37697
G1 X130.955 Y163.7 E56.38657
G1 X90.315 Y163.7 E56.94414
G1 X89.835 Y163.66 E56.95075
G1 X89.369 Y163.541 E56.95735
G1 X88.929 Y163.347 E56.96394
G1 X88.527 Y163.083 E56.97054
G1 X88.174 Y162.756 E56.97714
G1 X87.88 Y162.375 E56.98375
G1 X87.653 Y161.95 E56.99036
G1 X87.499 Y161.494 E56.99696
G1 X87.415 Y160.8 E57.00655
G1 X87.415 Y59.2 E58.40048
G1 X87.455 Y58.72 E58.40709
G1 X87.574 Y58.254 E58.41369
G1 X87.768 Y57.814 E58.42029
G1 X88.032 Y57.412 E58.42689
G1 X88.359 Y57.059 E58.43349
G1 X88.74 Y56.765 E58.44009
G1 X89.165 Y56.538 E58.4467
G1 X89.621 Y56.384 E58.4533
G1 X90.315 Y56.3 E58.4629
G1 X130.951 Y56.3 E59.02041
G1 X131.431 Y56.34 E59.02702
G1 X131.897 Y56.459 E59.03362
G1 X132.337 Y56.653 E59.04022
G1 X132.739 Y56.917 E59.04682
G1 X133.092 Y57.244 E59.05342
G1 X133.386 Y57.625 E59.06002
G1 X133.613 Y58.05 E59.06663
G1 X133.767 Y58.506 E59.07323
G1 X133.851 Y59.2 E59.08283
G1 X133.855 Y160.8 E60.47676
G0 F3600 X134.055 Y160.8
