;FLAVOR:Marlin
;TIME:101939
;Filament used:27.7796m
;Layer height: 0.2
;MINX:30.825
;MINY:30.832
;MINZ:0.15
;MAXX:186.616
;MAXY:186.615
;MAXZ:31.75
                          
;Creality Print GCode Generated by CXEngineDEV
;Generated Time:2022-06-30 15:03:09
;----------Machine Config--------------
;Machine Name:Creality Ender-3
;Machine Height:250
;Machine Width:220
;Machine Depth:220
;Material name:Castable
;Number of Extruders:1
;ExtruderParams[0] Nozzle Diameter1000
;----------Profile Config---------------
;Layer Height:0.2
;Wall Thickness:1.6
;Top/Bottom Thickness:1
;Out Wall Line Width:0.2
;Inner Wall Line Width:0.2
;Inital Layer Height:150
;Wall Line Count:8
;Infill Line Distance:2.22
;Infill Pattern:grid
;Infill Sparse Density:18
;Infill Wipe Distance:0
;Print Temperature:235
;Bed Temperature:74
;Support Enable:false
;Support Density:10
;Support Angle:0
;Adhesion Type:brim
;machine is belt:false
;machine belt offset:10
;machine belt offset Y:3
;Raft Base Line Spacing:1.6
;Wait Heatup Sync:true
;----------Shell Config----------------
;Outer Wall Wipe Distance:200
;Infill Before Walls:false
;Infill Overlap:0.08
;Fill Gaps Between Walls:everywhere
;Minimum Infill Area:1
;Top Surface Skin Layer:0
;Top Layers:7
;Z Seam Alignment:sharpest_corner
;Seam Corner Preference:z_seam_corner_inner
;Z Seam X:110
;Z Seam Y:110
;Horizontal Expansion:0
;Top/Bottom Pattern:zigzag
;Ironing Pattern:zigzag
;Vase Model:false
;----------Support Config----------------
;Support Type:everywhere
;Support Pattern:zigzag
;Support Infill Layer Thickness:0.2
;Minimum Support Area:5
;Enable Support Roof:false
;Support Roof Thickness:0.8
;Support Roof Pattern:lines
;Connect Support Lines:0
;Connect Support ZigZags:1
;Minimum Support X/Y Distance:0.2
;Support Line Distance:2
; ---------PrintSpeed & Travel----------
;Enable Print Cool:true
;Avoid Printed Parts Traveling:true
;Enable Retraction:true
;Retraction Distance:8
;Retraction Speed:100
;Retraction Prime Speed:100
;Maximum Retraction Count:100
;Minimum Extrusion Distance Window:1
;Z Hop When Retracted:false
;Z Hop Height:0.2
;Retract Before Outer Wall:true
;Print Speed:32
;Infill Speed:32

;Prime Tower Speed:32
;Travel Speed:120
;Initial Layer Speed:16
;Skirt/Brim Speed:16
;Combing Mode:off
; --------SpecialModel&Mesh Fixes--------
;Union Overlapping Volum:true
;Remove All Holes:false
;Maximum Travel Resolution:0.4
;Maximum Deviation:0.05
;Maximum Model Angle:0.872665
;IS Mold Print:false
;Make Overhang Printable:false
;Enable Coasting:false
;Coasting Volumes:0.06
;Coasting Speed:0.9
;Raft AirGap:0.25
;Layer0 ZOverLap:0.13
;---------------------End of Head--------------------------
M140 S74
M105
M104 S235
M105
M109 S235
M105
M190 S74
M82 ;absolute extrusion mode
M220 S100 ;Reset Feedrate
M221 S100 ;Reset Flowrate

G28 ;Home

G92 E0 ;Reset Extruder
G1 Z2.0 F3000 ;Move Z Axis up
G1 X10.1 Y20 Z0.28 F5000.0 ;Move to start position
G1 X10.1 Y145.0 Z0.28 F1500.0 E15 ;Draw the first line
G1 X10.4 Y145.0 Z0.28 F5000.0 ;Move to side a little
G1 X10.4 Y20 Z0.28 F1500.0 E30 ;Draw the second line
G92 E0  ;Reset Extruder
G1 E-1.0000 F1800 ;Retract a bit
G1 Z2.0 F3000 ;Move Z Axis up
G1 E0.0000 F1800 

G92 E0
G92 E0
G1 F6000 E-8

;LAYER_COUNT:159

;LAYER:0
M107
G0 F3600 X81.591 Y81.589 Z0.15
;;retract;;
G0 X87.11 Y87.105
;TYPE:SKIRT
G1 F6000 E0
G1 F960 X94.096 Y79.78 E0.18517
G1 X100.74 Y72.126 E0.37057
G1 X107.011 Y64.175 E0.55582
G1 X112.902 Y55.936 E0.7411
G1 X118.399 Y47.43 E0.92636
G1 X123.49 Y38.676 E1.11161
G1 X123.562 Y38.627 E1.11321
G1 X123.675 Y38.714 E1.11581
G1 X123.782 Y39.632 E1.13272
G1 X149.923 Y65.777 E1.80905
G1 X150.729 Y65.777 E1.82379
G1 X150.8 Y65.806 E1.8252
G1 X178.789 Y93.794 E2.54927
G1 X178.789 Y93.936 E2.55186
G1 X93.935 Y178.788 E4.74704
G1 X93.793 Y178.788 E4.74964
G1 X38.652 Y123.647 E6.17615
G1 X38.673 Y123.49 E6.17905
G1 X47.43 Y118.399 E6.36435
G1 X55.939 Y112.9 E6.54968
G1 X64.175 Y107.011 E6.73489
G1 X72.127 Y100.739 E6.92016
G1 X79.781 Y94.097 E7.10554
G1 X87.11 Y87.105 E7.29084
;;retract;;
G1 F6000 E-0.70916
G0 F3600 X94.076 Y178.929
G1 F6000 E7.29084
G1 F960 X93.79 Y179.008 E7.29627
G1 X93.652 Y178.929 E7.29918
G1 X38.511 Y123.788 E8.72569
G1 X38.432 Y123.502 E8.73112
G1 X38.572 Y123.317 E8.73536
G1 X47.321 Y118.231 E8.92049
G1 X55.83 Y112.732 E9.10582
G1 X64.051 Y106.854 E9.29069
G1 X72 Y100.584 E9.47589
G1 X79.649 Y93.945 E9.66117
G1 X86.972 Y86.96 E9.8463
G1 X93.945 Y79.649 E10.03112
G1 X100.589 Y71.995 E10.21653
G1 X106.853 Y64.051 E10.40159
G1 X112.731 Y55.831 E10.58645
G1 X118.231 Y47.321 E10.77181
G1 X123.317 Y38.575 E10.95688
G1 X123.573 Y38.426 E10.9623
G1 X123.833 Y38.571 E10.96775
G1 X123.874 Y38.691 E10.97007
G1 X123.973 Y39.541 E10.98572
G1 X150.005 Y65.577 E11.65923
G1 X150.729 Y65.577 E11.67247
G1 X150.941 Y65.665 E11.67667
G1 X178.93 Y93.653 E12.40074
G1 X179.009 Y93.939 E12.40617
G1 X178.93 Y94.077 E12.40908
G1 X94.076 Y178.929 E14.60425
G0 F3600 X94.218 Y179.071
G1 F960 X93.856 Y179.217 E14.61139
G1 X93.51 Y179.071 E14.61826
G1 X38.369 Y123.93 E16.04478
G1 X38.223 Y123.568 E16.05192
G1 X38.381 Y123.211 E16.05906
G1 X38.472 Y123.144 E16.06113
G1 X47.219 Y118.059 E16.24621
G1 X55.703 Y112.576 E16.431
G1 X63.933 Y106.693 E16.61606
G1 X71.875 Y100.428 E16.80111
G1 X79.518 Y93.794 E16.98624
G1 X86.825 Y86.823 E17.17098
G1 X93.796 Y79.515 E17.35573
G1 X100.429 Y71.874 E17.54083
G1 X106.696 Y63.927 E17.72597
G1 X112.576 Y55.703 E17.91091
G1 X118.063 Y47.213 E18.09583
G1 X123.144 Y38.475 E18.28073
G1 X123.456 Y38.241 E18.28787
G1 X123.655 Y38.232 E18.29151
G1 X123.985 Y38.439 E18.29864
G1 X124.073 Y38.668 E18.30313
G1 X124.164 Y39.448 E18.31749
G1 X150.089 Y65.377 E18.98823
G1 X150.729 Y65.377 E18.99994
G1 X151.083 Y65.523 E19.00694
G1 X179.072 Y93.511 E19.73102
G1 X179.218 Y93.873 E19.73816
G1 X179.072 Y94.219 E19.74503
G1 X94.218 Y179.071 E21.9402
G0 F3600 X94.359 Y179.212
G1 F960 X93.94 Y179.413 E21.9487
G1 X93.487 Y179.307 E21.95721
G1 X93.369 Y179.212 E21.95998
G1 X38.228 Y124.071 E23.3865
G1 X38.027 Y123.652 E23.395
G1 X38.133 Y123.199 E23.40351
G1 X38.371 Y122.971 E23.40954
G1 X47.115 Y117.888 E23.59456
G1 X55.613 Y112.396 E23.77965
G1 X63.81 Y106.536 E23.96397
G1 X71.74 Y100.281 E24.14873
G1 X79.377 Y93.652 E24.33373
G1 X86.684 Y86.682 E24.51845
G1 X93.652 Y79.377 E24.70313
G1 X100.287 Y71.733 E24.88829
G1 X106.539 Y63.804 E25.073
G1 X112.398 Y55.61 E25.25727
G1 X117.888 Y47.115 E25.4423
G1 X122.971 Y38.374 E25.62727
G1 X123.325 Y38.073 E25.63577
G1 X123.556 Y38.026 E25.64008
G1 X123.999 Y38.168 E25.64859
G1 X124.16 Y38.34 E25.6529
G1 X124.271 Y38.645 E25.65884
G1 X124.354 Y39.356 E25.67193
G1 X150.171 Y65.177 E26.33988
G1 X150.729 Y65.177 E26.35009
G1 X150.961 Y65.217 E26.35439
G1 X151.224 Y65.382 E26.36007
G1 X179.213 Y93.37 E27.08414
G1 X179.414 Y93.789 E27.09264
G1 X179.308 Y94.242 E27.10116
G1 X179.213 Y94.36 E27.10393
G1 X94.359 Y179.212 E29.2991
G0 F3600 X94.5 Y179.353
G1 F960 X94.285 Y179.512 E29.30399
G1 X94.033 Y179.601 E29.30888
G1 X93.765 Y179.612 E29.31379
G1 X93.507 Y179.543 E29.31867
G1 X93.228 Y179.353 E29.32485
G1 X38.087 Y124.212 E30.75136
G1 X37.928 Y123.997 E30.75625
G1 X37.839 Y123.745 E30.76114
G1 X37.828 Y123.477 E30.76605
G1 X37.897 Y123.219 E30.77094
G1 X38.039 Y122.992 E30.77583
G1 X38.271 Y122.798 E30.78137
G1 X47.013 Y117.716 E30.96634
G1 X55.49 Y112.238 E31.15097
G1 X63.689 Y106.376 E31.33535
G1 X71.615 Y100.124 E31.52002
G1 X79.249 Y93.498 E31.70493
G1 X86.543 Y86.541 E31.88932
G1 X93.498 Y79.249 E32.07366
G1 X100.125 Y71.614 E32.2586
G1 X106.375 Y63.689 E32.44324
G1 X112.23 Y55.5 E32.62739
G1 X117.727 Y46.995 E32.81264
G1 X122.798 Y38.274 E32.99718
G1 X122.965 Y38.065 E33.00208
G1 X123.187 Y37.915 E33.00698
G1 X123.443 Y37.836 E33.01188
G1 X123.71 Y37.836 E33.01676
G1 X123.966 Y37.915 E33.02166
G1 X124.187 Y38.065 E33.02655
G1 X124.354 Y38.274 E33.03144
G1 X124.47 Y38.622 E33.03815
G1 X124.545 Y39.265 E33.05
G1 X150.253 Y64.977 E33.71512
G1 X150.729 Y64.977 E33.72383
G1 X150.994 Y65.017 E33.72873
G1 X151.235 Y65.133 E33.73363
G1 X151.365 Y65.241 E33.73672
G1 X179.354 Y93.229 E34.46079
G1 X179.513 Y93.444 E34.46568
G1 X179.602 Y93.696 E34.47057
G1 X179.613 Y93.964 E34.47548
G1 X179.544 Y94.222 E34.48036
G1 X179.354 Y94.501 E34.48654
G1 X94.5 Y179.353 E36.68171
G0 F3600 X94.642 Y179.495
G1 F960 X94.406 Y179.674 E36.68713
G1 X94.131 Y179.784 E36.69255
G1 X93.837 Y179.817 E36.69796
G1 X93.545 Y179.77 E36.70337
G1 X93.276 Y179.647 E36.70878
G1 X93.086 Y179.495 E36.71323
G1 X37.945 Y124.354 E38.13975
G1 X37.766 Y124.118 E38.14516
G1 X37.656 Y123.843 E38.15058
G1 X37.623 Y123.549 E38.15599
G1 X37.67 Y123.257 E38.1614
G1 X37.793 Y122.988 E38.16681
G1 X37.984 Y122.761 E38.17224
G1 X38.17 Y122.625 E38.17646
G1 X46.909 Y117.545 E38.36137
G1 X55.371 Y112.076 E38.54568
G1 X63.579 Y106.208 E38.73025
G1 X71.49 Y99.968 E38.91457
G1 X79.11 Y93.354 E39.09915
G1 X86.401 Y86.399 E39.28347
G1 X93.354 Y79.11 E39.46775
G1 X99.969 Y71.489 E39.65235
G1 X106.207 Y63.579 E39.83663
G1 X112.075 Y55.372 E40.02119
G1 X117.545 Y46.909 E40.20553
G1 X122.625 Y38.173 E40.39039
G1 X122.807 Y37.94 E40.3958
G1 X123.044 Y37.763 E40.40121
G1 X123.32 Y37.656 E40.40663
G1 X123.615 Y37.627 E40.41205
G1 X123.907 Y37.677 E40.41747
G1 X124.174 Y37.803 E40.42287
G1 X124.399 Y37.996 E40.42829
G1 X124.564 Y38.242 E40.43371
G1 X124.669 Y38.599 E40.44052
G1 X124.736 Y39.172 E40.45107
G1 X150.337 Y64.777 E41.11343
G1 X150.729 Y64.777 E41.1206
G1 X151.022 Y64.817 E41.12601
G1 X151.294 Y64.933 E41.13142
G1 X151.507 Y65.099 E41.13636
G1 X179.496 Y93.087 E41.86043
G1 X179.675 Y93.323 E41.86585
G1 X179.785 Y93.597 E41.87125
G1 X179.818 Y93.892 E41.87668
G1 X179.771 Y94.184 E41.88209
G1 X179.648 Y94.453 E41.8875
G1 X179.496 Y94.643 E41.89195
G1 X94.642 Y179.495 E44.08713
G0 F3600 X94.783 Y179.636
G1 F960 X94.529 Y179.834 E44.09302
G1 X94.234 Y179.963 E44.09891
G1 X93.917 Y180.016 E44.10479
G1 X93.596 Y179.989 E44.11068
G1 X93.292 Y179.884 E44.11656
G1 X92.945 Y179.636 E44.12436
G1 X37.804 Y124.495 E45.55088
G1 X37.606 Y124.241 E45.55677
G1 X37.477 Y123.946 E45.56266
G1 X37.424 Y123.629 E45.56854
G1 X37.451 Y123.308 E45.57443
G1 X37.556 Y123.004 E45.58032
G1 X37.732 Y122.735 E45.5862
G1 X38.07 Y122.452 E45.59426
G1 X46.796 Y117.379 E45.7789
G1 X55.262 Y111.908 E45.96329
G1 X63.459 Y106.048 E46.14762
G1 X71.365 Y99.812 E46.33182
G1 X78.972 Y93.209 E46.51609
G1 X86.259 Y86.257 E46.70032
G1 X93.209 Y78.972 E46.8845
G1 X99.813 Y71.364 E47.0688
G1 X106.058 Y63.445 E47.25329
G1 X111.898 Y55.277 E47.43697
G1 X117.373 Y46.805 E47.62149
G1 X122.452 Y38.072 E47.8063
G1 X122.647 Y37.816 E47.81218
G1 X122.899 Y37.616 E47.81807
G1 X123.193 Y37.484 E47.82397
G1 X123.51 Y37.428 E47.82985
G1 X123.831 Y37.451 E47.83574
G1 X124.136 Y37.553 E47.84162
G1 X124.407 Y37.726 E47.84751
G1 X124.627 Y37.961 E47.85339
G1 X124.783 Y38.243 E47.85929
G1 X124.867 Y38.576 E47.86557
G1 X124.926 Y39.08 E47.87485
G1 X150.419 Y64.577 E48.53442
G1 X150.729 Y64.577 E48.54009
G1 X151.048 Y64.617 E48.54597
G1 X151.348 Y64.734 E48.55186
G1 X151.648 Y64.958 E48.55871
G1 X179.637 Y92.946 E49.28278
G1 X179.835 Y93.2 E49.28867
G1 X179.964 Y93.495 E49.29456
G1 X180.017 Y93.812 E49.30044
G1 X179.99 Y94.133 E49.30633
G1 X179.885 Y94.437 E49.31222
G1 X179.637 Y94.784 E49.32002
G1 X94.783 Y179.636 E51.51519
G0 F3600 X94.925 Y179.778
G1 F960 X94.654 Y179.992 E51.52151
G1 X94.34 Y180.139 E51.52785
G1 X94.002 Y180.211 E51.53418
G1 X93.656 Y180.203 E51.54051
G1 X93.322 Y180.116 E51.54682
G1 X93.016 Y179.954 E51.55315
G1 X92.803 Y179.778 E51.55821
G1 X37.662 Y124.637 E52.98472
G1 X37.448 Y124.366 E52.99104
G1 X37.301 Y124.052 E52.99738
G1 X37.229 Y123.714 E53.0037
G1 X37.237 Y123.368 E53.01004
G1 X37.324 Y123.034 E53.01635
G1 X37.486 Y122.728 E53.02268
G1 X37.713 Y122.467 E53.02901
G1 X37.969 Y122.279 E53.03482
G1 X46.703 Y117.202 E53.21962
G1 X55.158 Y111.738 E53.40378
G1 X63.325 Y105.899 E53.58743
G1 X71.24 Y99.656 E53.77184
G1 X78.844 Y93.055 E53.95604
G1 X86.118 Y86.116 E54.13994
G1 X93.055 Y78.844 E54.32379
G1 X99.657 Y71.239 E54.50802
G1 X105.898 Y63.325 E54.69239
G1 X111.737 Y55.159 E54.87603
G1 X117.202 Y46.703 E55.06021
G1 X122.279 Y37.972 E55.24497
G1 X122.486 Y37.695 E55.25129
G1 X122.752 Y37.473 E55.25763
G1 X123.06 Y37.317 E55.26394
G1 X123.397 Y37.237 E55.27028
G1 X123.743 Y37.235 E55.27661
G1 X124.08 Y37.313 E55.28294
G1 X124.39 Y37.466 E55.28926
G1 X124.657 Y37.686 E55.29559
G1 X124.866 Y37.961 E55.30191
G1 X125.007 Y38.277 E55.30824
G1 X125.066 Y38.552 E55.31338
G1 X125.117 Y38.987 E55.3214
G1 X150.503 Y64.377 E55.97819
G1 X150.729 Y64.377 E55.98233
G1 X151.073 Y64.417 E55.98866
G1 X151.398 Y64.534 E55.99498
G1 X151.79 Y64.816 E56.00381
G1 X179.779 Y92.804 E56.72788
G1 X179.993 Y93.075 E56.7342
G1 X180.14 Y93.388 E56.74053
G1 X180.212 Y93.727 E56.74687
G1 X180.204 Y94.073 E56.7532
G1 X180.117 Y94.407 E56.75951
G1 X179.955 Y94.713 E56.76585
G1 X179.779 Y94.926 E56.7709
G1 X94.925 Y179.778 E58.96607
G0 F3600 X95.066 Y179.919
G1 F960 X94.779 Y180.15 E58.97281
G1 X94.449 Y180.313 E58.97955
G1 X94.092 Y180.402 E58.98628
G1 X93.723 Y180.411 E58.99303
G1 X93.362 Y180.341 E58.99976
G1 X93.024 Y180.195 E59.00649
G1 X92.662 Y179.919 E59.01482
G1 X37.521 Y124.778 E60.44133
G1 X37.29 Y124.491 E60.44807
G1 X37.127 Y124.161 E60.45481
G1 X37.038 Y123.804 E60.46154
G1 X37.029 Y123.435 E60.46829
G1 X37.099 Y123.074 E60.47501
G1 X37.245 Y122.736 E60.48175
G1 X37.461 Y122.437 E60.4885
G1 X37.869 Y122.106 E60.49811
G1 X46.59 Y117.036 E60.68264
G1 X55.038 Y111.577 E60.86664
G1 X63.214 Y105.731 E61.0505
G1 X71.115 Y99.499 E61.23459
G1 X78.705 Y92.911 E61.41844
G1 X85.977 Y85.975 E61.60227
G1 X92.911 Y78.705 E61.78606
G1 X99.5 Y71.114 E61.96993
G1 X105.73 Y63.214 E62.15398
G1 X111.576 Y55.039 E62.33783
G1 X117.03 Y46.599 E62.52165
G1 X122.106 Y37.871 E62.70635
G1 X122.325 Y37.575 E62.71309
G1 X122.602 Y37.333 E62.71982
G1 X122.925 Y37.156 E62.72655
G1 X123.278 Y37.052 E62.73329
G1 X123.646 Y37.027 E62.74003
G1 X124.01 Y37.082 E62.74677
G1 X124.354 Y37.214 E62.75351
G1 X124.661 Y37.417 E62.76024
G1 X124.917 Y37.682 E62.76698
G1 X125.111 Y37.995 E62.77372
G1 X125.232 Y38.343 E62.78046
G1 X125.265 Y38.529 E62.78391
G1 X125.308 Y38.896 E62.79067
G1 X150.585 Y64.177 E63.44465
G1 X150.729 Y64.177 E63.44728
G1 X151.095 Y64.217 E63.45402
G1 X151.444 Y64.335 E63.46076
G1 X151.759 Y64.525 E63.46749
G1 X151.931 Y64.675 E63.47166
G1 X179.92 Y92.663 E64.19573
G1 X180.151 Y92.95 E64.20247
G1 X180.314 Y93.28 E64.2092
G1 X180.403 Y93.637 E64.21594
G1 X180.412 Y94.005 E64.22267
G1 X180.342 Y94.367 E64.22941
G1 X180.196 Y94.705 E64.23615
G1 X179.92 Y95.067 E64.24448
G1 X95.066 Y179.919 E66.43965
G0 F3600 X95.207 Y180.061
G1 F960 X94.905 Y180.306 E66.44676
G1 X94.56 Y180.485 E66.45387
G1 X94.185 Y180.59 E66.461
G1 X93.796 Y180.616 E66.46813
G1 X93.41 Y180.562 E66.47526
G1 X93.044 Y180.431 E66.48237
G1 X92.712 Y180.228 E66.48949
G1 X92.52 Y180.061 E66.49414
G1 X37.379 Y124.92 E67.92066
G1 X37.134 Y124.617 E67.92779
G1 X36.955 Y124.272 E67.9349
G1 X36.85 Y123.897 E67.94202
G1 X36.824 Y123.508 E67.94915
G1 X36.878 Y123.122 E67.95628
G1 X37.009 Y122.756 E67.96339
G1 X37.212 Y122.424 E67.97051
G1 X37.479 Y122.14 E67.97764
G1 X37.768 Y121.933 E67.98415
G1 X46.496 Y116.859 E68.16883
G1 X54.92 Y111.415 E68.35231
G1 X63.094 Y105.571 E68.53612
G1 X70.99 Y99.343 E68.72009
G1 X78.567 Y92.767 E68.90361
G1 X85.835 Y85.833 E69.08737
G1 X92.767 Y78.567 E69.27107
G1 X99.353 Y70.98 E69.45486
G1 X105.562 Y63.105 E69.63831
G1 X111.414 Y54.921 E69.82236
G1 X116.869 Y46.481 E70.00619
G1 X121.934 Y37.771 E70.19051
G1 X122.163 Y37.456 E70.19763
G1 X122.451 Y37.195 E70.20474
G1 X122.787 Y36.998 E70.21186
G1 X123.156 Y36.873 E70.21899
G1 X123.542 Y36.826 E70.2261
G1 X123.93 Y36.859 E70.23323
G1 X124.304 Y36.971 E70.24037
G1 X124.646 Y37.156 E70.24748
G1 X124.944 Y37.407 E70.25461
G1 X125.184 Y37.714 E70.26174
G1 X125.356 Y38.063 E70.26886
G1 X125.463 Y38.506 E70.27719
G1 X125.498 Y38.803 E70.28266
G1 X150.668 Y63.977 E70.93387
G1 X150.729 Y63.977 E70.93499
G1 X151.116 Y64.017 E70.9421
G1 X151.487 Y64.135 E70.94923
G1 X151.827 Y64.326 E70.95636
