;FLAVOR:Marlin
;TIME:86971
;Filament used:32.5232m
;Layer height: 0.2
;MINX:32.327
;MINY:32.327
;MINZ:0.15
;MAXX:187.673
;MAXY:187.657
;MAXZ:46.95
                           
;Creality Print GCode Generated by CXEngineDEV
;Generated Time:2022-06-30 15:03:09
;----------Machine Config--------------
;Machine Name:Creality Ender-3
;Machine Height:250
;Machine Width:220
;Machine Depth:220
;Material name:Castable
;Number of Extruders:1
;ExtruderParams[0] Nozzle Diameter1000
;----------Profile Config---------------
;Layer Height:0.2
;Wall Thickness:1.4
;Top/Bottom Thickness:1
;Out Wall Line Width:0.2
;Inner Wall Line Width:0.2
;Inital Layer Height:150
;Wall Line Count:7
;Infill Line Distance:2.22
;Infill Pattern:grid
;Infill Sparse Density:18
;Infill Wipe Distance:0
;Print Temperature:235
;Bed Temperature:74
;Support Enable:false
;Support Density:10
;Support Angle:0
;Adhesion Type:brim
;machine is belt:false
;machine belt offset:10
;machine belt offset Y:0
;Raft Base Line Spacing:1.6
;Wait Heatup Sync:true
;----------Shell Config----------------
;Outer Wall Wipe Distance:200
;Infill Before Walls:false
;Infill Overlap:0.08
;Fill Gaps Between Walls:everywhere
;Minimum Infill Area:1
;Top Surface Skin Layer:0
;Top Layers:6
;Z Seam Alignment:sharpest_corner
;Seam Corner Preference:z_seam_corner_inner
;Z Seam X:110
;Z Seam Y:110
;Horizontal Expansion:0
;Top/Bottom Pattern:zigzag
;Ironing Pattern:zigzag
;Vase Model:false
;----------Support Config----------------
;Support Type:everywhere
;Support Pattern:zigzag
;Support Infill Layer Thickness:0.2
;Minimum Support Area:5
;Enable Support Roof:false
;Support Roof Thickness:0.8
;Support Roof Pattern:lines
;Connect Support Lines:0
;Connect Support ZigZags:1
;Minimum Support X/Y Distance:0.2
;Support Line Distance:2
; ---------PrintSpeed & Travel----------
;Enable Print Cool:true
;Avoid Printed Parts Traveling:true
;Enable Retraction:true
;Retraction Distance:8
;Retraction Speed:100
;Retraction Prime Speed:100
;Maximum Retraction Count:100
;Minimum Extrusion Distance Window:1
;Z Hop When Retracted:false
;Z Hop Height:0.2
;Retract Before Outer Wall:true
;Print Speed:32
;Infill Speed:32

;Prime Tower Speed:32
;Travel Speed:120
;Initial Layer Speed:16
;Skirt/Brim Speed:16
;Combing Mode:off
; --------SpecialModel&Mesh Fixes--------
;Union Overlapping Volum:true
;Remove All Holes:false
;Maximum Travel Resolution:0.4
;Maximum Deviation:0.05
;Maximum Model Angle:0.872665
;IS Mold Print:false
;Make Overhang Printable:false
;Enable Coasting:false
;Coasting Volumes:0.06
;Coasting Speed:0.9
;Raft AirGap:0.25
;Layer0 ZOverLap:0.13
;---------------------End of Head--------------------------
M140 S74
M105
M104 S235
M105
M109 S235
M105
M190 S74
M82 ;absolute extrusion mode
M220 S100 ;Reset Feedrate
M221 S100 ;Reset Flowrate

G28 ;Home

G92 E0 ;Reset Extruder
G1 Z2.0 F3000 ;Move Z Axis up
G1 X10.1 Y20 Z0.28 F5000.0 ;Move to start position
G1 X10.1 Y145.0 Z0.28 F1500.0 E15 ;Draw the first line
G1 X10.4 Y145.0 Z0.28 F5000.0 ;Move to side a little
G1 X10.4 Y20 Z0.28 F1500.0 E30 ;Draw the second line
G92 E0  ;Reset Extruder
G1 E-1.0000 F1800 ;Retract a bit
G1 Z2.0 F3000 ;Move Z Axis up
G1 E0.0000 F1800 

G92 E0
G92 E0
G1 F6000 E-8

;LAYER_COUNT:235

;LAYER:0
M107
G0 F3600 X34.639 Y85.266 Z0.15
;;retract;;
G0 X128.995 Y179.765
;TYPE:SKIRT
G1 F6000 E0
G1 F960 X40.154 Y90.923 E1.72377
G1 X40.154 Y90.781 E1.72572
G1 X90.781 Y40.154 E2.70802
G1 X90.923 Y40.154 E2.70997
G1 X179.846 Y129.077 E4.43532
G1 X179.846 Y129.219 E4.43726
G1 X129.236 Y179.83 E5.41925
G1 X129.11 Y179.843 E5.42098
G1 X128.995 Y179.765 E5.42289
G0 F3600 X128.854 Y179.906
G1 F960 X40.013 Y91.064 E7.14666
G1 X39.934 Y90.778 E7.15073
G1 X40.013 Y90.64 E7.15291
G1 X90.64 Y40.013 E8.13521
G1 X90.926 Y39.934 E8.13928
G1 X91.064 Y40.013 E8.14147
G1 X179.987 Y128.936 E9.86682
G1 X180.066 Y129.222 E9.87089
G1 X179.987 Y129.36 E9.87307
G1 X129.377 Y179.971 E10.85505
G1 X129.091 Y180.05 E10.85912
G1 X128.854 Y179.906 E10.86293
G0 F3600 X128.712 Y180.048
G1 F960 X39.871 Y91.206 E12.58669
G1 X39.725 Y90.844 E12.59205
G1 X39.871 Y90.498 E12.5972
G1 X90.498 Y39.871 E13.5795
G1 X90.86 Y39.725 E13.58486
G1 X91.206 Y39.871 E13.59001
G1 X180.129 Y128.794 E15.31536
G1 X180.275 Y129.156 E15.32072
G1 X180.129 Y129.502 E15.32587
G1 X129.519 Y180.113 E16.30785
G1 X129.157 Y180.259 E16.31321
G1 X128.891 Y180.177 E16.31702
G1 X128.712 Y180.048 E16.32005
G0 F3600 X128.571 Y180.189
G1 F960 X39.73 Y91.347 E18.04382
G1 X39.529 Y90.928 E18.0502
G1 X39.635 Y90.475 E18.05658
G1 X39.73 Y90.357 E18.05866
G1 X90.357 Y39.73 E19.04096
G1 X90.776 Y39.529 E19.04734
G1 X91.229 Y39.635 E19.05372
G1 X91.347 Y39.73 E19.0558
G1 X180.27 Y128.653 E20.78115
G1 X180.471 Y129.072 E20.78752
G1 X180.365 Y129.525 E20.79391
G1 X180.27 Y129.643 E20.79598
G1 X129.66 Y180.254 E21.77797
G1 X129.241 Y180.455 E21.78434
G1 X128.781 Y180.344 E21.79083
G1 X128.571 Y180.189 E21.79441
G0 F3600 X128.43 Y180.33
G1 F960 X39.589 Y91.488 E23.51818
G1 X39.43 Y91.273 E23.52185
G1 X39.341 Y91.021 E23.52552
G1 X39.33 Y90.753 E23.5292
G1 X39.399 Y90.495 E23.53286
G1 X39.589 Y90.216 E23.53749
G1 X90.216 Y39.589 E24.5198
G1 X90.431 Y39.43 E24.52346
G1 X90.683 Y39.341 E24.52713
G1 X90.951 Y39.33 E24.53081
G1 X91.209 Y39.399 E24.53448
G1 X91.488 Y39.589 E24.53911
G1 X180.411 Y128.512 E26.26446
G1 X180.57 Y128.727 E26.26812
G1 X180.659 Y128.979 E26.27179
G1 X180.67 Y129.247 E26.27547
G1 X180.601 Y129.505 E26.27914
G1 X180.411 Y129.784 E26.28377
G1 X129.801 Y180.395 E27.26575
G1 X129.586 Y180.554 E27.26942
G1 X129.334 Y180.643 E27.27308
G1 X129.066 Y180.654 E27.27676
G1 X128.808 Y180.585 E27.28043
G1 X128.572 Y180.446 E27.28419
G1 X128.43 Y180.33 E27.2867
G0 F3600 X128.288 Y180.472
G1 F960 X39.447 Y91.63 E29.01047
G1 X39.268 Y91.394 E29.01453
G1 X39.158 Y91.119 E29.0186
G1 X39.125 Y90.825 E29.02266
G1 X39.172 Y90.533 E29.02671
G1 X39.295 Y90.264 E29.03077
G1 X39.447 Y90.074 E29.03411
G1 X90.074 Y39.447 E30.01641
G1 X90.31 Y39.268 E30.02048
G1 X90.585 Y39.158 E30.02454
G1 X90.879 Y39.125 E30.0286
G1 X91.171 Y39.172 E30.03266
G1 X91.44 Y39.295 E30.03671
G1 X91.63 Y39.447 E30.04005
G1 X180.553 Y128.37 E31.7654
G1 X180.732 Y128.606 E31.76947
G1 X180.842 Y128.881 E31.77353
G1 X180.875 Y129.175 E31.77759
G1 X180.828 Y129.467 E31.78165
G1 X180.705 Y129.736 E31.7857
G1 X180.553 Y129.926 E31.78904
G1 X129.943 Y180.537 E32.77103
G1 X129.707 Y180.716 E32.77509
G1 X129.432 Y180.826 E32.77915
G1 X129.138 Y180.859 E32.78321
G1 X128.846 Y180.812 E32.78727
G1 X128.561 Y180.679 E32.79158
G1 X128.288 Y180.472 E32.79628
G0 F3600 X128.147 Y180.613
G1 F960 X39.306 Y91.771 E34.52005
G1 X39.108 Y91.517 E34.52447
G1 X38.979 Y91.222 E34.52889
G1 X38.926 Y90.905 E34.5333
G1 X38.953 Y90.584 E34.53772
G1 X39.058 Y90.28 E34.54213
G1 X39.306 Y89.933 E34.54798
G1 X89.933 Y39.306 E35.53028
G1 X90.187 Y39.108 E35.5347
G1 X90.482 Y38.979 E35.53912
G1 X90.799 Y38.926 E35.54353
G1 X91.12 Y38.953 E35.54795
G1 X91.424 Y39.058 E35.55236
G1 X91.771 Y39.306 E35.55821
G1 X180.694 Y128.229 E37.28356
G1 X180.892 Y128.483 E37.28798
G1 X181.021 Y128.778 E37.2924
G1 X181.074 Y129.095 E37.29681
G1 X181.047 Y129.416 E37.30123
G1 X180.942 Y129.72 E37.30564
G1 X180.694 Y130.067 E37.31149
G1 X130.084 Y180.678 E38.29347
G1 X129.83 Y180.876 E38.29789
G1 X129.535 Y181.005 E38.30231
G1 X129.218 Y181.058 E38.30672
G1 X128.897 Y181.031 E38.31114
G1 X128.593 Y180.926 E38.31555
G1 X128.353 Y180.781 E38.3194
G1 X128.147 Y180.613 E38.32305
G0 F3600 X128.005 Y180.755
G1 F960 X39.164 Y91.913 E40.04681
G1 X38.95 Y91.642 E40.05155
G1 X38.803 Y91.328 E40.05631
G1 X38.731 Y90.99 E40.06105
G1 X38.739 Y90.644 E40.0658
G1 X38.826 Y90.31 E40.07053
G1 X38.988 Y90.004 E40.07528
G1 X39.164 Y89.791 E40.07908
G1 X89.791 Y39.164 E41.06138
G1 X90.062 Y38.95 E41.06612
G1 X90.376 Y38.803 E41.07087
G1 X90.714 Y38.731 E41.07561
G1 X91.06 Y38.739 E41.08036
G1 X91.394 Y38.826 E41.0851
G1 X91.7 Y38.988 E41.08985
G1 X91.913 Y39.164 E41.09364
G1 X180.836 Y128.087 E42.81899
G1 X181.05 Y128.358 E42.82372
G1 X181.197 Y128.672 E42.82848
G1 X181.269 Y129.01 E42.83322
G1 X181.261 Y129.356 E42.83797
G1 X181.174 Y129.69 E42.84271
G1 X181.012 Y129.996 E42.84746
G1 X180.836 Y130.209 E42.85125
G1 X130.226 Y180.82 E43.83323
G1 X129.955 Y181.034 E43.83797
G1 X129.642 Y181.181 E43.84271
G1 X129.303 Y181.253 E43.84747
G1 X128.957 Y181.245 E43.85221
G1 X128.623 Y181.158 E43.85695
G1 X128.342 Y181.013 E43.86129
G1 X128.243 Y180.948 E43.86291
G1 X128.005 Y180.755 E43.86712
G0 F3600 X127.864 Y180.896
G1 F960 X39.023 Y92.054 E45.59089
G1 X38.792 Y91.767 E45.59594
G1 X38.629 Y91.437 E45.60099
G1 X38.54 Y91.08 E45.60604
G1 X38.531 Y90.711 E45.6111
G1 X38.601 Y90.35 E45.61615
G1 X38.747 Y90.012 E45.6212
G1 X39.023 Y89.65 E45.62744
G1 X89.65 Y39.023 E46.60975
G1 X89.937 Y38.792 E46.6148
G1 X90.267 Y38.629 E46.61985
G1 X90.624 Y38.54 E46.6249
G1 X90.993 Y38.531 E46.62996
G1 X91.354 Y38.601 E46.63501
G1 X91.692 Y38.747 E46.64006
G1 X92.054 Y39.023 E46.6463
G1 X180.977 Y127.946 E48.37165
G1 X181.208 Y128.233 E48.37671
G1 X181.371 Y128.563 E48.38176
G1 X181.46 Y128.92 E48.38681
G1 X181.469 Y129.289 E48.39187
G1 X181.399 Y129.65 E48.39692
G1 X181.253 Y129.988 E48.40197
G1 X180.977 Y130.35 E48.40821
G1 X130.367 Y180.961 E49.39019
G1 X130.08 Y181.192 E49.39525
G1 X129.75 Y181.355 E49.4003
G1 X129.393 Y181.444 E49.40535
G1 X129.025 Y181.453 E49.4104
G1 X128.663 Y181.383 E49.41546
G1 X128.232 Y181.18 E49.42199
G1 X128.133 Y181.115 E49.42362
G1 X127.864 Y180.896 E49.42838
G0 F3600 X127.722 Y181.037
G1 F960 X38.881 Y92.195 E51.15214
G1 X38.636 Y91.893 E51.15748
G1 X38.457 Y91.548 E51.16281
G1 X38.352 Y91.173 E51.16815
G1 X38.326 Y90.784 E51.1735
G1 X38.38 Y90.398 E51.17885
G1 X38.511 Y90.032 E51.18418
G1 X38.714 Y89.7 E51.18952
G1 X38.881 Y89.508 E51.19301
G1 X89.508 Y38.881 E52.17532
G1 X89.811 Y38.636 E52.18066
G1 X90.156 Y38.457 E52.186
G1 X90.531 Y38.352 E52.19134
G1 X90.92 Y38.326 E52.19669
G1 X91.306 Y38.38 E52.20203
G1 X91.672 Y38.511 E52.20737
G1 X92.004 Y38.714 E52.21271
G1 X92.196 Y38.881 E52.2162
G1 X181.119 Y127.804 E53.94155
G1 X181.364 Y128.107 E53.94689
G1 X181.543 Y128.452 E53.95223
G1 X181.648 Y128.827 E53.95757
G1 X181.674 Y129.216 E53.96292
G1 X181.62 Y129.602 E53.96826
G1 X181.489 Y129.968 E53.9736
G1 X181.286 Y130.3 E53.97894
G1 X181.119 Y130.491 E53.98242
G1 X130.509 Y181.102 E54.9644
G1 X130.206 Y181.348 E54.96976
G1 X129.861 Y181.527 E54.97509
G1 X129.486 Y181.632 E54.98043
G1 X129.097 Y181.658 E54.98578
G1 X128.711 Y181.604 E54.99113
G1 X128.345 Y181.473 E54.99646
G1 X128.122 Y181.347 E54.99997
G1 X128.023 Y181.282 E55.0016
G1 X127.722 Y181.037 E55.00692
G0 F3600 X127.581 Y181.179
G1 F960 X38.74 Y92.337 E56.73069
G1 X38.48 Y92.021 E56.73631
G1 X38.287 Y91.66 E56.74192
G1 X38.167 Y91.268 E56.74755
G1 X38.125 Y90.861 E56.75316
G1 X38.163 Y90.454 E56.75877
G1 X38.28 Y90.061 E56.76439
G1 X38.47 Y89.699 E56.77
G1 X38.74 Y89.367 E56.77587
G1 X89.367 Y38.74 E57.75818
G1 X89.683 Y38.48 E57.76379
G1 X90.044 Y38.287 E57.76941
G1 X90.436 Y38.167 E57.77503
G1 X90.843 Y38.125 E57.78065
G1 X91.25 Y38.163 E57.78625
G1 X91.643 Y38.28 E57.79188
G1 X92.005 Y38.47 E57.79749
G1 X92.337 Y38.74 E57.80336
G1 X181.26 Y127.663 E59.52871
G1 X181.52 Y127.979 E59.53432
G1 X181.713 Y128.34 E59.53994
G1 X181.833 Y128.732 E59.54556
G1 X181.875 Y129.139 E59.55118
G1 X181.837 Y129.546 E59.55679
G1 X181.72 Y129.939 E59.56241
G1 X181.53 Y130.301 E59.56802
G1 X181.26 Y130.633 E59.57389
G1 X130.65 Y181.244 E60.55587
G1 X130.334 Y181.504 E60.56149
G1 X129.973 Y181.697 E60.56711
G1 X129.581 Y181.817 E60.57273
G1 X129.174 Y181.859 E60.57834
G1 X128.767 Y181.821 E60.58395
G1 X128.374 Y181.704 E60.58958
G1 X128.012 Y181.514 E60.59519
G1 X127.913 Y181.449 E60.59681
G1 X127.581 Y181.179 E60.60268
G0 F3600 X127.44 Y181.32
G1 F960 X38.599 Y92.478 E62.32645
G1 X38.325 Y92.148 E62.33234
G1 X38.118 Y91.774 E62.3382
G1 X37.983 Y91.367 E62.34408
G1 X37.927 Y90.942 E62.34996
G1 X37.95 Y90.514 E62.35584
G1 X38.052 Y90.098 E62.36172
G1 X38.23 Y89.708 E62.3676
G1 X38.599 Y89.226 E62.37593
G1 X89.226 Y38.599 E63.35823
G1 X89.556 Y38.325 E63.36412
G1 X89.93 Y38.118 E63.36998
G1 X90.337 Y37.983 E63.37587
G1 X90.762 Y37.927 E63.38175
G1 X91.19 Y37.95 E63.38763
G1 X91.606 Y38.052 E63.3935
G1 X91.996 Y38.23 E63.39939
G1 X92.478 Y38.599 E63.40771
G1 X181.401 Y127.522 E65.13306
G1 X181.675 Y127.852 E65.13895
G1 X181.882 Y128.226 E65.14481
G1 X182.017 Y128.633 E65.1507
G1 X182.073 Y129.058 E65.15658
G1 X182.05 Y129.486 E65.16246
G1 X181.948 Y129.902 E65.16834
G1 X181.77 Y130.292 E65.17422
G1 X181.401 Y130.774 E65.18255
G1 X130.791 Y181.385 E66.16453
G1 X130.461 Y181.659 E66.17041
G1 X130.087 Y181.866 E66.17628
G1 X129.68 Y182.001 E66.18216
G1 X129.255 Y182.057 E66.18804
G1 X128.827 Y182.034 E66.19392
G1 X128.411 Y181.932 E66.1998
G1 X127.903 Y181.682 E66.20757
G1 X127.804 Y181.617 E66.20919
G1 X127.44 Y181.32 E66.21564
G0 F3600 X127.298 Y181.462
G1 F960 X38.457 Y92.62 E67.9394
G1 X38.171 Y92.277 E67.94553
G1 X37.95 Y91.888 E67.95167
G1 X37.802 Y91.467 E67.95779
G1 X37.731 Y91.026 E67.96392
G1 X37.74 Y90.579 E67.97005
G1 X37.828 Y90.141 E67.97618
G1 X37.993 Y89.726 E67.98231
G1 X38.229 Y89.347 E67.98844
G1 X38.457 Y89.084 E67.99321
G1 X89.084 Y38.457 E68.97551
G1 X89.427 Y38.171 E68.98164
G1 X89.815 Y37.95 E68.98777
G1 X90.237 Y37.802 E68.9939
G1 X90.678 Y37.731 E69.00003
G1 X91.125 Y37.74 E69.00617
G1 X91.563 Y37.828 E69.0123
G1 X91.978 Y37.993 E69.01842
G1 X92.357 Y38.229 E69.02455
G1 X92.62 Y38.457 E69.02932
G1 X181.543 Y127.38 E70.75467
G1 X181.829 Y127.723 E70.7608
G1 X182.05 Y128.111 E70.76693
G1 X182.198 Y128.533 E70.77306
G1 X182.269 Y128.974 E70.77919
G1 X182.26 Y129.421 E70.78532
G1 X182.172 Y129.859 E70.79145
G1 X182.007 Y130.274 E70.79758
G1 X181.771 Y130.653 E70.80371
G1 X181.543 Y130.916 E70.80848
G1 X130.933 Y181.527 E71.79046
G1 X130.59 Y181.813 E71.79659
G1 X130.202 Y182.034 E71.80272
G1 X129.78 Y182.182 E71.80885
G1 X129.339 Y182.253 E71.81498
G1 X128.892 Y182.244 E71.82112
G1 X128.454 Y182.156 E71.82724
G1 X128.039 Y181.991 E71.83337
G1 X127.694 Y181.784 E71.83889
G1 X127.298 Y181.462 E71.84589
G0 F3600 X127.157 Y181.603
G1 F960 X38.316 Y92.761 E73.56966
G1 X38.017 Y92.406 E73.57603
G1 X37.783 Y92.005 E73.5824
G1 X37.622 Y91.569 E73.58878
G1 X37.538 Y91.113 E73.59514
G1 X37.533 Y90.648 E73.60152
G1 X37.607 Y90.19 E73.60788
G1 X37.76 Y89.751 E73.61426
G1 X37.985 Y89.345 E73.62063
G1 X38.316 Y88.943 E73.62777
G1 X88.943 Y38.316 E74.61008
G1 X89.298 Y38.017 E74.61644
G1 X89.699 Y37.783 E74.62281
G1 X90.135 Y37.622 E74.62919
G1 X90.591 Y37.538 E74.63555
G1 X91.056 Y37.533 E74.64193
G1 X91.514 Y37.607 E74.6483
G1 X91.953 Y37.76 E74.65468
G1 X92.359 Y37.985 E74.66104
G1 X92.761 Y38.316 E74.66819
G1 X181.684 Y127.239 E76.39354
G1 X181.983 Y127.594 E76.39991
G1 X182.217 Y127.995 E76.40628
G1 X182.378 Y128.431 E76.41265
G1 X182.462 Y128.887 E76.41901
G1 X182.467 Y129.352 E76.42539
G1 X182.393 Y129.81 E76.43176
G1 X182.24 Y130.249 E76.43814
G1 X182.015 Y130.655 E76.44451
G1 X181.684 Y131.057 E76.45165
G1 X131.074 Y181.668 E77.43363
G1 X130.719 Y181.967 E77.44
G1 X130.318 Y182.201 E77.44637
G1 X129.882 Y182.362 E77.45275
G1 X129.426 Y182.446 E77.45911
G1 X128.961 Y182.451 E77.46549
G1 X128.503 Y182.377 E77.47185
G1 X128.064 Y182.224 E77.47823
G1 X127.683 Y182.016 E77.48419
G1 X127.584 Y181.951 E77.48581
G1 X127.157 Y181.603 E77.49337
G0 F3600 X127.015 Y181.745
G1 F960 X38.174 Y92.903 E79.21714
G1 X37.863 Y92.535 E79.22375
G1 X37.618 Y92.122 E79.23034
G1 X37.444 Y91.673 E79.23694
G1 X37.346 Y91.202 E79.24354
G1 X37.328 Y90.721 E79.25015
G1 X37.39 Y90.243 E79.25676
G1 X37.529 Y89.783 E79.26335
G1 X37.743 Y89.352 E79.26996
G1 X38.174 Y88.801 E79.27955
G1 X88.801 Y38.174 E80.26186
G1 X89.169 Y37.864 E80.26846
G1 X89.582 Y37.618 E80.27505
G1 X90.031 Y37.444 E80.28166
G1 X90.502 Y37.346 E80.28826
G1 X90.983 Y37.328 E80.29486
G1 X91.461 Y37.39 E80.30148
G1 X91.921 Y37.529 E80.30807
G1 X92.352 Y37.743 E80.31467
G1 X92.903 Y38.174 E80.32427
G1 X181.826 Y127.097 E82.04962
G1 X182.136 Y127.465 E82.05622
G1 X182.382 Y127.878 E82.06282
