;FLAVOR:Marlin
;TIME:45733
;Filament used:14.2743m
;Layer height: 0.2
;MINX:42.108
;MINY:44.321
;MINZ:0.15
;MAXX:175.679
;MAXY:177.899
;MAXZ:26.55
                           
;Creality Print GCode Generated by CXEngineDEV
;Generated Time:2022-06-30 15:03:09
;----------Machine Config--------------
;Machine Name:Creality Ender-3
;Machine Height:250
;Machine Width:220
;Machine Depth:220
;Material name:Castable
;Number of Extruders:1
;ExtruderParams[0] Nozzle Diameter1000
;----------Profile Config---------------
;Layer Height:0.2
;Wall Thickness:1.6
;Top/Bottom Thickness:1
;Out Wall Line Width:0.2
;Inner Wall Line Width:0.2
;Inital Layer Height:150
;Wall Line Count:8
;Infill Line Distance:2.22
;Infill Pattern:grid
;Infill Sparse Density:18
;Infill Wipe Distance:0
;Print Temperature:235
;Bed Temperature:74
;Support Enable:false
;Support Density:10
;Support Angle:0
;Adhesion Type:brim
;machine is belt:false
;machine belt offset:10
;machine belt offset Y:2.6
;Raft Base Line Spacing:1.6
;Wait Heatup Sync:true
;----------Shell Config----------------
;Outer Wall Wipe Distance:200
;Infill Before Walls:false
;Infill Overlap:0.08
;Fill Gaps Between Walls:everywhere
;Minimum Infill Area:1
;Top Surface Skin Layer:0
;Top Layers:6
;Z Seam Alignment:sharpest_corner
;Seam Corner Preference:z_seam_corner_inner
;Z Seam X:110
;Z Seam Y:110
;Horizontal Expansion:0
;Top/Bottom Pattern:zigzag
;Ironing Pattern:zigzag
;Vase Model:false
;----------Support Config----------------
;Support Type:everywhere
;Support Pattern:zigzag
;Support Infill Layer Thickness:0.2
;Minimum Support Area:5
;Enable Support Roof:false
;Support Roof Thickness:0.8
;Support Roof Pattern:lines
;Connect Support Lines:0
;Connect Support ZigZags:1
;Minimum Support X/Y Distance:0.2
;Support Line Distance:2
; ---------PrintSpeed & Travel----------
;Enable Print Cool:true
;Avoid Printed Parts Traveling:true
;Enable Retraction:true
;Retraction Distance:8
;Retraction Speed:100
;Retraction Prime Speed:100
;Maximum Retraction Count:100
;Minimum Extrusion Distance Window:1
;Z Hop When Retracted:false
;Z Hop Height:0.2
;Retract Before Outer Wall:true
;Print Speed:32
;Infill Speed:32

;Prime Tower Speed:32
;Travel Speed:120
;Initial Layer Speed:16
;Skirt/Brim Speed:16
;Combing Mode:off
; --------SpecialModel&Mesh Fixes--------
;Union Overlapping Volum:true
;Remove All Holes:false
;Maximum Travel Resolution:0.4
;Maximum Deviation:0.05
;Maximum Model Angle:0.872665
;IS Mold Print:false
;Make Overhang Printable:false
;Enable Coasting:false
;Coasting Volumes:0.06
;Coasting Speed:0.9
;Raft AirGap:0.25
;Layer0 ZOverLap:0.13
;---------------------End of Head--------------------------
M140 S74
M105
M104 S235
M105
M109 S235
M105
M190 S74
M82 ;absolute extrusion mode
M220 S100 ;Reset Feedrate
M221 S100 ;Reset Flowrate

G28 ;Home

G92 E0 ;Reset Extruder
G1 Z2.0 F3000 ;Move Z Axis up
G1 X10.1 Y20 Z0.28 F5000.0 ;Move to start position
G1 X10.1 Y145.0 Z0.28 F1500.0 E15 ;Draw the first line
G1 X10.4 Y145.0 Z0.28 F5000.0 ;Move to side a little
G1 X10.4 Y20 Z0.28 F1500.0 E30 ;Draw the second line
G92 E0  ;Reset Extruder
G1 E-1.0000 F1800 ;Retract a bit
G1 Z2.0 F3000 ;Move Z Axis up
G1 E0.0000 F1800 

G92 E0
G92 E0
G1 F6000 E-8

;LAYER_COUNT:133

;LAYER:0
M107
G0 F3600 X67.271 Y70.128 Z0.15
;;retract;;
G0 X90.715 Y129.28
;TYPE:SKIRT
G1 F6000 E0
G1 F960 X84.551 Y123.4 E0.15583
G1 X78.11 Y117.809 E0.31186
G1 X71.415 Y112.528 E0.46785
G1 X64.485 Y107.574 E0.62368
G1 X57.32 Y102.943 E0.77974
G1 X49.952 Y98.657 E0.93567
G1 X49.93 Y98.502 E0.93853
G1 X49.99 Y98.472 E0.93976
G1 X50.762 Y98.382 E0.95398
G1 X72.757 Y76.387 E1.523
G1 X72.757 Y75.714 E1.53531
G1 X72.786 Y75.643 E1.53671
G1 X96.282 Y52.148 E2.14455
G1 X96.424 Y52.148 E2.14714
G1 X167.852 Y123.576 E3.99501
G1 X167.852 Y123.718 E3.99761
G1 X121.5 Y170.072 E5.19677
G1 X121.343 Y170.051 E5.19967
G1 X117.057 Y162.68 E5.35565
G1 X112.427 Y155.515 E5.5117
G1 X107.471 Y148.585 E5.66755
G1 X102.189 Y141.887 E5.8236
G1 X96.601 Y135.448 E5.97956
G1 X90.715 Y129.28 E6.13552
G0 F3600 X90.57 Y129.418
G1 F960 X84.42 Y123.551 E6.291
G1 X77.979 Y117.96 E6.44703
G1 X71.291 Y112.686 E6.60284
G1 X64.376 Y107.742 E6.75834
G1 X57.211 Y103.111 E6.9144
G1 X49.851 Y98.83 E7.07016
G1 X49.702 Y98.573 E7.07559
G1 X49.847 Y98.314 E7.08102
G1 X49.967 Y98.273 E7.08334
G1 X50.671 Y98.191 E7.09631
G1 X72.557 Y76.305 E7.66251
G1 X72.557 Y75.714 E7.67332
G1 X72.645 Y75.502 E7.67752
G1 X96.141 Y52.007 E8.28535
G1 X96.427 Y51.928 E8.29078
G1 X96.565 Y52.007 E8.29369
G1 X167.993 Y123.435 E10.14155
G1 X168.072 Y123.721 E10.14698
G1 X167.993 Y123.859 E10.14989
G1 X121.641 Y170.213 E11.34906
G1 X121.355 Y170.292 E11.35448
G1 X121.17 Y170.152 E11.35873
G1 X116.889 Y162.789 E11.51453
G1 X112.259 Y155.624 E11.67059
G1 X107.314 Y148.709 E11.8261
G1 X102.041 Y142.022 E11.98188
G1 X96.449 Y135.58 E12.13793
G1 X90.57 Y129.418 E12.29372
G0 F3600 X90.433 Y129.565
G1 F960 X84.289 Y123.702 E12.44908
G1 X77.858 Y118.12 E12.60486
G1 X71.173 Y112.847 E12.76061
G1 X64.248 Y107.897 E12.91633
G1 X57.109 Y103.283 E13.07182
G1 X49.751 Y99.003 E13.22754
G1 X49.517 Y98.691 E13.23467
G1 X49.578 Y98.306 E13.2418
G1 X49.944 Y98.074 E13.24973
G1 X50.578 Y98 E13.26141
G1 X72.357 Y76.221 E13.82483
G1 X72.357 Y75.714 E13.83411
G1 X72.503 Y75.36 E13.84111
G1 X95.999 Y51.865 E14.44895
G1 X96.361 Y51.719 E14.45609
G1 X96.707 Y51.865 E14.46296
G1 X168.135 Y123.293 E16.31083
G1 X168.281 Y123.655 E16.31797
G1 X168.135 Y124.001 E16.32484
G1 X121.783 Y170.355 E17.524
G1 X121.421 Y170.501 E17.53114
G1 X121.064 Y170.343 E17.53828
G1 X120.997 Y170.252 E17.54035
G1 X116.721 Y162.897 E17.69598
G1 X112.104 Y155.752 E17.8516
G1 X107.157 Y148.833 E18.00719
G1 X101.881 Y142.143 E18.16305
G1 X96.298 Y135.711 E18.31886
G1 X90.433 Y129.565 E18.47426
G0 F3600 X90.292 Y129.706
G1 F960 X84.158 Y123.853 E18.62936
G1 X77.723 Y118.267 E18.78524
G1 X71.05 Y113.004 E18.94071
G1 X64.159 Y108.078 E19.09566
G1 X57.005 Y103.454 E19.25149
G1 X49.65 Y99.176 E19.40714
G1 X49.349 Y98.822 E19.41564
G1 X49.335 Y98.358 E19.42413
G1 X49.616 Y97.987 E19.43264
G1 X49.921 Y97.876 E19.43858
G1 X50.486 Y97.81 E19.44899
G1 X72.157 Y76.139 E20.00962
G1 X72.157 Y75.714 E20.0174
G1 X72.197 Y75.482 E20.0217
G1 X72.362 Y75.219 E20.02738
G1 X95.858 Y51.724 E20.63522
G1 X96.277 Y51.523 E20.64372
G1 X96.73 Y51.629 E20.65223
G1 X96.848 Y51.724 E20.655
G1 X168.276 Y123.152 E22.50287
G1 X168.477 Y123.571 E22.51137
G1 X168.371 Y124.024 E22.51988
G1 X168.276 Y124.142 E22.52265
G1 X121.924 Y170.496 E23.72182
G1 X121.505 Y170.697 E23.73032
G1 X121.052 Y170.591 E23.73883
G1 X120.824 Y170.353 E23.74486
G1 X116.546 Y162.995 E23.90055
G1 X111.923 Y155.841 E24.05637
G1 X107 Y148.956 E24.2112
G1 X101.739 Y142.284 E24.36663
G1 X96.147 Y135.842 E24.52268
G1 X90.292 Y129.706 E24.67783
G0 F3600 X90.151 Y129.847
G1 F960 X84.02 Y123.998 E24.83284
G1 X77.598 Y118.424 E24.98839
G1 X70.929 Y113.164 E25.14377
G1 X64.05 Y108.246 E25.29846
G1 X56.901 Y103.626 E25.45417
G1 X49.549 Y99.349 E25.60976
G1 X49.341 Y99.182 E25.61464
G1 X49.19 Y98.96 E25.61955
G1 X49.112 Y98.704 E25.62445
G1 X49.112 Y98.437 E25.62933
G1 X49.191 Y98.181 E25.63423
G1 X49.341 Y97.96 E25.63912
G1 X49.55 Y97.793 E25.64401
G1 X49.898 Y97.677 E25.65072
G1 X50.395 Y97.619 E25.65988
G1 X71.957 Y76.057 E26.21769
G1 X71.957 Y75.714 E26.22397
G1 X71.997 Y75.449 E26.22887
G1 X72.113 Y75.208 E26.23376
G1 X72.221 Y75.078 E26.23685
G1 X95.717 Y51.583 E26.84469
G1 X95.932 Y51.424 E26.84958
G1 X96.184 Y51.335 E26.85447
G1 X96.452 Y51.324 E26.85938
G1 X96.71 Y51.393 E26.86426
G1 X96.989 Y51.583 E26.87044
G1 X168.417 Y123.011 E28.7183
G1 X168.576 Y123.226 E28.72319
G1 X168.665 Y123.478 E28.72808
G1 X168.676 Y123.746 E28.73299
G1 X168.607 Y124.004 E28.73787
G1 X168.417 Y124.283 E28.74405
G1 X122.065 Y170.637 E29.94322
G1 X121.85 Y170.796 E29.94811
G1 X121.598 Y170.885 E29.953
G1 X121.33 Y170.896 E29.9579
G1 X121.072 Y170.827 E29.96279
G1 X120.845 Y170.685 E29.96769
G1 X120.651 Y170.453 E29.97322
G1 X116.374 Y163.098 E30.12886
G1 X111.765 Y155.964 E30.28423
G1 X106.836 Y149.071 E30.43924
G1 X101.577 Y142.403 E30.59459
G1 X96.002 Y135.98 E30.75018
G1 X90.151 Y129.847 E30.90524
G0 F3600 X90.009 Y129.989
G1 F960 X83.881 Y124.142 E31.06018
G1 X77.473 Y118.58 E31.2154
G1 X70.819 Y113.332 E31.37042
G1 X63.917 Y108.398 E31.52562
G1 X56.799 Y103.797 E31.68067
G1 X49.449 Y99.522 E31.83621
G1 X49.215 Y99.34 E31.84163
G1 X49.039 Y99.102 E31.84705
G1 X48.932 Y98.826 E31.85246
G1 X48.903 Y98.532 E31.85787
G1 X48.953 Y98.24 E31.86329
G1 X49.079 Y97.972 E31.8687
G1 X49.272 Y97.748 E31.87411
G1 X49.518 Y97.583 E31.87953
G1 X49.875 Y97.478 E31.88634
G1 X50.302 Y97.428 E31.8942
G1 X71.757 Y75.973 E32.44925
G1 X71.757 Y75.714 E32.45399
G1 X71.797 Y75.421 E32.4594
G1 X71.913 Y75.149 E32.46481
G1 X72.079 Y74.936 E32.46975
G1 X95.575 Y51.441 E33.07758
G1 X95.811 Y51.262 E33.083
G1 X96.086 Y51.152 E33.08842
G1 X96.38 Y51.119 E33.09383
G1 X96.672 Y51.166 E33.09924
G1 X96.941 Y51.289 E33.10465
G1 X97.131 Y51.441 E33.1091
G1 X168.559 Y122.869 E34.95697
G1 X168.738 Y123.105 E34.96239
G1 X168.848 Y123.38 E34.96781
G1 X168.881 Y123.674 E34.97322
G1 X168.834 Y123.966 E34.97863
G1 X168.711 Y124.235 E34.98404
G1 X168.559 Y124.425 E34.98849
G1 X122.207 Y170.779 E36.18766
G1 X121.971 Y170.958 E36.19308
G1 X121.697 Y171.068 E36.19848
G1 X121.402 Y171.101 E36.20391
G1 X121.11 Y171.054 E36.20932
G1 X120.841 Y170.931 E36.21473
G1 X120.614 Y170.74 E36.22015
G1 X120.478 Y170.554 E36.22437
G1 X116.203 Y163.201 E36.37996
G1 X111.603 Y156.083 E36.53499
G1 X106.668 Y149.181 E36.69021
G1 X101.421 Y142.528 E36.84521
G1 X95.858 Y136.119 E37.00045
G1 X90.009 Y129.989 E37.15545
G0 F3600 X89.867 Y130.131
G1 F960 X83.743 Y124.286 E37.31031
G1 X77.348 Y118.736 E37.4652
G1 X70.699 Y113.492 E37.62011
G1 X63.808 Y108.566 E37.77507
G1 X56.695 Y103.969 E37.92999
G1 X49.348 Y99.695 E38.08548
G1 X49.092 Y99.5 E38.09137
G1 X48.892 Y99.248 E38.09725
G1 X48.76 Y98.954 E38.10315
G1 X48.704 Y98.637 E38.10904
G1 X48.727 Y98.316 E38.11492
G1 X48.829 Y98.011 E38.12081
G1 X49.002 Y97.74 E38.12669
G1 X49.237 Y97.52 E38.13258
G1 X49.519 Y97.364 E38.13847
G1 X49.852 Y97.28 E38.14475
G1 X50.21 Y97.238 E38.15135
G1 X71.557 Y75.891 E38.7036
G1 X71.557 Y75.714 E38.70684
G1 X71.597 Y75.395 E38.71272
G1 X71.714 Y75.095 E38.71861
G1 X71.938 Y74.795 E38.72546
G1 X95.434 Y51.3 E39.3333
G1 X95.688 Y51.102 E39.33919
G1 X95.983 Y50.973 E39.34508
G1 X96.3 Y50.92 E39.35096
G1 X96.621 Y50.947 E39.35685
G1 X96.925 Y51.052 E39.36273
G1 X97.272 Y51.3 E39.37054
G1 X168.7 Y122.728 E41.2184
G1 X168.898 Y122.982 E41.22429
G1 X169.027 Y123.277 E41.23018
G1 X169.08 Y123.594 E41.23606
G1 X169.053 Y123.915 E41.24195
G1 X168.948 Y124.219 E41.24784
G1 X168.7 Y124.566 E41.25564
G1 X122.348 Y170.92 E42.45481
G1 X122.094 Y171.118 E42.4607
G1 X121.799 Y171.247 E42.46659
G1 X121.482 Y171.3 E42.47247
G1 X121.161 Y171.273 E42.47836
G1 X120.857 Y171.168 E42.48424
G1 X120.588 Y170.992 E42.49012
G1 X120.305 Y170.654 E42.49819
G1 X116.037 Y163.314 E42.65351
G1 X111.426 Y156.178 E42.80893
G1 X106.519 Y149.315 E42.96326
G1 X101.265 Y142.653 E43.11847
G1 X95.714 Y136.257 E43.27339
G1 X89.867 Y130.131 E43.42831
G0 F3600 X89.726 Y130.272
G1 F960 X83.615 Y124.441 E43.58282
G1 X77.223 Y118.892 E43.73766
G1 X70.565 Y113.641 E43.89278
G1 X63.704 Y108.736 E44.04706
G1 X56.592 Y104.14 E44.20197
G1 X49.248 Y99.868 E44.35739
G1 X48.971 Y99.66 E44.36372
G1 X48.749 Y99.395 E44.37005
G1 X48.593 Y99.086 E44.37638
G1 X48.513 Y98.75 E44.3827
G1 X48.511 Y98.404 E44.38903
G1 X48.589 Y98.067 E44.39536
G1 X48.742 Y97.757 E44.40168
G1 X48.962 Y97.49 E44.40801
G1 X49.237 Y97.281 E44.41433
G1 X49.553 Y97.14 E44.42066
G1 X49.828 Y97.081 E44.4258
G1 X50.117 Y97.047 E44.43112
G1 X71.357 Y75.807 E44.98061
G1 X71.357 Y75.714 E44.98231
G1 X71.397 Y75.37 E44.98865
G1 X71.514 Y75.045 E44.99497
G1 X71.796 Y74.653 E45.0038
G1 X95.292 Y51.158 E45.61163
G1 X95.563 Y50.944 E45.61795
G1 X95.877 Y50.797 E45.62429
G1 X96.215 Y50.725 E45.63062
G1 X96.561 Y50.733 E45.63695
G1 X96.895 Y50.82 E45.64326
G1 X97.201 Y50.982 E45.64959
G1 X97.414 Y51.158 E45.65465
G1 X168.842 Y122.586 E47.50251
G1 X169.056 Y122.857 E47.50883
G1 X169.203 Y123.171 E47.51517
G1 X169.275 Y123.509 E47.52149
G1 X169.267 Y123.855 E47.52783
G1 X169.18 Y124.189 E47.53414
G1 X169.018 Y124.495 E47.54047
G1 X168.842 Y124.708 E47.54553
G1 X122.49 Y171.062 E48.74469
G1 X122.219 Y171.276 E48.75101
G1 X121.906 Y171.423 E48.75734
G1 X121.567 Y171.495 E48.76368
G1 X121.221 Y171.487 E48.77001
G1 X120.887 Y171.4 E48.77632
G1 X120.581 Y171.238 E48.78265
G1 X120.32 Y171.011 E48.78898
G1 X120.132 Y170.755 E48.79479
G1 X115.86 Y163.407 E48.95028
G1 X111.265 Y156.296 E49.10515
G1 X106.359 Y149.435 E49.25945
G1 X101.109 Y142.778 E49.41454
G1 X95.559 Y136.385 E49.56941
G1 X89.726 Y130.272 E49.72397
G0 F3600 X89.584 Y130.414
G1 F960 X83.465 Y124.575 E49.87869
G1 X77.098 Y119.049 E50.03292
G1 X70.454 Y113.809 E50.18771
G1 X63.584 Y108.897 E50.3422
G1 X56.473 Y104.301 E50.49709
G1 X49.147 Y100.04 E50.65212
G1 X48.851 Y99.822 E50.65884
G1 X48.608 Y99.545 E50.66559
G1 X48.432 Y99.222 E50.67231
G1 X48.328 Y98.868 E50.67906
G1 X48.303 Y98.501 E50.68579
G1 X48.358 Y98.137 E50.69253
G1 X48.49 Y97.793 E50.69927
G1 X48.693 Y97.486 E50.706
G1 X48.958 Y97.23 E50.71274
G1 X49.271 Y97.036 E50.71948
G1 X49.619 Y96.915 E50.72622
G1 X50.026 Y96.856 E50.73374
G1 X71.157 Y75.725 E51.28041
G1 X71.197 Y75.348 E51.28734
G1 X71.315 Y74.999 E51.29408
G1 X71.505 Y74.684 E51.30081
G1 X71.655 Y74.512 E51.30498
G1 X95.151 Y51.017 E51.91282
G1 X95.438 Y50.786 E51.91956
G1 X95.768 Y50.623 E51.92629
G1 X96.125 Y50.534 E51.93302
G1 X96.494 Y50.525 E51.93977
G1 X96.855 Y50.595 E51.9465
G1 X97.193 Y50.741 E51.95324
G1 X97.555 Y51.017 E51.96156
G1 X168.983 Y122.445 E53.80943
G1 X169.214 Y122.732 E53.81617
G1 X169.377 Y123.062 E53.8229
G1 X169.466 Y123.419 E53.82963
G1 X169.475 Y123.788 E53.83638
G1 X169.405 Y124.149 E53.84311
G1 X169.259 Y124.487 E53.84985
G1 X168.983 Y124.849 E53.85817
G1 X122.631 Y171.203 E55.05734
G1 X122.344 Y171.434 E55.06408
G1 X122.014 Y171.597 E55.07081
G1 X121.657 Y171.686 E55.07754
G1 X121.289 Y171.695 E55.08428
G1 X120.927 Y171.625 E55.09102
G1 X120.589 Y171.479 E55.09776
G1 X120.29 Y171.263 E55.1045
G1 X119.959 Y170.855 E55.11412
G1 X115.694 Y163.52 E55.26933
G1 X111.104 Y156.416 E55.42405
G1 X106.191 Y149.546 E55.57855
G1 X100.952 Y142.903 E55.73332
G1 X95.425 Y136.535 E55.88756
G1 X89.584 Y130.414 E56.04234
G0 F3600 X89.443 Y130.555
G1 F960 X83.326 Y124.719 E56.19699
G1 X76.973 Y119.205 E56.35088
G1 X70.334 Y113.969 E56.50555
G1 X63.466 Y109.059 E56.65999
G1 X56.371 Y104.473 E56.81453
G1 X49.047 Y100.213 E56.96953
G1 X48.732 Y99.984 E56.97665
G1 X48.471 Y99.696 E56.98376
G1 X48.273 Y99.36 E56.9909
G1 X48.149 Y98.991 E56.99802
G1 X48.102 Y98.604 E57.00515
G1 X48.135 Y98.216 E57.01227
G1 X48.247 Y97.843 E57.0194
G1 X48.432 Y97.501 E57.02651
G1 X48.683 Y97.203 E57.03364
G1 X48.99 Y96.963 E57.04077
G1 X49.339 Y96.791 E57.04788
G1 X49.782 Y96.684 E57.05622
G1 X49.931 Y96.667 E57.05896
G1 X70.965 Y75.633 E57.60312
G1 X70.997 Y75.327 E57.60875
G1 X71.115 Y74.956 E57.61587
G1 X71.306 Y74.616 E57.623
G1 X71.514 Y74.37 E57.6289
G1 X95.01 Y50.875 E58.23673
G1 X95.312 Y50.63 E58.24385
G1 X95.657 Y50.451 E58.25096
G1 X96.032 Y50.346 E58.25808
G1 X96.421 Y50.32 E58.26521
G1 X96.807 Y50.374 E58.27234
G1 X97.173 Y50.505 E58.27945
G1 X97.505 Y50.708 E58.28657
G1 X97.697 Y50.875 E58.29123
G1 X169.125 Y122.303 E60.13909
G1 X169.37 Y122.606 E60.14622
G1 X169.549 Y122.951 E60.15333
G1 X169.654 Y123.326 E60.16045
G1 X169.68 Y123.715 E60.16758
G1 X169.626 Y124.101 E60.17471
G1 X169.495 Y124.467 E60.18183
G1 X169.292 Y124.799 E60.18894
G1 X169.125 Y124.99 E60.19359
G1 X122.773 Y171.344 E61.39275
G1 X122.47 Y171.59 E61.39989
G1 X122.125 Y171.769 E61.407
G1 X121.75 Y171.874 E61.41413
G1 X121.361 Y171.9 E61.42126
G1 X120.976 Y171.846 E61.42837
G1 X120.609 Y171.715 E61.4355
G1 X120.277 Y171.512 E61.44262
G1 X119.993 Y171.245 E61.44975
G1 X119.786 Y170.956 E61.45625
G1 X115.517 Y163.614 E61.61161
G1 X110.942 Y156.534 E61.76581
