;FLAVOR:Marlin
;TIME:38807
;Filament used:11.8329m
;Layer height: 0.2
;MINX:57.184
;MINY:56.15
;MINZ:0.15
;MAXX:163.85
;MAXY:162.812
;MAXZ:33.95
                             
;Creality Print GCode Generated by CXEngineDEV
;Generated Time:2022-06-30 15:03:09
;----------Machine Config--------------
;Machine Name:Creality Ender-3
;Machine Height:250
;Machine Width:220
;Machine Depth:220
;Material name:Castable
;Number of Extruders:1
;ExtruderParams[0] Nozzle Diameter1000
;----------Profile Config---------------
;Layer Height:0.2
;Wall Thickness:1.6
;Top/Bottom Thickness:1
;Out Wall Line Width:0.2
;Inner Wall Line Width:0.2
;Inital Layer Height:150
;Wall Line Count:8
;Infill Line Distance:2.22
;Infill Pattern:grid
;Infill Sparse Density:18
;Infill Wipe Distance:0
;Print Temperature:235
;Bed Temperature:74
;Support Enable:false
;Support Density:10
;Support Angle:0
;Adhesion Type:brim
;machine is belt:false
;machine belt offset:10
;machine belt offset Y:0
;Raft Base Line Spacing:1.6
;Wait Heatup Sync:true
;----------Shell Config----------------
;Outer Wall Wipe Distance:200
;Infill Before Walls:false
;Infill Overlap:0.08
;Fill Gaps Between Walls:everywhere
;Minimum Infill Area:1
;Top Surface Skin Layer:0
;Top Layers:7
;Z Seam Alignment:sharpest_corner
;Seam Corner Preference:z_seam_corner_inner
;Z Seam X:110
;Z Seam Y:110
;Horizontal Expansion:0
;Top/Bottom Pattern:zigzag
;Ironing Pattern:zigzag
;Vase Model:false
;----------Support Config----------------
;Support Type:everywhere
;Support Pattern:zigzag
;Support Infill Layer Thickness:0.2
;Minimum Support Area:5
;Enable Support Roof:false
;Support Roof Thickness:0.8
;Support Roof Pattern:lines
;Connect Support Lines:0
;Connect Support ZigZags:1
;Minimum Support X/Y Distance:0.2
;Support Line Distance:2
; ---------PrintSpeed & Travel----------
;Enable Print Cool:true
;Avoid Printed Parts Traveling:true
;Enable Retraction:true
;Retraction Distance:8
;Retraction Speed:100
;Retraction Prime Speed:100
;Maximum Retraction Count:100
;Minimum Extrusion Distance Window:1
;Z Hop When Retracted:false
;Z Hop Height:0.2
;Retract Before Outer Wall:true
;Print Speed:32
;Infill Speed:32

;Prime Tower Speed:32
;Travel Speed:120
;Initial Layer Speed:16
;Skirt/Brim Speed:16
;Combing Mode:off
; --------SpecialModel&Mesh Fixes--------
;Union Overlapping Volum:true
;Remove All Holes:false
;Maximum Travel Resolution:0.4
;Maximum Deviation:0.05
;Maximum Model Angle:0.872665
;IS Mold Print:false
;Make Overhang Printable:false
;Enable Coasting:false
;Coasting Volumes:0.06
;Coasting Speed:0.9
;Raft AirGap:0.25
;Layer0 ZOverLap:0.13
;---------------------End of Head--------------------------
M140 S74
M105
M104 S235
M105
M109 S235
M105
M190 S74
M82 ;absolute extrusion mode
M220 S100 ;Reset Feedrate
M221 S100 ;Reset Flowrate

G28 ;Home

G92 E0 ;Reset Extruder
G1 Z2.0 F3000 ;Move Z Axis up
G1 X10.1 Y20 Z0.28 F5000.0 ;Move to start position
G1 X10.1 Y145.0 Z0.28 F1500.0 E15 ;Draw the first line
G1 X10.4 Y145.0 Z0.28 F5000.0 ;Move to side a little
G1 X10.4 Y20 Z0.28 F1500.0 E30 ;Draw the second line
G92 E0  ;Reset Extruder
G1 E-1.0000 F1800 ;Retract a bit
G1 Z2.0 F3000 ;Move Z Axis up
G1 E0.0000 F1800 

G92 E0
G92 E0
G1 F6000 E-8

;LAYER_COUNT:170

;LAYER:0
M107
G0 F3600 X59.721 Y58.249 Z0.15
;;retract;;
G0 X155.927 Y155.015
;TYPE:SKIRT
G1 F6000 E0
G1 F960 X155.879 Y154.989 E0.00075
G1 X65.011 Y64.122 E1.76383
G1 X65.03 Y63.966 E1.76598
G1 X65.082 Y63.951 E1.76673
G1 X155.882 Y63.95 E3.01248
G1 X156.05 Y64.119 E3.01575
G1 X156.05 Y154.918 E4.2615
G1 X155.927 Y155.015 E4.26365
G0 F3600 X156.103 Y155.176
G1 F960 X155.806 Y155.181 E4.26772
G1 X155.738 Y155.13 E4.26889
G1 X64.87 Y64.263 E6.03197
G1 X64.791 Y63.977 E6.03604
G1 X64.998 Y63.763 E6.04012
G1 X65.082 Y63.751 E6.04129
G1 X155.882 Y63.75 E7.28704
G1 X156.164 Y63.908 E7.29148
G1 X156.25 Y64.119 E7.29461
G1 X156.25 Y154.918 E8.54035
G1 X156.103 Y155.176 E8.54442
G0 F3600 X155.934 Y155.418
G1 F960 X155.596 Y155.272 E8.54948
G1 X64.728 Y64.405 E10.31255
G1 X64.582 Y64.043 E10.31791
G1 X64.74 Y63.686 E10.32327
G1 X65.082 Y63.551 E10.32831
G1 X155.882 Y63.55 E11.57407
G1 X156.238 Y63.699 E11.57936
G1 X156.415 Y63.935 E11.58341
G1 X156.45 Y64.119 E11.58598
G1 X156.45 Y154.918 E12.83172
G1 X156.298 Y155.277 E12.83707
G1 X155.934 Y155.418 E12.84243
G0 F3600 X156.101 Y155.602
G1 F960 X155.639 Y155.545 E12.84882
G1 X155.455 Y155.413 E12.85192
G1 X64.587 Y64.546 E14.615
G1 X64.386 Y64.127 E14.62138
G1 X64.492 Y63.674 E14.62776
G1 X64.858 Y63.388 E14.63413
G1 X65.082 Y63.351 E14.63725
G1 X155.882 Y63.35 E15.88301
G1 X156.114 Y63.39 E15.88624
G1 X156.381 Y63.559 E15.89057
G1 X156.583 Y63.821 E15.89511
G1 X156.65 Y64.119 E15.8993
G1 X156.65 Y154.918 E17.14504
G1 X156.496 Y155.356 E17.15141
G1 X156.101 Y155.602 E17.1578
G0 F3600 X156.281 Y155.755
G1 F960 X156.021 Y155.815 E17.16146
G1 X155.754 Y155.796 E17.16513
G1 X155.504 Y155.7 E17.16881
G1 X155.314 Y155.554 E17.17209
G1 X64.446 Y64.687 E18.93517
G1 X64.287 Y64.472 E18.93884
G1 X64.198 Y64.22 E18.94251
G1 X64.187 Y63.952 E18.94619
G1 X64.256 Y63.694 E18.94985
G1 X64.398 Y63.467 E18.95353
G1 X64.6 Y63.291 E18.9572
G1 X64.844 Y63.183 E18.96086
G1 X65.082 Y63.151 E18.96416
G1 X155.882 Y63.15 E20.20991
G1 X156.147 Y63.19 E20.21359
G1 X156.388 Y63.306 E20.21726
G1 X156.591 Y63.487 E20.22099
G1 X156.748 Y63.704 E20.22467
G1 X156.835 Y63.957 E20.22834
G1 X156.85 Y64.119 E20.23057
G1 X156.85 Y154.918 E21.47631
G1 X156.81 Y155.183 E21.47999
G1 X156.694 Y155.424 E21.48366
G1 X156.513 Y155.62 E21.48732
G1 X156.281 Y155.755 E21.491
G0 F3600 X156.192 Y155.991
G1 F960 X155.897 Y156.017 E21.49507
G1 X155.606 Y155.963 E21.49913
G1 X155.34 Y155.833 E21.50319
G1 X155.172 Y155.696 E21.50616
G1 X64.304 Y64.829 E23.26924
G1 X64.125 Y64.593 E23.27331
G1 X64.015 Y64.318 E23.27737
G1 X63.982 Y64.024 E23.28143
G1 X64.029 Y63.732 E23.28549
G1 X64.152 Y63.463 E23.28954
G1 X64.343 Y63.236 E23.29361
G1 X64.587 Y63.069 E23.29767
G1 X64.867 Y62.972 E23.30174
G1 X65.082 Y62.951 E23.3047
G1 X155.882 Y62.95 E24.55046
G1 X156.175 Y62.99 E24.55452
G1 X156.447 Y63.106 E24.55857
G1 X156.665 Y63.278 E24.56238
G1 X156.733 Y63.347 E24.56371
G1 X156.911 Y63.584 E24.56778
G1 X157.019 Y63.859 E24.57183
G1 X157.05 Y64.119 E24.57542
G1 X157.05 Y154.918 E25.82117
G1 X157.01 Y155.211 E25.82523
G1 X156.894 Y155.483 E25.82928
G1 X156.709 Y155.714 E25.83334
G1 X156.469 Y155.888 E25.83741
G1 X156.192 Y155.991 E25.84147
G0 F3600 X156.371 Y156.148
G1 F960 X156.056 Y156.214 E25.84588
G1 X155.734 Y156.2 E25.8503
G1 X155.426 Y156.108 E25.85471
G1 X155.031 Y155.837 E25.86129
G1 X64.163 Y64.97 E27.62436
G1 X63.965 Y64.716 E27.62878
G1 X63.836 Y64.421 E27.6332
G1 X63.783 Y64.104 E27.63761
G1 X63.81 Y63.783 E27.64203
G1 X63.915 Y63.479 E27.64644
G1 X64.091 Y63.21 E27.65085
G1 X64.328 Y62.992 E27.65527
G1 X64.611 Y62.839 E27.65968
G1 X65.082 Y62.751 E27.66626
G1 X155.882 Y62.75 E28.91202
G1 X156.201 Y62.79 E28.91643
G1 X156.501 Y62.907 E28.92084
G1 X156.808 Y63.137 E28.92611
G1 X156.876 Y63.206 E28.92744
G1 X157.072 Y63.462 E28.93186
G1 X157.199 Y63.758 E28.93628
G1 X157.25 Y64.119 E28.94128
G1 X157.25 Y154.918 E30.18703
G1 X157.21 Y155.237 E30.19144
G1 X157.093 Y155.537 E30.19585
G1 X156.906 Y155.799 E30.20027
G1 X156.66 Y156.007 E30.20469
G1 X156.371 Y156.148 E30.2091
G0 F3600 X156.225 Y156.393
G1 F960 X155.88 Y156.416 E30.21385
G1 X155.539 Y156.361 E30.21858
G1 X155.219 Y156.228 E30.22334
G1 X154.889 Y155.979 E30.22901
G1 X64.021 Y65.112 E31.99209
G1 X63.807 Y64.841 E31.99683
G1 X63.66 Y64.527 E32.00158
G1 X63.588 Y64.189 E32.00632
G1 X63.596 Y63.843 E32.01107
G1 X63.683 Y63.509 E32.01581
G1 X63.845 Y63.203 E32.02056
G1 X64.072 Y62.942 E32.0253
G1 X64.353 Y62.74 E32.03005
G1 X64.672 Y62.608 E32.03479
G1 X65.082 Y62.551 E32.04047
G1 X155.882 Y62.55 E33.28623
G1 X156.226 Y62.59 E33.29098
G1 X156.551 Y62.707 E33.29572
G1 X156.95 Y62.997 E33.30248
G1 X157.018 Y63.066 E33.30381
G1 X157.231 Y63.339 E33.30856
G1 X157.376 Y63.653 E33.31331
G1 X157.45 Y64.119 E33.31978
G1 X157.45 Y154.918 E34.56553
G1 X157.41 Y155.262 E34.57028
G1 X157.293 Y155.587 E34.57502
G1 X157.104 Y155.877 E34.57977
G1 X156.854 Y156.115 E34.5845
G1 X156.555 Y156.29 E34.58926
G1 X156.225 Y156.393 E34.594
G0 F3600 X156.401 Y156.557
G1 F960 X156.038 Y156.616 E34.59904
G1 X155.67 Y156.595 E34.6041
G1 X155.315 Y156.495 E34.60916
G1 X154.991 Y156.321 E34.61421
G1 X154.748 Y156.12 E34.61853
G1 X63.88 Y65.253 E36.38161
G1 X63.649 Y64.966 E36.38667
G1 X63.486 Y64.636 E36.39172
G1 X63.397 Y64.279 E36.39676
G1 X63.388 Y63.91 E36.40183
G1 X63.458 Y63.549 E36.40687
G1 X63.604 Y63.211 E36.41193
G1 X63.82 Y62.912 E36.41699
G1 X64.094 Y62.667 E36.42203
G1 X64.416 Y62.487 E36.42709
G1 X64.768 Y62.38 E36.43214
G1 X65.082 Y62.351 E36.43646
G1 X155.882 Y62.35 E37.68222
G1 X156.248 Y62.39 E37.68727
G1 X156.597 Y62.508 E37.69233
G1 X156.912 Y62.698 E37.69737
G1 X157.161 Y62.926 E37.70201
G1 X157.389 Y63.214 E37.70705
G1 X157.55 Y63.546 E37.71211
G1 X157.636 Y63.904 E37.71716
G1 X157.65 Y64.119 E37.72012
G1 X157.65 Y154.918 E38.96586
G1 X157.61 Y155.284 E38.97091
G1 X157.492 Y155.633 E38.97597
G1 X157.302 Y155.948 E38.98101
G1 X157.049 Y156.215 E38.98606
G1 X156.743 Y156.421 E38.99112
G1 X156.401 Y156.557 E38.99617
G0 F3600 X156.582 Y156.71
G1 F960 X156.203 Y156.801 E39.00152
G1 X155.814 Y156.813 E39.00686
G1 X155.431 Y156.746 E39.01219
G1 X155.069 Y156.601 E39.01754
G1 X154.607 Y156.262 E39.0254
G1 X63.739 Y65.395 E40.78848
G1 X63.493 Y65.092 E40.79384
G1 X63.314 Y64.747 E40.79917
G1 X63.209 Y64.372 E40.80451
G1 X63.183 Y63.983 E40.80986
G1 X63.237 Y63.597 E40.81521
G1 X63.368 Y63.231 E40.82054
G1 X63.571 Y62.899 E40.82588
G1 X63.838 Y62.615 E40.83123
G1 X64.157 Y62.392 E40.83657
G1 X64.514 Y62.238 E40.8419
G1 X65.082 Y62.151 E40.84979
G1 X155.882 Y62.15 E42.09555
G1 X156.269 Y62.19 E42.10088
G1 X156.64 Y62.308 E42.10622
G1 X156.98 Y62.499 E42.11158
G1 X157.235 Y62.716 E42.11617
G1 X157.303 Y62.785 E42.1175
G1 X157.547 Y63.089 E42.12285
G1 X157.723 Y63.436 E42.12818
G1 X157.825 Y63.812 E42.13353
G1 X157.85 Y64.119 E42.13776
G1 X157.85 Y154.918 E43.3835
G1 X157.81 Y155.305 E43.38884
G1 X157.692 Y155.676 E43.39418
G1 X157.501 Y156.016 E43.39953
G1 X157.245 Y156.309 E43.40487
G1 X156.934 Y156.543 E43.41021
G1 X156.582 Y156.71 E43.41555
G0 F3600 X156.375 Y156.974
G1 F960 X155.968 Y157.018 E43.42117
G1 X155.561 Y156.982 E43.42678
G1 X155.168 Y156.867 E43.43239
G1 X154.804 Y156.678 E43.43802
G1 X154.465 Y156.403 E43.44401
G1 X63.597 Y65.536 E45.20709
G1 X63.337 Y65.22 E45.2127
G1 X63.144 Y64.859 E45.21832
G1 X63.024 Y64.467 E45.22394
G1 X62.982 Y64.06 E45.22956
G1 X63.02 Y63.653 E45.23516
G1 X63.137 Y63.26 E45.24079
G1 X63.327 Y62.898 E45.2464
G1 X63.584 Y62.579 E45.25202
G1 X63.898 Y62.316 E45.25764
G1 X64.257 Y62.12 E45.26325
G1 X64.648 Y61.996 E45.26888
G1 X65.082 Y61.951 E45.27486
G1 X155.882 Y61.95 E46.52062
G1 X156.289 Y61.99 E46.52623
G1 X156.681 Y62.108 E46.53185
G1 X157.043 Y62.3 E46.53747
G1 X157.378 Y62.576 E46.54343
G1 X157.446 Y62.645 E46.54476
G1 X157.703 Y62.963 E46.55037
G1 X157.894 Y63.325 E46.55598
G1 X158.011 Y63.718 E46.56161
G1 X158.05 Y64.119 E46.56713
G1 X158.05 Y154.918 E47.81288
G1 X158.01 Y155.325 E47.81849
G1 X157.892 Y155.717 E47.82411
G1 X157.7 Y156.079 E47.82973
G1 X157.441 Y156.396 E47.83534
G1 X157.126 Y156.658 E47.84097
G1 X156.766 Y156.853 E47.84658
G1 X156.375 Y156.974 E47.8522
G0 F3600 X156.552 Y157.138
G1 F960 X156.13 Y157.211 E47.85807
G1 X155.701 Y157.205 E47.86396
G1 X155.282 Y157.119 E47.86983
G1 X154.885 Y156.957 E47.87571
G1 X154.525 Y156.724 E47.8816
G1 X154.324 Y156.544 E47.8853
G1 X63.456 Y65.677 E49.64838
G1 X63.182 Y65.347 E49.65426
G1 X62.975 Y64.973 E49.66012
G1 X62.84 Y64.566 E49.66601
G1 X62.784 Y64.141 E49.67189
G1 X62.807 Y63.713 E49.67777
G1 X62.909 Y63.297 E49.68365
G1 X63.087 Y62.907 E49.68953
G1 X63.333 Y62.557 E49.6954
G1 X63.641 Y62.258 E49.70129
G1 X63.999 Y62.022 E49.70717
G1 X64.394 Y61.856 E49.71305
G1 X64.813 Y61.767 E49.71893
G1 X65.082 Y61.751 E49.72262
G1 X155.882 Y61.75 E50.96838
G1 X156.309 Y61.79 E50.97426
G1 X156.72 Y61.908 E50.98013
G1 X157.103 Y62.101 E50.98602
G1 X157.52 Y62.436 E50.99335
G1 X157.588 Y62.505 E50.99468
G1 X157.859 Y62.836 E51.00055
G1 X158.064 Y63.213 E51.00644
G1 X158.195 Y63.621 E51.01232
G1 X158.25 Y64.119 E51.01919
G1 X158.25 Y154.918 E52.26494
G1 X158.21 Y155.345 E52.27082
G1 X158.092 Y155.756 E52.27669
G1 X157.899 Y156.139 E52.28257
G1 X157.639 Y156.479 E52.28844
G1 X157.32 Y156.766 E52.29433
G1 X156.953 Y156.988 E52.30022
G1 X156.552 Y157.138 E52.30609
G0 F3600 X156.732 Y157.293
G1 F960 X156.297 Y157.394 E52.31222
G1 X155.851 Y157.416 E52.31834
G1 X155.408 Y157.358 E52.32447
G1 X154.982 Y157.223 E52.3306
G1 X154.587 Y157.014 E52.33674
G1 X154.182 Y156.686 E52.34389
G1 X63.314 Y65.819 E54.10696
G1 X63.028 Y65.476 E54.11309
G1 X62.807 Y65.088 E54.11922
G1 X62.659 Y64.666 E54.12535
G1 X62.588 Y64.225 E54.13148
G1 X62.597 Y63.778 E54.13762
G1 X62.685 Y63.34 E54.14374
G1 X62.85 Y62.925 E54.14987
G1 X63.086 Y62.546 E54.156
G1 X63.386 Y62.214 E54.16214
G1 X63.74 Y61.942 E54.16826
G1 X64.137 Y61.737 E54.17439
G1 X64.564 Y61.605 E54.18052
G1 X65.082 Y61.551 E54.18767
G1 X155.882 Y61.55 E55.43343
G1 X156.327 Y61.59 E55.43956
G1 X156.758 Y61.708 E55.44569
G1 X157.161 Y61.902 E55.45182
G1 X157.663 Y62.295 E55.46057
G1 X157.731 Y62.364 E55.4619
G1 X158.015 Y62.709 E55.46803
G1 X158.233 Y63.099 E55.47416
G1 X158.378 Y63.522 E55.4803
G1 X158.45 Y64.119 E55.48855
G1 X158.45 Y154.918 E56.73429
G1 X158.41 Y155.363 E56.74042
G1 X158.292 Y155.794 E56.74655
G1 X158.098 Y156.197 E56.75269
G1 X157.836 Y156.559 E56.75882
G1 X157.514 Y156.868 E56.76494
G1 X157.142 Y157.115 E56.77107
G1 X156.732 Y157.293 E56.7772
G0 F3600 X156.469 Y157.568
G1 F960 X156.007 Y157.617 E56.78357
G1 X155.544 Y157.587 E56.78994
G1 X155.092 Y157.478 E56.79632
G1 X154.666 Y157.293 E56.80269
G1 X154.278 Y157.038 E56.80906
G1 X154.041 Y156.827 E56.81341
G1 X63.173 Y65.96 E58.57649
G1 X62.874 Y65.605 E58.58286
G1 X62.64 Y65.204 E58.58923
G1 X62.479 Y64.768 E58.59561
G1 X62.395 Y64.312 E58.60197
G1 X62.39 Y63.847 E58.60835
G1 X62.464 Y63.389 E58.61471
G1 X62.617 Y62.95 E58.62109
G1 X62.842 Y62.544 E58.62746
G1 X63.133 Y62.183 E58.63382
G1 X63.482 Y61.876 E58.6402
G1 X63.878 Y61.634 E58.64657
G1 X64.31 Y61.464 E58.65294
G1 X64.765 Y61.37 E58.65931
G1 X65.082 Y61.351 E58.66367
G1 X155.882 Y61.35 E59.90943
G1 X156.345 Y61.39 E59.9158
G1 X156.794 Y61.509 E59.92217
G1 X157.215 Y61.702 E59.92853
G1 X157.598 Y61.965 E59.9349
G1 X157.873 Y62.224 E59.94009
G1 X158.169 Y62.581 E59.94645
G1 X158.4 Y62.984 E59.95282
G1 X158.558 Y63.421 E59.9592
G1 X158.639 Y63.878 E59.96556
G1 X158.65 Y64.119 E59.96887
G1 X158.65 Y154.918 E61.21462
G1 X158.61 Y155.381 E61.221
G1 X158.491 Y155.83 E61.22737
G1 X158.298 Y156.252 E61.23373
G1 X158.035 Y156.634 E61.2401
G1 X157.71 Y156.966 E61.24647
G1 X157.333 Y157.237 E61.25284
G1 X156.915 Y157.44 E61.25922
G1 X156.469 Y157.568 E61.26558
G0 F3600 X156.644 Y157.734
G1 F960 X156.169 Y157.81 E61.27218
G1 X155.688 Y157.806 E61.27878
G1 X155.214 Y157.723 E61.28538
G1 X154.76 Y157.563 E61.29199
G1 X154.339 Y157.329 E61.2986
G1 X153.899 Y156.969 E61.3064
G1 X63.031 Y66.102 E63.06947
G1 X62.721 Y65.734 E63.07608
G1 X62.475 Y65.321 E63.08267
G1 X62.301 Y64.872 E63.08928
G1 X62.203 Y64.401 E63.09588
G1 X62.185 Y63.92 E63.10248
G1 X62.247 Y63.442 E63.1091
G1 X62.386 Y62.982 E63.11569
G1 X62.6 Y62.551 E63.12229
G1 X62.882 Y62.161 E63.12889
G1 X63.225 Y61.823 E63.1355
G1 X63.619 Y61.547 E63.1421
G1 X64.054 Y61.339 E63.14872
G1 X64.516 Y61.207 E63.15531
G1 X65.082 Y61.151 E63.16311
G1 X155.882 Y61.15 E64.40887
G1 X156.362 Y61.19 E64.41548
G1 X156.828 Y61.309 E64.42208
G1 X157.268 Y61.503 E64.42867
G1 X157.67 Y61.767 E64.43527
G1 X157.948 Y62.014 E64.44037
G1 X158.016 Y62.083 E64.4417
G1 X158.324 Y62.453 E64.44831
G1 X158.567 Y62.869 E64.45492
G1 X158.737 Y63.318 E64.46151
G1 X158.831 Y63.79 E64.46811
G1 X158.85 Y64.119 E64.47263
G1 X158.85 Y154.918 E65.71837
G1 X158.81 Y155.398 E65.72498
G1 X158.691 Y155.864 E65.73158
G1 X158.497 Y156.304 E65.73818
