;FLAVOR:Marlin
;TIME:93707
;Filament used:32.4545m
;Layer height: 0.2
;MINX:23.098
;MINY:23.205
;MINZ:0.15
;MAXX:196.795
;MAXY:196.902
;MAXZ:39.35
                           
;Creality Print GCode Generated by CXEngineDEV
;Generated Time:2022-06-30 15:03:09
;----------Machine Config--------------
;Machine Name:Creality Ender-3
;Machine Height:250
;Machine Width:220
;Machine Depth:220
;Material name:Castable
;Number of Extruders:1
;ExtruderParams[0] Nozzle Diameter1000
;----------Profile Config---------------
;Layer Height:0.2
;Wall Thickness:1.6
;Top/Bottom Thickness:1
;Out Wall Line Width:0.2
;Inner Wall Line Width:0.2
;Inital Layer Height:150
;Wall Line Count:8
;Infill Line Distance:2.22
;Infill Pattern:grid
;Infill Sparse Density:18
;Infill Wipe Distance:0
;Print Temperature:235
;Bed Temperature:74
;Support Enable:false
;Support Density:10
;Support Angle:0
;Adhesion Type:brim
;machine is belt:false
;machine belt offset:10
;machine belt offset Y:0
;Raft Base Line Spacing:1.6
;Wait Heatup Sync:true
;----------Shell Config----------------
;Outer Wall Wipe Distance:200
;Infill Before Walls:false
;Infill Overlap:0.08
;Fill Gaps Between Walls:everywhere
;Minimum Infill Area:1
;Top Surface Skin Layer:0
;Top Layers:7
;Z Seam Alignment:sharpest_corner
;Seam Corner Preference:z_seam_corner_inner
;Z Seam X:110
;Z Seam Y:110
;Horizontal Expansion:0
;Top/Bottom Pattern:zigzag
;Ironing Pattern:zigzag
;Vase Model:false
;----------Support Config----------------
;Support Type:everywhere
;Support Pattern:zigzag
;Support Infill Layer Thickness:0.2
;Minimum Support Area:5
;Enable Support Roof:false
;Support Roof Thickness:0.8
;Support Roof Pattern:lines
;Connect Support Lines:0
;Connect Support ZigZags:1
;Minimum Support X/Y Distance:0.2
;Support Line Distance:2
; ---------PrintSpeed & Travel----------
;Enable Print Cool:true
;Avoid Printed Parts Traveling:true
;Enable Retraction:true
;Retraction Distance:8
;Retraction Speed:100
;Retraction Prime Speed:100
;Maximum Retraction Count:100
;Minimum Extrusion Distance Window:1
;Z Hop When Retracted:false
;Z Hop Height:0.2
;Retract Before Outer Wall:true
;Print Speed:32
;Infill Speed:32

;Prime Tower Speed:32
;Travel Speed:120
;Initial Layer Speed:16
;Skirt/Brim Speed:16
;Combing Mode:off
; --------SpecialModel&Mesh Fixes--------
;Union Overlapping Volum:true
;Remove All Holes:false
;Maximum Travel Resolution:0.4
;Maximum Deviation:0.05
;Maximum Model Angle:0.872665
;IS Mold Print:false
;Make Overhang Printable:false
;Enable Coasting:false
;Coasting Volumes:0.06
;Coasting Speed:0.9
;Raft AirGap:0.25
;Layer0 ZOverLap:0.13
;---------------------End of Head--------------------------
M140 S74
M105
M104 S235
M105
M109 S235
M105
M190 S74
M82 ;absolute extrusion mode
M220 S100 ;Reset Feedrate
M221 S100 ;Reset Flowrate

G28 ;Home

G92 E0 ;Reset Extruder
G1 Z2.0 F3000 ;Move Z Axis up
G1 X10.1 Y20 Z0.28 F5000.0 ;Move to start position
G1 X10.1 Y145.0 Z0.28 F1500.0 E15 ;Draw the first line
G1 X10.4 Y145.0 Z0.28 F5000.0 ;Move to side a little
G1 X10.4 Y20 Z0.28 F1500.0 E30 ;Draw the second line
G92 E0  ;Reset Extruder
G1 E-1.0000 F1800 ;Retract a bit
G1 Z2.0 F3000 ;Move Z Axis up
G1 E0.0000 F1800 

G92 E0
G92 E0
G1 F6000 E-8

;LAYER_COUNT:197

;LAYER:0
M107
G0 F3600 X133.74 Y25.517 Z0.15
;;retract;;
G0 X188.968 Y80.745
;TYPE:SKIRT
G1 F6000 E0
G1 F960 X80.638 Y189.075 E2.1019
G1 X80.496 Y189.075 E2.10385
G1 X30.925 Y139.504 E3.06566
G1 X30.925 Y139.362 E3.06761
G1 X139.255 Y31.032 E5.16951
G1 X139.397 Y31.032 E5.17145
G1 X188.968 Y80.603 E6.13327
G1 X188.968 Y80.745 E6.13522
G0 F3600 X189.109 Y80.886
G1 F960 X80.779 Y189.216 E8.23711
G1 X80.493 Y189.295 E8.24118
G1 X80.355 Y189.216 E8.24337
G1 X30.784 Y139.645 E9.20518
G1 X30.705 Y139.359 E9.20925
G1 X30.784 Y139.221 E9.21143
G1 X139.114 Y30.891 E11.31333
G1 X139.4 Y30.812 E11.3174
G1 X139.538 Y30.891 E11.31958
G1 X189.109 Y80.462 E12.2814
G1 X189.188 Y80.748 E12.28547
G1 X189.109 Y80.886 E12.28765
G0 F3600 X189.251 Y81.028
G1 F960 X80.921 Y189.358 E14.38955
G1 X80.559 Y189.504 E14.3949
G1 X80.213 Y189.358 E14.40005
G1 X30.642 Y139.787 E15.36187
G1 X30.496 Y139.425 E15.36722
G1 X30.642 Y139.079 E15.37237
G1 X138.972 Y30.749 E17.47427
G1 X139.334 Y30.603 E17.47963
G1 X139.68 Y30.749 E17.48478
G1 X189.251 Y80.32 E18.44659
G1 X189.397 Y80.682 E18.45195
G1 X189.251 Y81.028 E18.4571
G0 F3600 X189.392 Y81.169
G1 F960 X81.062 Y189.499 E20.559
G1 X80.643 Y189.7 E20.56538
G1 X80.19 Y189.594 E20.57176
G1 X80.072 Y189.499 E20.57384
G1 X30.501 Y139.928 E21.53565
G1 X30.3 Y139.509 E21.54203
G1 X30.406 Y139.056 E21.54841
G1 X30.501 Y138.938 E21.55049
G1 X138.831 Y30.608 E23.65239
G1 X139.25 Y30.407 E23.65876
G1 X139.703 Y30.513 E23.66514
G1 X139.821 Y30.608 E23.66722
G1 X189.392 Y80.179 E24.62904
G1 X189.593 Y80.598 E24.63541
G1 X189.487 Y81.051 E24.64179
G1 X189.392 Y81.169 E24.64387
G0 F3600 X189.533 Y81.31
G1 F960 X81.203 Y189.64 E26.74577
G1 X80.988 Y189.799 E26.74944
G1 X80.736 Y189.888 E26.75311
G1 X80.468 Y189.899 E26.75679
G1 X80.21 Y189.83 E26.76045
G1 X79.931 Y189.64 E26.76508
G1 X30.36 Y140.069 E27.72689
G1 X30.201 Y139.854 E27.73056
G1 X30.112 Y139.602 E27.73423
G1 X30.101 Y139.334 E27.73791
G1 X30.17 Y139.076 E27.74157
G1 X30.36 Y138.797 E27.74621
G1 X138.69 Y30.467 E29.8481
G1 X138.905 Y30.308 E29.85177
G1 X139.157 Y30.219 E29.85544
G1 X139.425 Y30.208 E29.85912
G1 X139.683 Y30.277 E29.86278
G1 X139.962 Y30.467 E29.86741
G1 X189.533 Y80.038 E30.82923
G1 X189.692 Y80.253 E30.8329
G1 X189.781 Y80.505 E30.83656
G1 X189.792 Y80.773 E30.84024
G1 X189.723 Y81.031 E30.84391
G1 X189.533 Y81.31 E30.84854
G0 F3600 X189.675 Y81.452
G1 F960 X81.345 Y189.782 E32.95044
G1 X81.109 Y189.961 E32.9545
G1 X80.834 Y190.071 E32.95856
G1 X80.54 Y190.104 E32.96262
G1 X80.248 Y190.057 E32.96668
G1 X79.979 Y189.934 E32.97074
G1 X79.789 Y189.782 E32.97408
G1 X30.218 Y140.211 E33.93589
G1 X30.039 Y139.975 E33.93995
G1 X29.929 Y139.7 E33.94402
G1 X29.896 Y139.406 E33.94808
G1 X29.943 Y139.114 E33.95213
G1 X30.066 Y138.845 E33.95619
G1 X30.218 Y138.655 E33.95953
G1 X138.548 Y30.325 E36.06143
G1 X138.784 Y30.146 E36.06549
G1 X139.059 Y30.036 E36.06956
G1 X139.353 Y30.003 E36.07362
G1 X139.645 Y30.05 E36.07767
G1 X139.914 Y30.173 E36.08173
G1 X140.104 Y30.325 E36.08507
G1 X189.675 Y79.896 E37.04688
G1 X189.854 Y80.132 E37.05095
G1 X189.964 Y80.407 E37.05501
G1 X189.997 Y80.701 E37.05907
G1 X189.95 Y80.993 E37.06313
G1 X189.827 Y81.262 E37.06718
G1 X189.675 Y81.452 E37.07052
G0 F3600 X189.816 Y81.593
G1 F960 X81.486 Y189.923 E39.17242
G1 X81.232 Y190.121 E39.17684
G1 X80.937 Y190.25 E39.18126
G1 X80.62 Y190.303 E39.18567
G1 X80.299 Y190.276 E39.19009
G1 X79.995 Y190.171 E39.1945
G1 X79.648 Y189.923 E39.20035
G1 X30.077 Y140.352 E40.16216
G1 X29.879 Y140.098 E40.16658
G1 X29.75 Y139.803 E40.171
G1 X29.697 Y139.486 E40.17541
G1 X29.724 Y139.165 E40.17983
G1 X29.829 Y138.861 E40.18424
G1 X30.077 Y138.514 E40.19009
G1 X138.407 Y30.184 E42.29199
G1 X138.661 Y29.986 E42.29641
G1 X138.956 Y29.857 E42.30083
G1 X139.273 Y29.804 E42.30524
G1 X139.594 Y29.831 E42.30966
G1 X139.898 Y29.936 E42.31407
G1 X140.245 Y30.184 E42.31992
G1 X189.816 Y79.755 E43.28173
G1 X190.014 Y80.009 E43.28615
G1 X190.143 Y80.304 E43.29057
G1 X190.196 Y80.621 E43.29498
G1 X190.169 Y80.942 E43.2994
G1 X190.064 Y81.246 E43.30381
G1 X189.816 Y81.593 E43.30966
G0 F3600 X189.958 Y81.735
G1 F960 X81.628 Y190.065 E45.41156
G1 X81.357 Y190.279 E45.4163
G1 X81.043 Y190.426 E45.42106
G1 X80.705 Y190.498 E45.4258
G1 X80.359 Y190.49 E45.43055
G1 X80.025 Y190.403 E45.43528
G1 X79.719 Y190.241 E45.44003
G1 X79.506 Y190.065 E45.44382
G1 X29.935 Y140.494 E46.40563
G1 X29.721 Y140.223 E46.41037
G1 X29.574 Y139.909 E46.41513
G1 X29.502 Y139.571 E46.41987
G1 X29.51 Y139.225 E46.42462
G1 X29.597 Y138.891 E46.42935
G1 X29.759 Y138.585 E46.4341
G1 X29.935 Y138.372 E46.43789
G1 X138.265 Y30.042 E48.53979
G1 X138.536 Y29.828 E48.54453
G1 X138.85 Y29.681 E48.54929
G1 X139.188 Y29.609 E48.55403
G1 X139.534 Y29.617 E48.55878
G1 X139.868 Y29.704 E48.56351
G1 X140.174 Y29.866 E48.56826
G1 X140.387 Y30.042 E48.57205
G1 X189.958 Y79.613 E49.53387
G1 X190.172 Y79.884 E49.5386
G1 X190.319 Y80.198 E49.54336
G1 X190.391 Y80.536 E49.5481
G1 X190.383 Y80.882 E49.55285
G1 X190.296 Y81.216 E49.55759
G1 X190.134 Y81.522 E49.56234
G1 X189.958 Y81.735 E49.56613
G0 F3600 X190.099 Y81.876
G1 F960 X81.769 Y190.206 E51.66803
G1 X81.482 Y190.437 E51.67308
G1 X81.152 Y190.6 E51.67813
G1 X80.795 Y190.689 E51.68318
G1 X80.426 Y190.698 E51.68824
G1 X80.065 Y190.628 E51.69329
G1 X79.727 Y190.482 E51.69834
G1 X79.365 Y190.206 E51.70458
G1 X29.794 Y140.635 E52.6664
G1 X29.563 Y140.348 E52.67145
G1 X29.4 Y140.018 E52.6765
G1 X29.311 Y139.661 E52.68155
G1 X29.302 Y139.292 E52.68661
G1 X29.372 Y138.931 E52.69166
G1 X29.518 Y138.593 E52.69671
G1 X29.794 Y138.231 E52.70296
G1 X138.124 Y29.901 E54.80485
G1 X138.411 Y29.67 E54.80991
G1 X138.741 Y29.507 E54.81496
G1 X139.098 Y29.418 E54.82001
G1 X139.467 Y29.409 E54.82507
G1 X139.828 Y29.479 E54.83011
G1 X140.166 Y29.625 E54.83517
G1 X140.528 Y29.901 E54.84141
G1 X190.099 Y79.472 E55.80322
G1 X190.33 Y79.759 E55.80828
G1 X190.493 Y80.089 E55.81333
G1 X190.582 Y80.446 E55.81838
G1 X190.591 Y80.815 E55.82344
G1 X190.521 Y81.176 E55.82849
G1 X190.375 Y81.514 E55.83354
G1 X190.099 Y81.876 E55.83978
G0 F3600 X190.241 Y82.018
G1 F960 X81.911 Y190.348 E57.94168
G1 X81.608 Y190.593 E57.94703
G1 X81.263 Y190.772 E57.95236
G1 X80.888 Y190.877 E57.9577
G1 X80.499 Y190.903 E57.96305
G1 X80.113 Y190.849 E57.9684
G1 X79.747 Y190.718 E57.97373
G1 X79.415 Y190.515 E57.97907
G1 X79.223 Y190.348 E57.98256
G1 X29.652 Y140.777 E58.94438
G1 X29.407 Y140.474 E58.94972
G1 X29.228 Y140.129 E58.95505
G1 X29.123 Y139.754 E58.9604
G1 X29.097 Y139.365 E58.96575
G1 X29.151 Y138.979 E58.97109
G1 X29.282 Y138.613 E58.97643
G1 X29.485 Y138.281 E58.98177
G1 X29.652 Y138.089 E58.98526
G1 X137.982 Y29.759 E61.08716
G1 X138.285 Y29.514 E61.0925
G1 X138.63 Y29.335 E61.09783
G1 X139.005 Y29.23 E61.10318
G1 X139.394 Y29.204 E61.10853
G1 X139.78 Y29.258 E61.11387
G1 X140.146 Y29.389 E61.11921
G1 X140.478 Y29.592 E61.12455
G1 X140.67 Y29.759 E61.12804
G1 X190.241 Y79.33 E62.08985
G1 X190.486 Y79.633 E62.0952
G1 X190.665 Y79.978 E62.10053
G1 X190.77 Y80.353 E62.10587
G1 X190.796 Y80.742 E62.11122
G1 X190.742 Y81.128 E62.11657
G1 X190.611 Y81.494 E62.1219
G1 X190.408 Y81.826 E62.12724
G1 X190.241 Y82.018 E62.13073
G0 F3600 X190.382 Y82.159
G1 F960 X82.052 Y190.489 E64.23263
G1 X81.736 Y190.749 E64.23824
G1 X81.375 Y190.942 E64.24386
G1 X80.983 Y191.062 E64.24948
G1 X80.576 Y191.104 E64.2551
G1 X80.169 Y191.066 E64.26071
G1 X79.776 Y190.949 E64.26633
G1 X79.414 Y190.759 E64.27194
G1 X79.082 Y190.489 E64.27781
G1 X29.511 Y140.918 E65.23962
G1 X29.251 Y140.602 E65.24524
G1 X29.058 Y140.241 E65.25086
G1 X28.938 Y139.849 E65.25648
G1 X28.896 Y139.442 E65.26209
G1 X28.934 Y139.035 E65.2677
G1 X29.051 Y138.642 E65.27333
G1 X29.241 Y138.28 E65.27894
G1 X29.511 Y137.948 E65.28481
G1 X137.841 Y29.618 E67.38671
G1 X138.157 Y29.358 E67.39232
G1 X138.518 Y29.165 E67.39794
G1 X138.91 Y29.045 E67.40356
G1 X139.317 Y29.003 E67.40917
G1 X139.724 Y29.041 E67.41478
G1 X140.117 Y29.158 E67.42041
G1 X140.479 Y29.348 E67.42602
G1 X140.811 Y29.618 E67.43189
G1 X190.382 Y79.189 E68.3937
G1 X190.642 Y79.505 E68.39932
G1 X190.835 Y79.866 E68.40493
G1 X190.955 Y80.258 E68.41056
G1 X190.997 Y80.665 E68.41617
G1 X190.959 Y81.072 E68.42178
G1 X190.842 Y81.465 E68.4274
G1 X190.652 Y81.827 E68.43301
G1 X190.382 Y82.159 E68.43889
G0 F3600 X190.523 Y82.3
G1 F960 X82.193 Y190.63 E70.54078
G1 X81.863 Y190.904 E70.54667
G1 X81.489 Y191.111 E70.55253
G1 X81.082 Y191.246 E70.55842
G1 X80.657 Y191.302 E70.5643
G1 X80.229 Y191.279 E70.57018
G1 X79.813 Y191.177 E70.57605
G1 X79.423 Y190.999 E70.58194
G1 X78.941 Y190.63 E70.59026
G1 X29.37 Y141.059 E71.55208
G1 X29.096 Y140.729 E71.55796
G1 X28.889 Y140.355 E71.56383
G1 X28.754 Y139.948 E71.56971
G1 X28.698 Y139.523 E71.57559
G1 X28.721 Y139.095 E71.58147
G1 X28.823 Y138.679 E71.58735
G1 X29.001 Y138.289 E71.59323
G1 X29.37 Y137.807 E71.60156
G1 X137.7 Y29.477 E73.70346
G1 X138.03 Y29.203 E73.70934
G1 X138.404 Y28.996 E73.71521
G1 X138.811 Y28.861 E73.72109
G1 X139.236 Y28.805 E73.72697
G1 X139.664 Y28.828 E73.73285
G1 X140.08 Y28.93 E73.73873
G1 X140.47 Y29.108 E73.74461
G1 X140.952 Y29.477 E73.75294
G1 X190.523 Y79.048 E74.71475
G1 X190.797 Y79.378 E74.72064
G1 X191.004 Y79.752 E74.7265
G1 X191.139 Y80.159 E74.73238
G1 X191.195 Y80.584 E74.73826
G1 X191.172 Y81.012 E74.74415
G1 X191.07 Y81.428 E74.75002
G1 X190.892 Y81.818 E74.7559
G1 X190.523 Y82.3 E74.76423
G0 F3600 X190.665 Y82.442
G1 F960 X82.335 Y190.772 E76.86613
G1 X81.992 Y191.058 E76.87226
G1 X81.604 Y191.279 E76.87838
G1 X81.182 Y191.427 E76.88452
G1 X80.741 Y191.498 E76.89065
G1 X80.294 Y191.489 E76.89678
G1 X79.856 Y191.401 E76.90291
G1 X79.441 Y191.236 E76.90904
G1 X79.062 Y191 E76.91516
G1 X78.799 Y190.772 E76.91994
G1 X29.228 Y141.201 E77.88175
G1 X28.942 Y140.858 E77.88788
G1 X28.721 Y140.47 E77.89401
G1 X28.573 Y140.048 E77.90014
G1 X28.502 Y139.607 E77.90627
G1 X28.511 Y139.16 E77.9124
G1 X28.599 Y138.722 E77.91853
G1 X28.764 Y138.307 E77.92466
G1 X29 Y137.928 E77.93079
G1 X29.228 Y137.665 E77.93556
G1 X137.558 Y29.335 E80.03746
G1 X137.901 Y29.049 E80.04359
G1 X138.289 Y28.828 E80.04971
G1 X138.711 Y28.68 E80.05585
G1 X139.152 Y28.609 E80.06198
G1 X139.599 Y28.618 E80.06811
G1 X140.037 Y28.706 E80.07424
G1 X140.452 Y28.871 E80.08037
G1 X140.831 Y29.107 E80.08649
G1 X141.094 Y29.335 E80.09127
G1 X190.665 Y78.906 E81.05308
G1 X190.951 Y79.249 E81.05921
G1 X191.172 Y79.637 E81.06533
G1 X191.32 Y80.059 E81.07147
G1 X191.391 Y80.5 E81.0776
G1 X191.382 Y80.947 E81.08373
G1 X191.294 Y81.385 E81.08986
G1 X191.129 Y81.8 E81.09599
G1 X190.893 Y82.179 E81.10211
G1 X190.665 Y82.442 E81.10689
G0 F3600 X190.806 Y82.583
G1 F960 X82.476 Y190.913 E83.20879
G1 X82.121 Y191.212 E83.21516
G1 X81.72 Y191.446 E83.22153
G1 X81.284 Y191.607 E83.2279
G1 X80.828 Y191.691 E83.23426
G1 X80.363 Y191.696 E83.24064
G1 X79.905 Y191.622 E83.24701
G1 X79.466 Y191.469 E83.25339
G1 X79.06 Y191.244 E83.25976
G1 X78.658 Y190.913 E83.2669
G1 X29.087 Y141.342 E84.22871
G1 X28.788 Y140.987 E84.23508
G1 X28.554 Y140.586 E84.24145
G1 X28.393 Y140.15 E84.24783
G1 X28.309 Y139.694 E84.25419
G1 X28.304 Y139.229 E84.26057
G1 X28.378 Y138.771 E84.26693
G1 X28.531 Y138.332 E84.27331
G1 X28.756 Y137.926 E84.27968
G1 X29.087 Y137.524 E84.28683
G1 X137.417 Y29.194 E86.38872
G1 X137.772 Y28.895 E86.39509
G1 X138.173 Y28.661 E86.40146
G1 X138.609 Y28.5 E86.40784
G1 X139.065 Y28.416 E86.4142
G1 X139.53 Y28.411 E86.42058
G1 X139.988 Y28.485 E86.42694
G1 X140.427 Y28.638 E86.43332
G1 X140.833 Y28.863 E86.43969
G1 X141.235 Y29.194 E86.44684
G1 X190.806 Y78.765 E87.40865
G1 X191.105 Y79.12 E87.41502
G1 X191.339 Y79.521 E87.42139
G1 X191.5 Y79.957 E87.42776
G1 X191.584 Y80.413 E87.43412
G1 X191.589 Y80.878 E87.4405
G1 X191.515 Y81.336 E87.44687
G1 X191.362 Y81.775 E87.45325
G1 X191.137 Y82.181 E87.45962
G1 X190.806 Y82.583 E87.46676
G0 F3600 X190.948 Y82.725
G1 F960 X82.618 Y191.055 E89.56866
G1 X82.25 Y191.365 E89.57526
G1 X81.837 Y191.611 E89.58186
G1 X81.388 Y191.785 E89.58846
G1 X80.917 Y191.883 E89.59506
G1 X80.436 Y191.901 E89.60167
G1 X79.958 Y191.839 E89.60828
G1 X79.498 Y191.7 E89.61487
G1 X79.067 Y191.486 E89.62148
G1 X78.516 Y191.055 E89.63107
G1 X28.945 Y141.484 E90.59289
G1 X28.635 Y141.116 E90.59949
G1 X28.389 Y140.703 E90.60608
G1 X28.215 Y140.254 E90.61269
G1 X28.117 Y139.783 E90.61929
G1 X28.099 Y139.302 E90.62589
G1 X28.161 Y138.824 E90.63251
G1 X28.3 Y138.364 E90.6391
G1 X28.514 Y137.933 E90.6457
G1 X28.945 Y137.382 E90.6553
G1 X137.275 Y29.052 E92.7572
G1 X137.643 Y28.742 E92.7638
G1 X138.056 Y28.496 E92.77039
G1 X138.505 Y28.322 E92.777
G1 X138.976 Y28.224 E92.7836
G1 X139.457 Y28.206 E92.7902
G1 X139.935 Y28.268 E92.79682
G1 X140.395 Y28.407 E92.80341
G1 X140.826 Y28.621 E92.81001
G1 X141.377 Y29.052 E92.81961
G1 X190.948 Y78.623 E93.78142
G1 X191.258 Y78.991 E93.78803
G1 X191.504 Y79.404 E93.79462
