;FLAVOR:Marlin
;TIME:55631
;Filament used:18.7959m
;Layer height: 0.2
;MINX:47.396
;MINY:47.396
;MINZ:0.15
;MAXX:172.699
;MAXY:172.699
;MAXZ:33.95
                           
;Creality Print GCode Generated by CXEngineDEV
;Generated Time:2022-06-30 15:03:09
;----------Machine Config--------------
;Machine Name:Creality Ender-3
;Machine Height:250
;Machine Width:220
;Machine Depth:220
;Material name:Castable
;Number of Extruders:1
;ExtruderParams[0] Nozzle Diameter1000
;----------Profile Config---------------
;Layer Height:0.2
;Wall Thickness:1.6
;Top/Bottom Thickness:1
;Out Wall Line Width:0.2
;Inner Wall Line Width:0.2
;Inital Layer Height:150
;Wall Line Count:8
;Infill Line Distance:2.22
;Infill Pattern:grid
;Infill Sparse Density:18
;Infill Wipe Distance:0
;Print Temperature:235
;Bed Temperature:74
;Support Enable:false
;Support Density:10
;Support Angle:0
;Adhesion Type:brim
;machine is belt:false
;machine belt offset:10
;machine belt offset Y:0
;Raft Base Line Spacing:1.6
;Wait Heatup Sync:true
;----------Shell Config----------------
;Outer Wall Wipe Distance:200
;Infill Before Walls:false
;Infill Overlap:0.08
;Fill Gaps Between Walls:everywhere
;Minimum Infill Area:1
;Top Surface Skin Layer:0
;Top Layers:7
;Z Seam Alignment:sharpest_corner
;Seam Corner Preference:z_seam_corner_inner
;Z Seam X:110
;Z Seam Y:110
;Horizontal Expansion:0
;Top/Bottom Pattern:zigzag
;Ironing Pattern:zigzag
;Vase Model:false
;----------Support Config----------------
;Support Type:everywhere
;Support Pattern:zigzag
;Support Infill Layer Thickness:0.2
;Minimum Support Area:5
;Enable Support Roof:false
;Support Roof Thickness:0.8
;Support Roof Pattern:lines
;Connect Support Lines:0
;Connect Support ZigZags:1
;Minimum Support X/Y Distance:0.2
;Support Line Distance:2
; ---------PrintSpeed & Travel----------
;Enable Print Cool:true
;Avoid Printed Parts Traveling:true
;Enable Retraction:true
;Retraction Distance:8
;Retraction Speed:100
;Retraction Prime Speed:100
;Maximum Retraction Count:100
;Minimum Extrusion Distance Window:1
;Z Hop When Retracted:false
;Z Hop Height:0.2
;Retract Before Outer Wall:true
;Print Speed:32
;Infill Speed:32

;Prime Tower Speed:32
;Travel Speed:120
;Initial Layer Speed:16
;Skirt/Brim Speed:16
;Combing Mode:off
; --------SpecialModel&Mesh Fixes--------
;Union Overlapping Volum:true
;Remove All Holes:false
;Maximum Travel Resolution:0.4
;Maximum Deviation:0.05
;Maximum Model Angle:0.872665
;IS Mold Print:false
;Make Overhang Printable:false
;Enable Coasting:false
;Coasting Volumes:0.06
;Coasting Speed:0.9
;Raft AirGap:0.25
;Layer0 ZOverLap:0.13
;---------------------End of Head--------------------------
M140 S74
M105
M104 S235
M105
M109 S235
M105
M190 S74
M82 ;absolute extrusion mode
M220 S100 ;Reset Feedrate
M221 S100 ;Reset Flowrate

G28 ;Home

G92 E0 ;Reset Extruder
G1 Z2.0 F3000 ;Move Z Axis up
G1 X10.1 Y20 Z0.28 F5000.0 ;Move to start position
G1 X10.1 Y145.0 Z0.28 F1500.0 E15 ;Draw the first line
G1 X10.4 Y145.0 Z0.28 F5000.0 ;Move to side a little
G1 X10.4 Y20 Z0.28 F1500.0 E30 ;Draw the second line
G92 E0  ;Reset Extruder
G1 E-1.0000 F1800 ;Retract a bit
G1 Z2.0 F3000 ;Move Z Axis up
G1 E0.0000 F1800 

G92 E0
G92 E0
G1 F6000 E-8

;LAYER_COUNT:170

;LAYER:0
M107
G0 F3600 X49.708 Y94.963 Z0.15
;;retract;;
G0 X164.872 Y119.475
;TYPE:SKIRT
G1 F6000 E0
G1 F960 X164.872 Y119.617 E0.00195
G1 X119.617 Y164.872 E0.88002
G1 X119.475 Y164.872 E0.88197
G1 X55.223 Y100.62 E2.12863
G1 X55.223 Y100.478 E2.13058
G1 X100.478 Y55.223 E3.00865
G1 X100.62 Y55.223 E3.0106
G1 X164.872 Y119.475 E4.25726
G0 F3600 X165.013 Y119.334
G1 F960 X165.092 Y119.62 E4.26133
G1 X165.013 Y119.758 E4.26352
G1 X119.758 Y165.013 E5.14159
G1 X119.472 Y165.092 E5.14566
G1 X119.334 Y165.013 E5.14784
G1 X55.082 Y100.761 E6.3945
G1 X55.003 Y100.475 E6.39857
G1 X55.082 Y100.337 E6.40076
G1 X100.337 Y55.082 E7.27883
G1 X100.623 Y55.003 E7.2829
G1 X100.761 Y55.082 E7.28508
G1 X165.013 Y119.334 E8.53174
G0 F3600 X165.155 Y119.192
G1 F960 X165.301 Y119.554 E8.5371
G1 X165.155 Y119.9 E8.54225
G1 X119.9 Y165.155 E9.42032
G1 X119.538 Y165.301 E9.42568
G1 X119.192 Y165.155 E9.43083
G1 X54.94 Y100.903 E10.67749
G1 X54.794 Y100.541 E10.68285
G1 X54.94 Y100.195 E10.688
G1 X100.195 Y54.94 E11.56607
G1 X100.557 Y54.794 E11.57143
G1 X100.903 Y54.94 E11.57658
G1 X165.155 Y119.192 E12.82325
G0 F3600 X165.296 Y119.051
G1 F960 X165.497 Y119.47 E12.82962
G1 X165.391 Y119.923 E12.836
G1 X165.296 Y120.041 E12.83808
G1 X120.041 Y165.296 E13.71615
G1 X119.622 Y165.497 E13.72253
G1 X119.169 Y165.391 E13.72891
G1 X119.051 Y165.296 E13.73099
G1 X54.799 Y101.044 E14.97765
G1 X54.598 Y100.625 E14.98403
G1 X54.704 Y100.172 E14.99041
G1 X54.799 Y100.054 E14.99249
G1 X100.054 Y54.799 E15.87056
G1 X100.473 Y54.598 E15.87694
G1 X100.926 Y54.704 E15.88332
G1 X101.044 Y54.799 E15.8854
G1 X165.296 Y119.051 E17.13206
G0 F3600 X165.437 Y118.91
G1 F960 X165.596 Y119.125 E17.13573
G1 X165.685 Y119.377 E17.1394
G1 X165.696 Y119.645 E17.14308
G1 X165.627 Y119.903 E17.14674
G1 X165.437 Y120.182 E17.15138
G1 X120.182 Y165.437 E18.02945
G1 X119.967 Y165.596 E18.03311
G1 X119.715 Y165.685 E18.03678
G1 X119.447 Y165.696 E18.04046
G1 X119.189 Y165.627 E18.04413
G1 X118.91 Y165.437 E18.04876
G1 X54.658 Y101.185 E19.29542
G1 X54.499 Y100.97 E19.29909
G1 X54.41 Y100.718 E19.30276
G1 X54.399 Y100.45 E19.30644
G1 X54.468 Y100.192 E19.3101
G1 X54.658 Y99.913 E19.31473
G1 X99.913 Y54.658 E20.1928
G1 X100.128 Y54.499 E20.19647
G1 X100.38 Y54.41 E20.20014
G1 X100.648 Y54.399 E20.20382
G1 X100.906 Y54.468 E20.20748
G1 X101.185 Y54.658 E20.21211
G1 X165.437 Y118.91 E21.45878
G0 F3600 X165.579 Y118.768
G1 F960 X165.758 Y119.004 E21.46284
G1 X165.868 Y119.279 E21.46691
G1 X165.901 Y119.573 E21.47096
G1 X165.854 Y119.865 E21.47502
G1 X165.731 Y120.134 E21.47908
G1 X165.579 Y120.324 E21.48242
G1 X120.324 Y165.579 E22.36049
G1 X120.088 Y165.758 E22.36455
G1 X119.813 Y165.868 E22.36862
G1 X119.519 Y165.901 E22.37268
G1 X119.227 Y165.854 E22.37673
G1 X118.958 Y165.731 E22.38079
G1 X118.768 Y165.579 E22.38413
G1 X54.516 Y101.327 E23.63079
G1 X54.337 Y101.091 E23.63486
G1 X54.227 Y100.816 E23.63892
G1 X54.194 Y100.522 E23.64298
G1 X54.241 Y100.23 E23.64704
G1 X54.364 Y99.961 E23.6511
G1 X54.516 Y99.771 E23.65444
G1 X99.771 Y54.516 E24.53251
G1 X100.007 Y54.337 E24.53657
G1 X100.282 Y54.227 E24.54063
G1 X100.576 Y54.194 E24.54469
G1 X100.868 Y54.241 E24.54875
G1 X101.137 Y54.364 E24.55281
G1 X101.327 Y54.516 E24.55615
G1 X165.579 Y118.768 E25.80281
G0 F3600 X165.72 Y118.627
G1 F960 X165.918 Y118.881 E25.80723
G1 X166.047 Y119.176 E25.81165
G1 X166.1 Y119.493 E25.81606
G1 X166.073 Y119.814 E25.82048
G1 X165.968 Y120.118 E25.82489
G1 X165.72 Y120.465 E25.83074
G1 X120.465 Y165.72 E26.70881
G1 X120.211 Y165.918 E26.71323
G1 X119.916 Y166.047 E26.71765
G1 X119.599 Y166.1 E26.72206
G1 X119.278 Y166.073 E26.72648
G1 X118.974 Y165.968 E26.73089
G1 X118.627 Y165.72 E26.73674
G1 X54.375 Y101.468 E27.98341
G1 X54.177 Y101.214 E27.98782
G1 X54.048 Y100.919 E27.99224
G1 X53.995 Y100.602 E27.99665
G1 X54.022 Y100.281 E28.00107
G1 X54.127 Y99.977 E28.00548
G1 X54.375 Y99.63 E28.01133
G1 X99.63 Y54.375 E28.88941
G1 X99.884 Y54.177 E28.89382
G1 X100.179 Y54.048 E28.89824
G1 X100.496 Y53.995 E28.90265
G1 X100.817 Y54.022 E28.90707
G1 X101.121 Y54.127 E28.91148
G1 X101.468 Y54.375 E28.91733
G1 X165.72 Y118.627 E30.164
G0 F3600 X165.862 Y118.485
G1 F960 X166.076 Y118.756 E30.16874
G1 X166.223 Y119.07 E30.17349
G1 X166.295 Y119.408 E30.17823
G1 X166.287 Y119.754 E30.18298
G1 X166.2 Y120.088 E30.18772
G1 X166.038 Y120.394 E30.19247
G1 X165.862 Y120.607 E30.19626
G1 X120.607 Y165.862 E31.07433
G1 X120.336 Y166.076 E31.07907
G1 X120.022 Y166.223 E31.08382
G1 X119.684 Y166.295 E31.08857
G1 X119.338 Y166.287 E31.09331
G1 X119.004 Y166.2 E31.09805
G1 X118.698 Y166.038 E31.1028
G1 X118.485 Y165.862 E31.10659
G1 X54.233 Y101.61 E32.35326
G1 X54.019 Y101.339 E32.35799
G1 X53.872 Y101.025 E32.36275
G1 X53.8 Y100.687 E32.36749
G1 X53.808 Y100.341 E32.37224
G1 X53.895 Y100.007 E32.37697
G1 X54.057 Y99.701 E32.38172
G1 X54.233 Y99.488 E32.38552
G1 X99.488 Y54.233 E33.26359
G1 X99.759 Y54.019 E33.26832
G1 X100.073 Y53.872 E33.27308
G1 X100.411 Y53.8 E33.27782
G1 X100.757 Y53.808 E33.28257
G1 X101.091 Y53.895 E33.28731
G1 X101.397 Y54.057 E33.29206
G1 X101.61 Y54.233 E33.29585
G1 X165.862 Y118.485 E34.54251
G0 F3600 X166.003 Y118.344
G1 F960 X166.234 Y118.631 E34.54757
G1 X166.397 Y118.961 E34.55262
G1 X166.486 Y119.318 E34.55766
G1 X166.495 Y119.687 E34.56273
G1 X166.425 Y120.048 E34.56777
G1 X166.279 Y120.386 E34.57282
G1 X166.003 Y120.748 E34.57907
G1 X120.748 Y166.003 E35.45714
G1 X120.461 Y166.234 E35.4622
G1 X120.131 Y166.397 E35.46725
G1 X119.774 Y166.486 E35.47229
G1 X119.405 Y166.495 E35.47736
G1 X119.044 Y166.425 E35.4824
G1 X118.706 Y166.279 E35.48745
G1 X118.344 Y166.003 E35.4937
G1 X54.092 Y101.751 E36.74036
G1 X53.861 Y101.464 E36.74542
G1 X53.698 Y101.134 E36.75047
G1 X53.609 Y100.777 E36.75552
G1 X53.6 Y100.408 E36.76058
G1 X53.67 Y100.047 E36.76562
G1 X53.816 Y99.709 E36.77068
G1 X54.092 Y99.347 E36.77692
G1 X99.347 Y54.092 E37.65499
G1 X99.634 Y53.861 E37.66005
G1 X99.964 Y53.698 E37.6651
G1 X100.321 Y53.609 E37.67014
G1 X100.69 Y53.6 E37.67521
G1 X101.051 Y53.67 E37.68025
G1 X101.389 Y53.816 E37.68531
G1 X101.751 Y54.092 E37.69155
G1 X166.003 Y118.344 E38.93822
G0 F3600 X166.145 Y118.202
G1 F960 X166.39 Y118.505 E38.94356
G1 X166.569 Y118.85 E38.94889
G1 X166.674 Y119.225 E38.95424
G1 X166.7 Y119.614 E38.95959
G1 X166.646 Y120 E38.96493
G1 X166.515 Y120.366 E38.97027
G1 X166.312 Y120.698 E38.97561
G1 X166.145 Y120.89 E38.9791
G1 X120.89 Y166.145 E39.85717
G1 X120.587 Y166.39 E39.86251
G1 X120.242 Y166.569 E39.86785
G1 X119.867 Y166.674 E39.87319
G1 X119.478 Y166.7 E39.87854
G1 X119.092 Y166.646 E39.88389
G1 X118.726 Y166.515 E39.88922
G1 X118.394 Y166.312 E39.89456
G1 X118.202 Y166.145 E39.89805
G1 X53.95 Y101.893 E41.14471
G1 X53.705 Y101.59 E41.15006
G1 X53.526 Y101.245 E41.15539
G1 X53.421 Y100.87 E41.16073
G1 X53.395 Y100.481 E41.16608
G1 X53.449 Y100.095 E41.17143
G1 X53.58 Y99.729 E41.17676
G1 X53.783 Y99.397 E41.1821
G1 X53.95 Y99.205 E41.18559
G1 X99.205 Y53.95 E42.06367
G1 X99.508 Y53.705 E42.06901
G1 X99.853 Y53.526 E42.07434
G1 X100.228 Y53.421 E42.07969
G1 X100.617 Y53.395 E42.08504
G1 X101.003 Y53.449 E42.09038
G1 X101.369 Y53.58 E42.09572
G1 X101.701 Y53.783 E42.10106
G1 X101.893 Y53.95 E42.10455
G1 X166.145 Y118.202 E43.35121
G0 F3600 X166.286 Y118.061
G1 F960 X166.546 Y118.377 E43.35683
G1 X166.739 Y118.738 E43.36244
G1 X166.859 Y119.13 E43.36807
G1 X166.901 Y119.537 E43.37368
G1 X166.863 Y119.944 E43.37929
G1 X166.746 Y120.337 E43.38491
G1 X166.556 Y120.699 E43.39052
G1 X166.286 Y121.031 E43.39639
G1 X121.031 Y166.286 E44.27446
G1 X120.715 Y166.546 E44.28008
G1 X120.354 Y166.739 E44.2857
G1 X119.962 Y166.859 E44.29132
G1 X119.555 Y166.901 E44.29693
G1 X119.148 Y166.863 E44.30254
G1 X118.755 Y166.746 E44.30817
G1 X118.393 Y166.556 E44.31378
G1 X118.061 Y166.286 E44.31965
G1 X53.809 Y102.034 E45.56631
G1 X53.549 Y101.718 E45.57193
G1 X53.356 Y101.357 E45.57754
G1 X53.236 Y100.965 E45.58317
G1 X53.194 Y100.558 E45.58878
G1 X53.232 Y100.151 E45.59439
G1 X53.349 Y99.758 E45.60002
G1 X53.539 Y99.396 E45.60562
G1 X53.809 Y99.064 E45.6115
G1 X99.064 Y53.809 E46.48957
G1 X99.38 Y53.549 E46.49518
G1 X99.741 Y53.356 E46.5008
G1 X100.133 Y53.236 E46.50642
G1 X100.54 Y53.194 E46.51203
G1 X100.947 Y53.232 E46.51764
G1 X101.34 Y53.349 E46.52327
G1 X101.702 Y53.539 E46.52888
G1 X102.034 Y53.809 E46.53475
G1 X166.286 Y118.061 E47.78141
G0 F3600 X166.427 Y117.92
G1 F960 X166.701 Y118.25 E47.7873
G1 X166.908 Y118.624 E47.79316
G1 X167.043 Y119.031 E47.79905
G1 X167.099 Y119.456 E47.80493
G1 X167.076 Y119.884 E47.81081
G1 X166.974 Y120.3 E47.81668
G1 X166.796 Y120.69 E47.82257
G1 X166.427 Y121.172 E47.83089
G1 X121.172 Y166.427 E48.70897
G1 X120.842 Y166.701 E48.71485
G1 X120.468 Y166.908 E48.72071
G1 X120.061 Y167.043 E48.7266
G1 X119.636 Y167.099 E48.73248
G1 X119.208 Y167.076 E48.73836
G1 X118.792 Y166.974 E48.74424
G1 X118.402 Y166.796 E48.75012
G1 X117.92 Y166.427 E48.75845
G1 X53.668 Y102.175 E50.00511
G1 X53.394 Y101.845 E50.011
G1 X53.187 Y101.471 E50.01686
G1 X53.052 Y101.064 E50.02274
G1 X52.996 Y100.639 E50.02862
G1 X53.019 Y100.211 E50.03451
G1 X53.121 Y99.795 E50.04038
G1 X53.299 Y99.405 E50.04626
G1 X53.668 Y98.923 E50.05459
G1 X98.923 Y53.668 E50.93266
G1 X99.253 Y53.394 E50.93855
G1 X99.627 Y53.187 E50.94441
G1 X100.034 Y53.052 E50.9503
G1 X100.459 Y52.996 E50.95618
G1 X100.887 Y53.019 E50.96206
G1 X101.303 Y53.121 E50.96793
G1 X101.693 Y53.299 E50.97382
G1 X102.175 Y53.668 E50.98214
G1 X166.427 Y117.92 E52.22881
G0 F3600 X166.569 Y117.778
G1 F960 X166.855 Y118.121 E52.23494
G1 X167.076 Y118.509 E52.24106
G1 X167.224 Y118.931 E52.2472
G1 X167.295 Y119.372 E52.25333
G1 X167.286 Y119.819 E52.25946
G1 X167.198 Y120.257 E52.26559
G1 X167.033 Y120.672 E52.27172
G1 X166.797 Y121.051 E52.27784
G1 X166.569 Y121.314 E52.28262
G1 X121.314 Y166.569 E53.16069
G1 X120.971 Y166.855 E53.16682
G1 X120.583 Y167.076 E53.17294
G1 X120.161 Y167.224 E53.17908
G1 X119.72 Y167.295 E53.18521
G1 X119.273 Y167.286 E53.19134
G1 X118.835 Y167.198 E53.19747
G1 X118.42 Y167.033 E53.2036
G1 X118.041 Y166.797 E53.20972
G1 X117.778 Y166.569 E53.2145
G1 X53.526 Y102.317 E54.46116
G1 X53.24 Y101.974 E54.46729
G1 X53.019 Y101.586 E54.47341
G1 X52.871 Y101.164 E54.47955
G1 X52.8 Y100.723 E54.48568
G1 X52.809 Y100.276 E54.49181
G1 X52.897 Y99.838 E54.49794
G1 X53.062 Y99.423 E54.50407
G1 X53.298 Y99.044 E54.51019
G1 X53.526 Y98.781 E54.51497
G1 X98.781 Y53.526 E55.39304
G1 X99.124 Y53.24 E55.39917
G1 X99.512 Y53.019 E55.40529
G1 X99.934 Y52.871 E55.41143
G1 X100.375 Y52.8 E55.41756
G1 X100.822 Y52.809 E55.42369
G1 X101.26 Y52.897 E55.42982
G1 X101.675 Y53.062 E55.43595
G1 X102.054 Y53.298 E55.44207
G1 X102.317 Y53.526 E55.44685
G1 X166.569 Y117.778 E56.69351
G0 F3600 X166.71 Y117.637
G1 F960 X167.009 Y117.992 E56.69988
G1 X167.243 Y118.393 E56.70625
G1 X167.404 Y118.829 E56.71263
G1 X167.488 Y119.285 E56.71899
G1 X167.493 Y119.75 E56.72537
G1 X167.419 Y120.208 E56.73174
G1 X167.266 Y120.647 E56.73811
G1 X167.041 Y121.053 E56.74448
G1 X166.71 Y121.455 E56.75163
G1 X121.455 Y166.71 E57.6297
G1 X121.1 Y167.009 E57.63607
G1 X120.699 Y167.243 E57.64243
G1 X120.263 Y167.404 E57.64881
G1 X119.807 Y167.488 E57.65517
G1 X119.342 Y167.493 E57.66155
G1 X118.884 Y167.419 E57.66792
G1 X118.445 Y167.266 E57.6743
G1 X118.039 Y167.041 E57.68067
G1 X117.637 Y166.71 E57.68781
G1 X53.385 Y102.458 E58.93447
G1 X53.086 Y102.103 E58.94084
G1 X52.852 Y101.702 E58.94721
G1 X52.691 Y101.266 E58.95359
G1 X52.607 Y100.81 E58.95995
G1 X52.602 Y100.345 E58.96633
G1 X52.676 Y99.887 E58.9727
G1 X52.829 Y99.448 E58.97907
G1 X53.054 Y99.042 E58.98544
G1 X53.385 Y98.64 E58.99259
G1 X98.64 Y53.385 E59.87066
G1 X98.995 Y53.086 E59.87702
G1 X99.396 Y52.852 E59.88339
G1 X99.832 Y52.691 E59.88977
G1 X100.288 Y52.607 E59.89613
G1 X100.753 Y52.602 E59.90251
G1 X101.211 Y52.676 E59.90888
G1 X101.65 Y52.829 E59.91526
G1 X102.056 Y53.054 E59.92162
G1 X102.458 Y53.385 E59.92877
G1 X166.71 Y117.637 E61.17543
G0 F3600 X166.852 Y117.495
G1 F960 X167.162 Y117.863 E61.18204
G1 X167.408 Y118.276 E61.18863
G1 X167.582 Y118.725 E61.19524
G1 X167.68 Y119.196 E61.20184
G1 X167.698 Y119.677 E61.20844
G1 X167.636 Y120.155 E61.21505
G1 X167.497 Y120.615 E61.22165
G1 X167.283 Y121.046 E61.22825
G1 X166.852 Y121.597 E61.23785
G1 X121.597 Y166.852 E62.11592
G1 X121.229 Y167.162 E62.12252
G1 X120.816 Y167.408 E62.12911
G1 X120.367 Y167.582 E62.13572
G1 X119.896 Y167.68 E62.14232
G1 X119.415 Y167.698 E62.14893
G1 X118.937 Y167.636 E62.15554
G1 X118.477 Y167.497 E62.16213
G1 X118.046 Y167.283 E62.16873
G1 X117.495 Y166.852 E62.17833
G1 X53.243 Y102.6 E63.425
G1 X52.933 Y102.232 E63.4316
G1 X52.687 Y101.819 E63.43819
G1 X52.513 Y101.37 E63.4448
G1 X52.415 Y100.899 E63.4514
G1 X52.397 Y100.418 E63.458
G1 X52.459 Y99.94 E63.46462
G1 X52.598 Y99.48 E63.47121
G1 X52.812 Y99.049 E63.47781
