;FLAVOR:Marlin
;TIME:42620
;Filament used:13.5487m
;Layer height: 0.2
;MINX:43.036
;MINY:43.036
;MINZ:0.15
;MAXX:178.356
;MAXY:178.333
;MAXZ:33.55
                           
;Creality Print GCode Generated by CXEngineDEV
;Generated Time:2022-06-30 15:03:09
;----------Machine Config--------------
;Machine Name:Creality Ender-3
;Machine Height:250
;Machine Width:220
;Machine Depth:220
;Material name:Castable
;Number of Extruders:1
;ExtruderParams[0] Nozzle Diameter1000
;----------Profile Config---------------
;Layer Height:0.2
;Wall Thickness:1.6
;Top/Bottom Thickness:1
;Out Wall Line Width:0.2
;Inner Wall Line Width:0.2
;Inital Layer Height:150
;Wall Line Count:8
;Infill Line Distance:2.22
;Infill Pattern:grid
;Infill Sparse Density:18
;Infill Wipe Distance:0
;Print Temperature:235
;Bed Temperature:74
;Support Enable:false
;Support Density:10
;Support Angle:0
;Adhesion Type:brim
;machine is belt:false
;machine belt offset:10
;machine belt offset Y:0
;Raft Base Line Spacing:1.6
;Wait Heatup Sync:true
;----------Shell Config----------------
;Outer Wall Wipe Distance:200
;Infill Before Walls:false
;Infill Overlap:0.08
;Fill Gaps Between Walls:everywhere
;Minimum Infill Area:1
;Top Surface Skin Layer:0
;Top Layers:7
;Z Seam Alignment:sharpest_corner
;Seam Corner Preference:z_seam_corner_inner
;Z Seam X:110
;Z Seam Y:110
;Horizontal Expansion:0
;Top/Bottom Pattern:zigzag
;Ironing Pattern:zigzag
;Vase Model:false
;----------Support Config----------------
;Support Type:everywhere
;Support Pattern:zigzag
;Support Infill Layer Thickness:0.2
;Minimum Support Area:5
;Enable Support Roof:false
;Support Roof Thickness:0.8
;Support Roof Pattern:lines
;Connect Support Lines:0
;Connect Support ZigZags:1
;Minimum Support X/Y Distance:0.2
;Support Line Distance:2
; ---------PrintSpeed & Travel----------
;Enable Print Cool:true
;Avoid Printed Parts Traveling:true
;Enable Retraction:true
;Retraction Distance:8
;Retraction Speed:100
;Retraction Prime Speed:100
;Maximum Retraction Count:100
;Minimum Extrusion Distance Window:1
;Z Hop When Retracted:false
;Z Hop Height:0.2
;Retract Before Outer Wall:true
;Print Speed:32
;Infill Speed:32

;Prime Tower Speed:32
;Travel Speed:120
;Initial Layer Speed:16
;Skirt/Brim Speed:16
;Combing Mode:off
; --------SpecialModel&Mesh Fixes--------
;Union Overlapping Volum:true
;Remove All Holes:false
;Maximum Travel Resolution:0.4
;Maximum Deviation:0.05
;Maximum Model Angle:0.872665
;IS Mold Print:false
;Make Overhang Printable:false
;Enable Coasting:false
;Coasting Volumes:0.06
;Coasting Speed:0.9
;Raft AirGap:0.25
;Layer0 ZOverLap:0.13
;---------------------End of Head--------------------------
M140 S74
M105
M104 S235
M105
M109 S235
M105
M190 S74
M82 ;absolute extrusion mode
M220 S100 ;Reset Feedrate
M221 S100 ;Reset Flowrate

G28 ;Home

G92 E0 ;Reset Extruder
G1 Z2.0 F3000 ;Move Z Axis up
G1 X10.1 Y20 Z0.28 F5000.0 ;Move to start position
G1 X10.1 Y145.0 Z0.28 F1500.0 E15 ;Draw the first line
G1 X10.4 Y145.0 Z0.28 F5000.0 ;Move to side a little
G1 X10.4 Y20 Z0.28 F1500.0 E30 ;Draw the second line
G92 E0  ;Reset Extruder
G1 E-1.0000 F1800 ;Retract a bit
G1 Z2.0 F3000 ;Move Z Axis up
G1 E0.0000 F1800 

G92 E0
G92 E0
G1 F6000 E-8

;LAYER_COUNT:170

;LAYER:0
M107
G0 F3600 X45.348 Y117.473 Z0.15
;;retract;;
G0 X117.473 Y45.348
;TYPE:SKIRT
G1 F6000 E0
G1 F960 X118.062 Y44.815 E0.0109
G1 X118.702 Y44.344 E0.0218
G1 X119.387 Y43.939 E0.03272
G1 X120.108 Y43.606 E0.04361
G1 X120.859 Y43.346 E0.05452
G1 X121.633 Y43.164 E0.06543
G1 X122.421 Y43.06 E0.07633
G1 X123.215 Y43.036 E0.08723
G1 X124.008 Y43.091 E0.09814
G1 X124.791 Y43.226 E0.10904
G1 X125.557 Y43.439 E0.11995
G1 X126.297 Y43.728 E0.13084
G1 X127.005 Y44.09 E0.14175
G1 X127.672 Y44.521 E0.15265
G1 X128.293 Y45.017 E0.16355
G1 X128.645 Y45.348 E0.17018
G1 X176.044 Y92.747 E1.08985
G1 X176.577 Y93.336 E1.10075
G1 X177.048 Y93.976 E1.11165
G1 X177.453 Y94.661 E1.12257
G1 X177.786 Y95.382 E1.13347
G1 X178.046 Y96.133 E1.14437
G1 X178.228 Y96.907 E1.15528
G1 X178.332 Y97.695 E1.16619
G1 X178.356 Y98.489 E1.17708
G1 X178.301 Y99.282 E1.18799
G1 X178.166 Y100.065 E1.19889
G1 X177.953 Y100.831 E1.2098
G1 X177.664 Y101.571 E1.2207
G1 X177.302 Y102.279 E1.23161
G1 X176.871 Y102.946 E1.2425
G1 X176.375 Y103.567 E1.25341
G1 X176.044 Y103.919 E1.26004
G1 X104.08 Y175.883 E2.65634
G1 X103.37 Y176.512 E2.66935
G1 X103.189 Y176.654 E2.67251
G1 X102.54 Y177.113 E2.68341
G1 X101.848 Y177.504 E2.69432
G1 X101.12 Y177.823 E2.70522
G1 X100.364 Y178.068 E2.71612
G1 X99.587 Y178.236 E2.72703
G1 X98.798 Y178.324 E2.73792
G1 X98.003 Y178.333 E2.74883
G1 X97.211 Y178.262 E2.75974
G1 X96.431 Y178.112 E2.77064
G1 X95.67 Y177.884 E2.78154
G1 X94.935 Y177.58 E2.79245
G1 X94.235 Y177.205 E2.80335
G1 X93.576 Y176.761 E2.81425
G1 X92.727 Y176.025 E2.82966
G1 X45.348 Y128.645 E3.74895
G1 X44.815 Y128.056 E3.75985
G1 X44.344 Y127.415 E3.77077
G1 X43.939 Y126.731 E3.78167
G1 X43.606 Y126.01 E3.79257
G1 X43.346 Y125.259 E3.80347
G1 X43.164 Y124.485 E3.81438
G1 X43.06 Y123.697 E3.82529
G1 X43.036 Y122.903 E3.83618
G1 X43.091 Y122.11 E3.84709
G1 X43.226 Y121.327 E3.85799
G1 X43.439 Y120.561 E3.8689
G1 X43.728 Y119.821 E3.8798
G1 X44.09 Y119.113 E3.89071
G1 X44.521 Y118.446 E3.9016
G1 X45.017 Y117.825 E3.91251
G1 X45.348 Y117.473 E3.91914
G1 X117.473 Y45.348 E5.31856
G0 F3600 X117.614 Y45.489
G1 F960 X118.197 Y44.963 E5.32933
G1 X118.829 Y44.5 E5.34008
G1 X119.506 Y44.103 E5.35085
G1 X120.22 Y43.777 E5.36162
G1 X120.963 Y43.525 E5.37238
G1 X121.728 Y43.35 E5.38315
G1 X122.507 Y43.254 E5.39392
G1 X123.291 Y43.237 E5.40468
G1 X124.073 Y43.301 E5.41544
G1 X124.844 Y43.444 E5.4262
G1 X125.597 Y43.664 E5.43696
G1 X126.324 Y43.96 E5.44773
G1 X127.017 Y44.329 E5.4585
G1 X127.668 Y44.766 E5.46926
G1 X128.504 Y45.489 E5.48442
G1 X175.903 Y92.888 E6.40409
G1 X176.429 Y93.471 E6.41487
G1 X176.892 Y94.103 E6.42562
G1 X177.289 Y94.78 E6.43638
G1 X177.615 Y95.494 E6.44715
G1 X177.867 Y96.237 E6.45792
G1 X178.042 Y97.002 E6.46868
G1 X178.138 Y97.781 E6.47945
G1 X178.155 Y98.565 E6.49021
G1 X178.091 Y99.347 E6.50098
G1 X177.948 Y100.118 E6.51173
G1 X177.728 Y100.871 E6.5225
G1 X177.432 Y101.598 E6.53327
G1 X177.063 Y102.291 E6.54404
G1 X176.626 Y102.942 E6.5548
G1 X175.903 Y103.778 E6.56996
G1 X103.939 Y175.742 E7.96626
G1 X103.247 Y176.355 E7.97894
G1 X103.066 Y176.497 E7.9821
G1 X102.425 Y176.949 E7.99286
G1 X101.741 Y177.334 E8.00363
G1 X101.021 Y177.647 E8.0144
G1 X100.274 Y177.885 E8.02516
G1 X99.506 Y178.046 E8.03592
G1 X98.725 Y178.128 E8.0467
G1 X97.941 Y178.13 E8.05745
G1 X97.16 Y178.052 E8.06822
G1 X96.391 Y177.895 E8.07899
G1 X95.643 Y177.661 E8.08974
G1 X94.921 Y177.352 E8.10052
G1 X94.236 Y176.971 E8.11127
G1 X93.592 Y176.522 E8.12204
G1 X92.868 Y175.884 E8.13528
G1 X45.489 Y128.504 E9.05457
G1 X44.963 Y127.921 E9.06535
G1 X44.5 Y127.288 E9.07611
G1 X44.103 Y126.612 E9.08686
G1 X43.777 Y125.898 E9.09763
G1 X43.525 Y125.155 E9.10839
G1 X43.35 Y124.39 E9.11916
G1 X43.254 Y123.611 E9.12993
G1 X43.237 Y122.827 E9.14069
G1 X43.301 Y122.045 E9.15145
G1 X43.444 Y121.273 E9.16222
G1 X43.664 Y120.521 E9.17297
G1 X43.961 Y119.794 E9.18375
G1 X44.329 Y119.101 E9.19451
G1 X44.766 Y118.45 E9.20527
G1 X45.489 Y117.614 E9.22044
G1 X117.614 Y45.489 E10.61986
G0 F3600 X117.756 Y45.631
G1 F960 X118.331 Y45.112 E10.63048
G1 X118.956 Y44.656 E10.6411
G1 X119.625 Y44.266 E10.65172
G1 X120.331 Y43.948 E10.66235
G1 X121.066 Y43.704 E10.67297
G1 X121.822 Y43.537 E10.68359
G1 X122.592 Y43.449 E10.69423
G1 X123.366 Y43.44 E10.70485
G1 X124.137 Y43.512 E10.71547
G1 X124.896 Y43.663 E10.72609
G1 X125.636 Y43.891 E10.73671
G1 X126.349 Y44.194 E10.74734
G1 X127.026 Y44.569 E10.75796
G1 X127.661 Y45.012 E10.76858
G1 X128.362 Y45.631 E10.78141
G1 X175.761 Y93.03 E11.70108
G1 X176.28 Y93.605 E11.71171
G1 X176.736 Y94.23 E11.72232
G1 X177.126 Y94.899 E11.73295
G1 X177.444 Y95.605 E11.74357
G1 X177.688 Y96.34 E11.7542
G1 X177.855 Y97.096 E11.76482
G1 X177.943 Y97.866 E11.77545
G1 X177.952 Y98.64 E11.78607
G1 X177.88 Y99.411 E11.7967
G1 X177.729 Y100.17 E11.80731
G1 X177.501 Y100.91 E11.81794
G1 X177.198 Y101.623 E11.82857
G1 X176.823 Y102.3 E11.83918
G1 X176.38 Y102.935 E11.84981
G1 X175.761 Y103.636 E11.86264
G1 X103.797 Y175.6 E13.25894
G1 X103.123 Y176.198 E13.2713
G1 X102.942 Y176.34 E13.27445
G1 X102.309 Y176.786 E13.28508
G1 X101.634 Y177.164 E13.29569
G1 X100.922 Y177.47 E13.30632
G1 X100.184 Y177.702 E13.31694
G1 X99.425 Y177.856 E13.32756
G1 X98.654 Y177.931 E13.33819
G1 X97.88 Y177.926 E13.34881
G1 X97.11 Y177.842 E13.35944
G1 X96.353 Y177.678 E13.37007
G1 X95.617 Y177.438 E13.38069
G1 X94.91 Y177.122 E13.39131
G1 X94.239 Y176.736 E13.40193
G1 X93.611 Y176.282 E13.41256
G1 X93.01 Y175.742 E13.42365
G1 X45.631 Y128.362 E14.34294
G1 X45.112 Y127.787 E14.35357
G1 X44.656 Y127.162 E14.36418
G1 X44.266 Y126.492 E14.37482
G1 X43.948 Y125.787 E14.38543
G1 X43.704 Y125.052 E14.39605
G1 X43.537 Y124.296 E14.40668
G1 X43.449 Y123.526 E14.41731
G1 X43.44 Y122.752 E14.42793
G1 X43.512 Y121.981 E14.43855
G1 X43.663 Y121.221 E14.44918
G1 X43.891 Y120.482 E14.45979
G1 X44.194 Y119.769 E14.47042
G1 X44.569 Y119.092 E14.48104
G1 X45.012 Y118.457 E14.49166
G1 X45.631 Y117.756 E14.50449
G1 X117.756 Y45.631 E15.90392
G0 F3600 X117.897 Y45.772
G1 F960 X118.465 Y45.261 E15.9144
G1 X119.083 Y44.812 E15.92488
G1 X119.744 Y44.43 E15.93535
G1 X120.442 Y44.119 E15.94584
G1 X121.169 Y43.883 E15.95632
G1 X121.916 Y43.724 E15.9668
G1 X122.676 Y43.644 E15.97729
G1 X123.44 Y43.644 E15.98777
G1 X124.199 Y43.724 E15.99824
G1 X124.947 Y43.882 E16.00873
G1 X125.673 Y44.118 E16.0192
G1 X126.371 Y44.429 E16.02969
G1 X127.033 Y44.811 E16.04017
G1 X127.651 Y45.259 E16.05065
G1 X128.221 Y45.772 E16.06117
G1 X175.62 Y93.171 E16.98084
G1 X176.131 Y93.739 E16.99132
G1 X176.58 Y94.357 E17.0018
G1 X176.962 Y95.018 E17.01227
G1 X177.273 Y95.716 E17.02276
G1 X177.509 Y96.443 E17.03324
G1 X177.668 Y97.19 E17.04372
G1 X177.748 Y97.95 E17.05421
G1 X177.748 Y98.714 E17.06469
G1 X177.668 Y99.473 E17.07516
G1 X177.51 Y100.221 E17.08565
G1 X177.274 Y100.947 E17.09612
G1 X176.963 Y101.645 E17.10661
G1 X176.581 Y102.307 E17.11709
G1 X176.133 Y102.925 E17.12757
G1 X175.62 Y103.495 E17.13809
G1 X103.656 Y175.459 E18.53439
G1 X103 Y176.04 E18.54641
G1 X102.819 Y176.182 E18.54956
G1 X102.194 Y176.622 E18.56005
G1 X101.527 Y176.994 E18.57053
G1 X100.824 Y177.294 E18.58102
G1 X100.094 Y177.518 E18.59149
G1 X99.344 Y177.666 E18.60198
G1 X98.583 Y177.734 E18.61246
G1 X97.82 Y177.722 E18.62293
G1 X97.061 Y177.631 E18.63342
G1 X96.316 Y177.461 E18.6439
G1 X95.594 Y177.214 E18.65437
G1 X94.9 Y176.892 E18.66487
G1 X94.245 Y176.5 E18.67534
G1 X93.634 Y176.042 E18.68582
G1 X93.151 Y175.601 E18.69479
G1 X45.772 Y128.221 E19.61408
G1 X45.261 Y127.653 E19.62457
G1 X44.812 Y127.035 E19.63505
G1 X44.43 Y126.374 E19.64552
G1 X44.119 Y125.676 E19.65601
G1 X43.883 Y124.949 E19.66649
G1 X43.724 Y124.202 E19.67697
G1 X43.644 Y123.442 E19.68746
G1 X43.644 Y122.678 E19.69794
G1 X43.724 Y121.918 E19.70842
G1 X43.882 Y121.171 E19.7189
G1 X44.118 Y120.445 E19.72937
G1 X44.429 Y119.747 E19.73985
G1 X44.811 Y119.085 E19.75034
G1 X45.259 Y118.467 E19.76081
G1 X45.772 Y117.897 E19.77133
G1 X117.897 Y45.772 E21.17076
G0 F3600 X118.039 Y45.914
G1 F960 X118.599 Y45.41 E21.18109
G1 X119.209 Y44.968 E21.19143
G1 X119.863 Y44.594 E21.20176
G1 X120.553 Y44.291 E21.2121
G1 X121.271 Y44.063 E21.22244
G1 X122.009 Y43.912 E21.23277
G1 X122.759 Y43.84 E21.24311
G1 X123.512 Y43.848 E21.25344
G1 X124.261 Y43.936 E21.26379
G1 X124.995 Y44.103 E21.27412
G1 X125.708 Y44.347 E21.28446
G1 X126.391 Y44.665 E21.29479
G1 X127.037 Y45.053 E21.30513
G1 X127.638 Y45.508 E21.31547
G1 X128.079 Y45.914 E21.3237
G1 X175.478 Y93.313 E22.24337
G1 X175.982 Y93.873 E22.25371
G1 X176.424 Y94.483 E22.26404
G1 X176.798 Y95.137 E22.27438
G1 X177.101 Y95.827 E22.28472
G1 X177.329 Y96.545 E22.29505
G1 X177.48 Y97.283 E22.30539
G1 X177.552 Y98.033 E22.31572
G1 X177.544 Y98.786 E22.32606
G1 X177.456 Y99.535 E22.3364
G1 X177.289 Y100.269 E22.34673
G1 X177.045 Y100.982 E22.35707
G1 X176.727 Y101.665 E22.36741
G1 X176.339 Y102.311 E22.37774
G1 X175.884 Y102.912 E22.38809
G1 X175.478 Y103.353 E22.39631
G1 X103.514 Y175.317 E23.79261
G1 X102.876 Y175.883 E23.80431
G1 X102.695 Y176.025 E23.80747
G1 X102.079 Y176.458 E23.8178
G1 X101.42 Y176.823 E23.82813
G1 X100.726 Y177.116 E23.83847
G1 X100.005 Y177.335 E23.84881
G1 X99.265 Y177.475 E23.85914
G1 X98.514 Y177.536 E23.86948
G1 X97.761 Y177.517 E23.87981
G1 X97.014 Y177.419 E23.89015
G1 X96.281 Y177.242 E23.90049
G1 X95.572 Y176.989 E23.91082
G1 X94.893 Y176.661 E23.92117
G1 X94.253 Y176.264 E23.9315
G1 X93.659 Y175.801 E23.94183
G1 X93.292 Y175.459 E23.94871
G1 X45.913 Y128.079 E24.86801
G1 X45.41 Y127.519 E24.87833
G1 X44.968 Y126.909 E24.88867
G1 X44.594 Y126.255 E24.89901
G1 X44.291 Y125.565 E24.90934
G1 X44.063 Y124.847 E24.91968
G1 X43.912 Y124.109 E24.93002
G1 X43.84 Y123.359 E24.94035
G1 X43.848 Y122.606 E24.95068
G1 X43.936 Y121.857 E24.96103
G1 X44.103 Y121.123 E24.97136
G1 X44.347 Y120.41 E24.9817
G1 X44.665 Y119.727 E24.99203
G1 X45.053 Y119.081 E25.00237
G1 X45.508 Y118.48 E25.01271
G1 X45.914 Y118.039 E25.02094
G1 X118.039 Y45.914 E26.42036
G0 F3600 X118.18 Y46.055
G1 F960 X118.733 Y45.559 E26.43055
G1 X119.335 Y45.125 E26.44073
G1 X119.981 Y44.758 E26.45093
G1 X120.663 Y44.463 E26.46112
G1 X121.372 Y44.243 E26.47131
G1 X122.101 Y44.101 E26.4815
G1 X122.841 Y44.037 E26.49169
G1 X123.584 Y44.054 E26.50188
G1 X124.32 Y44.15 E26.51207
G1 X125.042 Y44.325 E26.52226
G1 X125.741 Y44.576 E26.53245
G1 X126.409 Y44.902 E26.54265
G1 X127.038 Y45.297 E26.55284
G1 X127.62 Y45.757 E26.56302
G1 X127.938 Y46.055 E26.569
G1 X175.337 Y93.454 E27.48867
G1 X175.833 Y94.007 E27.49886
G1 X176.267 Y94.609 E27.50904
G1 X176.634 Y95.255 E27.51923
G1 X176.929 Y95.937 E27.52943
G1 X177.149 Y96.646 E27.53961
G1 X177.291 Y97.375 E27.5498
G1 X177.355 Y98.115 E27.55999
G1 X177.338 Y98.858 E27.57019
G1 X177.242 Y99.594 E27.58037
G1 X177.067 Y100.316 E27.59057
G1 X176.816 Y101.015 E27.60075
G1 X176.49 Y101.683 E27.61095
G1 X176.095 Y102.312 E27.62114
G1 X175.635 Y102.894 E27.63132
G1 X175.337 Y103.212 E27.6373
G1 X103.373 Y175.176 E29.0336
G1 X102.753 Y175.726 E29.04497
G1 X102.572 Y175.868 E29.04813
G1 X101.964 Y176.294 E29.05831
G1 X101.313 Y176.653 E29.06851
G1 X100.628 Y176.939 E29.0787
G1 X99.916 Y177.15 E29.08888
G1 X99.186 Y177.284 E29.09907
G1 X98.445 Y177.338 E29.10926
G1 X97.703 Y177.312 E29.11945
G1 X96.967 Y177.207 E29.12965
G1 X96.248 Y177.023 E29.13983
G1 X95.552 Y176.763 E29.15002
G1 X94.888 Y176.429 E29.16022
G1 X94.264 Y176.026 E29.17041
G1 X93.434 Y175.318 E29.18538
G1 X46.055 Y127.938 E30.10467
G1 X45.559 Y127.385 E30.11486
G1 X45.125 Y126.783 E30.12504
G1 X44.758 Y126.137 E30.13524
G1 X44.463 Y125.455 E30.14543
G1 X44.243 Y124.746 E30.15562
G1 X44.101 Y124.017 E30.16581
G1 X44.037 Y123.277 E30.176
G1 X44.054 Y122.534 E30.18619
G1 X44.15 Y121.798 E30.19638
G1 X44.325 Y121.076 E30.20657
G1 X44.577 Y120.377 E30.21676
G1 X44.902 Y119.709 E30.22696
G1 X45.297 Y119.08 E30.23715
G1 X45.757 Y118.498 E30.24732
G1 X46.055 Y118.18 E30.2533
G1 X118.18 Y46.055 E31.65273
G0 F3600 X118.321 Y46.196
G1 F960 X118.866 Y45.708 E31.66276
G1 X119.461 Y45.282 E31.6728
G1 X120.099 Y44.923 E31.68285
G1 X120.773 Y44.636 E31.6929
G1 X121.473 Y44.424 E31.70293
G1 X122.193 Y44.29 E31.71298
G1 X122.922 Y44.235 E31.72301
G1 X123.654 Y44.26 E31.73306
G1 X124.378 Y44.365 E31.7431
G1 X125.087 Y44.548 E31.75314
G1 X125.771 Y44.807 E31.76318
G1 X126.423 Y45.14 E31.77322
G1 X127.035 Y45.541 E31.78326
G1 X127.797 Y46.196 E31.79704
G1 X175.196 Y93.595 E32.71671
G1 X175.684 Y94.14 E32.72675
G1 X176.11 Y94.735 E32.73679
G1 X176.469 Y95.373 E32.74684
G1 X176.756 Y96.047 E32.75689
G1 X176.968 Y96.747 E32.76692
G1 X177.102 Y97.467 E32.77697
G1 X177.157 Y98.196 E32.787
G1 X177.132 Y98.928 E32.79705
G1 X177.027 Y99.652 E32.80708
G1 X176.844 Y100.361 E32.81713
G1 X176.585 Y101.045 E32.82717
G1 X176.252 Y101.697 E32.83721
G1 X175.851 Y102.309 E32.84725
G1 X175.196 Y103.071 E32.86103
G1 X103.232 Y175.035 E34.25733
