;FLAVOR:Marlin
;TIME:33251
;Filament used:10.3468m
;Layer height: 0.2
;MINX:79.35
;MINY:79.35
;MINZ:0.15
;MAXX:185.818
;MAXY:185.822
;MAXZ:33.95
                             
;Creality Print GCode Generated by CXEngineDEV
;Generated Time:2022-06-30 15:03:09
;----------Machine Config--------------
;Machine Name:Creality Ender-3
;Machine Height:250
;Machine Width:220
;Machine Depth:220
;Material name:Castable
;Number of Extruders:1
;ExtruderParams[0] Nozzle Diameter1000
;----------Profile Config---------------
;Layer Height:0.2
;Wall Thickness:1.6
;Top/Bottom Thickness:1
;Out Wall Line Width:0.2
;Inner Wall Line Width:0.2
;Inital Layer Height:150
;Wall Line Count:8
;Infill Line Distance:2.22
;Infill Pattern:grid
;Infill Sparse Density:18
;Infill Wipe Distance:0
;Print Temperature:235
;Bed Temperature:74
;Support Enable:false
;Support Density:10
;Support Angle:0
;Adhesion Type:brim
;machine is belt:false
;machine belt offset:10
;machine belt offset Y:0
;Raft Base Line Spacing:1.6
;Wait Heatup Sync:true
;----------Shell Config----------------
;Outer Wall Wipe Distance:200
;Infill Before Walls:false
;Infill Overlap:0.08
;Fill Gaps Between Walls:everywhere
;Minimum Infill Area:1
;Top Surface Skin Layer:0
;Top Layers:7
;Z Seam Alignment:sharpest_corner
;Seam Corner Preference:z_seam_corner_inner
;Z Seam X:110
;Z Seam Y:110
;Horizontal Expansion:0
;Top/Bottom Pattern:zigzag
;Ironing Pattern:zigzag
;Vase Model:false
;----------Support Config----------------
;Support Type:everywhere
;Support Pattern:zigzag
;Support Infill Layer Thickness:0.2
;Minimum Support Area:5
;Enable Support Roof:false
;Support Roof Thickness:0.8
;Support Roof Pattern:lines
;Connect Support Lines:0
;Connect Support ZigZags:1
;Minimum Support X/Y Distance:0.2
;Support Line Distance:2
; ---------PrintSpeed & Travel----------
;Enable Print Cool:true
;Avoid Printed Parts Traveling:true
;Enable Retraction:true
;Retraction Distance:8
;Retraction Speed:100
;Retraction Prime Speed:100
;Maximum Retraction Count:100
;Minimum Extrusion Distance Window:1
;Z Hop When Retracted:false
;Z Hop Height:0.2
;Retract Before Outer Wall:true
;Print Speed:32
;Infill Speed:32

;Prime Tower Speed:32
;Travel Speed:120
;Initial Layer Speed:16
;Skirt/Brim Speed:16
;Combing Mode:off
; --------SpecialModel&Mesh Fixes--------
;Union Overlapping Volum:true
;Remove All Holes:false
;Maximum Travel Resolution:0.4
;Maximum Deviation:0.05
;Maximum Model Angle:0.872665
;IS Mold Print:false
;Make Overhang Printable:false
;Enable Coasting:false
;Coasting Volumes:0.06
;Coasting Speed:0.9
;Raft AirGap:0.25
;Layer0 ZOverLap:0.13
;---------------------End of Head--------------------------
M140 S74
M105
M104 S235
M105
M109 S235
M105
M190 S74
M82 ;absolute extrusion mode
M220 S100 ;Reset Feedrate
M221 S100 ;Reset Flowrate

G28 ;Home

G92 E0 ;Reset Extruder
G1 Z2.0 F3000 ;Move Z Axis up
G1 X10.1 Y20 Z0.28 F5000.0 ;Move to start position
G1 X10.1 Y145.0 Z0.28 F1500.0 E15 ;Draw the first line
G1 X10.4 Y145.0 Z0.28 F5000.0 ;Move to side a little
G1 X10.4 Y20 Z0.28 F1500.0 E30 ;Draw the second line
G92 E0  ;Reset Extruder
G1 E-1.0000 F1800 ;Retract a bit
G1 Z2.0 F3000 ;Move Z Axis up
G1 E0.0000 F1800 

G92 E0
G92 E0
G1 F6000 E-8

;LAYER_COUNT:170

;LAYER:0
M107
G0 F3600 X81.775 Y81.555 Z0.15
;;retract;;
G0 X87.097 Y86.992
;TYPE:SKIRT
G1 F6000 E0
G1 F960 X87.25 Y86.95 E0.00218
G1 X177.924 Y86.95 E1.24621
G1 X178.182 Y87.097 E1.25028
G1 X178.187 Y87.394 E1.25436
G1 X178.136 Y87.462 E1.25552
G1 X87.463 Y178.136 E3.01484
G1 X87.177 Y178.215 E3.01891
G1 X86.963 Y178.008 E3.02299
G1 X86.951 Y177.924 E3.02416
G1 X86.95 Y87.25 E4.26819
G1 X87.097 Y86.992 E4.27226
;;retract;;
G1 F6000 E-3.72774
G0 F3600 X177.995 Y87.321
G1 F6000 E4.27226
G1 F960 X87.322 Y177.995 E6.03157
G1 X87.166 Y177.976 E6.03373
G1 X87.151 Y177.924 E6.03447
G1 X87.15 Y87.25 E7.2785
G1 X87.25 Y87.15 E7.28044
G1 X177.924 Y87.15 E8.52447
G1 X178.021 Y87.273 E8.52662
G1 X177.995 Y87.321 E8.52737
;;retract;;
G1 F6000 E0.52737
G0 F3600 X178.278 Y87.604
G1 F6000 E8.52737
G1 F960 X87.605 Y178.278 E10.28668
G1 X87.243 Y178.424 E10.29204
G1 X86.886 Y178.266 E10.29739
G1 X86.751 Y177.924 E10.30244
G1 X86.75 Y87.25 E11.54647
G1 X86.902 Y86.891 E11.55182
G1 X87.25 Y86.75 E11.55697
G1 X177.924 Y86.75 E12.801
G1 X178.283 Y86.902 E12.80635
G1 X178.424 Y87.266 E12.8117
G1 X178.278 Y87.604 E12.81675
G0 F3600 X178.419 Y87.745
G1 F960 X87.746 Y178.419 E14.57607
G1 X87.327 Y178.62 E14.58244
G1 X86.874 Y178.514 E14.58883
G1 X86.588 Y178.148 E14.5952
G1 X86.551 Y177.924 E14.59832
G1 X86.55 Y87.25 E15.84234
G1 X86.704 Y86.812 E15.84871
G1 X87.099 Y86.566 E15.8551
G1 X87.25 Y86.55 E15.85718
G1 X177.924 Y86.55 E17.10121
G1 X178.362 Y86.704 E17.10758
G1 X178.608 Y87.099 E17.11397
G1 X178.551 Y87.561 E17.12035
G1 X178.419 Y87.745 E17.12346
G0 F3600 X178.56 Y87.886
G1 F960 X87.887 Y178.56 E18.88277
G1 X87.672 Y178.719 E18.88644
G1 X87.42 Y178.808 E18.89011
G1 X87.152 Y178.819 E18.89379
G1 X86.894 Y178.75 E18.89745
G1 X86.667 Y178.608 E18.90113
G1 X86.491 Y178.406 E18.9048
G1 X86.383 Y178.162 E18.90846
G1 X86.351 Y177.924 E18.91176
G1 X86.35 Y87.25 E20.15579
G1 X86.39 Y86.985 E20.15946
G1 X86.506 Y86.744 E20.16313
G1 X86.687 Y86.548 E20.16679
G1 X86.919 Y86.413 E20.17048
G1 X87.25 Y86.35 E20.1751
G1 X177.924 Y86.35 E21.41913
G1 X178.189 Y86.39 E21.42281
G1 X178.43 Y86.506 E21.42648
G1 X178.626 Y86.687 E21.43014
G1 X178.761 Y86.919 E21.43382
G1 X178.821 Y87.179 E21.43748
G1 X178.802 Y87.446 E21.44115
G1 X178.706 Y87.696 E21.44483
G1 X178.56 Y87.886 E21.44811
G0 F3600 X178.702 Y88.028
G1 F960 X88.029 Y178.702 E23.20743
G1 X87.793 Y178.881 E23.21149
G1 X87.518 Y178.991 E23.21556
G1 X87.224 Y179.024 E23.21961
G1 X86.932 Y178.977 E23.22367
G1 X86.663 Y178.854 E23.22773
G1 X86.436 Y178.663 E23.2318
G1 X86.269 Y178.419 E23.23586
G1 X86.172 Y178.139 E23.23992
G1 X86.151 Y177.924 E23.24289
G1 X86.15 Y87.25 E24.48692
G1 X86.19 Y86.957 E24.49097
G1 X86.306 Y86.685 E24.49503
G1 X86.491 Y86.454 E24.49909
G1 X86.731 Y86.28 E24.50316
G1 X87.008 Y86.177 E24.50721
G1 X87.25 Y86.15 E24.51055
G1 X177.924 Y86.15 E25.75458
G1 X178.217 Y86.19 E25.75864
G1 X178.489 Y86.306 E25.7627
G1 X178.72 Y86.491 E25.76676
G1 X178.894 Y86.731 E25.77082
G1 X178.997 Y87.008 E25.77488
G1 X179.023 Y87.303 E25.77894
G1 X178.969 Y87.594 E25.783
G1 X178.839 Y87.86 E25.78706
G1 X178.702 Y88.028 E25.79004
G0 F3600 X178.843 Y88.169
G1 F960 X88.17 Y178.843 E27.54935
G1 X87.916 Y179.041 E27.55377
G1 X87.621 Y179.17 E27.55819
G1 X87.304 Y179.223 E27.5626
G1 X86.983 Y179.196 E27.56702
G1 X86.679 Y179.091 E27.57143
G1 X86.41 Y178.915 E27.57584
G1 X86.192 Y178.678 E27.58026
G1 X86.039 Y178.395 E27.58467
G1 X85.951 Y177.924 E27.59125
G1 X85.95 Y87.25 E28.83528
G1 X85.99 Y86.931 E28.83969
G1 X86.107 Y86.631 E28.8441
G1 X86.294 Y86.369 E28.84852
G1 X86.54 Y86.161 E28.85294
G1 X86.829 Y86.02 E28.85735
G1 X87.25 Y85.95 E28.86321
G1 X177.924 Y85.95 E30.10724
G1 X178.243 Y85.99 E30.11165
G1 X178.543 Y86.107 E30.11607
G1 X178.805 Y86.294 E30.12048
G1 X179.013 Y86.54 E30.1249
G1 X179.154 Y86.829 E30.12931
G1 X179.22 Y87.144 E30.13373
G1 X179.206 Y87.466 E30.13815
G1 X179.114 Y87.774 E30.14256
G1 X178.843 Y88.169 E30.14913
G0 F3600 X178.985 Y88.311
G1 F960 X88.312 Y178.985 E31.90845
G1 X88.041 Y179.199 E31.91319
G1 X87.727 Y179.346 E31.91794
G1 X87.389 Y179.418 E31.92268
G1 X87.043 Y179.41 E31.92743
G1 X86.709 Y179.323 E31.93217
G1 X86.403 Y179.161 E31.93692
G1 X86.142 Y178.934 E31.94166
G1 X85.94 Y178.653 E31.94641
G1 X85.808 Y178.334 E31.95115
G1 X85.751 Y177.924 E31.95683
G1 X85.75 Y87.25 E33.20086
G1 X85.79 Y86.906 E33.20561
G1 X85.907 Y86.581 E33.21035
G1 X86.096 Y86.292 E33.21509
G1 X86.346 Y86.053 E33.21983
G1 X86.645 Y85.878 E33.22458
G1 X86.975 Y85.775 E33.22933
G1 X87.25 Y85.75 E33.23311
G1 X177.924 Y85.75 E34.47714
G1 X178.268 Y85.79 E34.4819
G1 X178.593 Y85.907 E34.48663
G1 X178.883 Y86.096 E34.49138
G1 X179.121 Y86.346 E34.49612
G1 X179.296 Y86.645 E34.50087
G1 X179.399 Y86.975 E34.50562
G1 X179.422 Y87.32 E34.51036
G1 X179.367 Y87.661 E34.5151
G1 X179.234 Y87.981 E34.51985
G1 X178.985 Y88.311 E34.52552
G0 F3600 X179.126 Y88.452
G1 F960 X88.453 Y179.126 E36.28484
G1 X88.166 Y179.357 E36.28989
G1 X87.836 Y179.52 E36.29494
G1 X87.479 Y179.609 E36.29999
G1 X87.11 Y179.618 E36.30506
G1 X86.749 Y179.548 E36.3101
G1 X86.411 Y179.402 E36.31515
G1 X86.112 Y179.186 E36.32021
G1 X85.867 Y178.912 E36.32526
G1 X85.687 Y178.59 E36.33032
G1 X85.58 Y178.238 E36.33536
G1 X85.551 Y177.924 E36.33969
G1 X85.55 Y87.25 E37.58372
G1 X85.59 Y86.884 E37.58877
G1 X85.708 Y86.535 E37.59383
G1 X85.898 Y86.22 E37.59887
G1 X86.151 Y85.953 E37.60392
G1 X86.457 Y85.747 E37.60898
G1 X86.799 Y85.611 E37.61403
G1 X87.25 Y85.55 E37.62027
G1 X177.924 Y85.55 E38.8643
G1 X178.29 Y85.59 E38.86935
G1 X178.639 Y85.708 E38.87441
G1 X178.954 Y85.898 E38.87946
G1 X179.221 Y86.151 E38.8845
G1 X179.427 Y86.457 E38.88956
G1 X179.563 Y86.799 E38.89461
G1 X179.622 Y87.162 E38.89966
G1 X179.601 Y87.53 E38.90472
G1 X179.501 Y87.885 E38.90978
G1 X179.327 Y88.209 E38.91482
G1 X179.126 Y88.452 E38.91915
G0 F3600 X179.268 Y88.593
G1 F960 X88.595 Y179.267 E40.67846
G1 X88.292 Y179.513 E40.68382
G1 X87.947 Y179.692 E40.68915
G1 X87.572 Y179.797 E40.69449
G1 X87.183 Y179.823 E40.69984
G1 X86.797 Y179.769 E40.70519
G1 X86.431 Y179.638 E40.71052
G1 X86.099 Y179.435 E40.71586
G1 X85.815 Y179.168 E40.72121
G1 X85.592 Y178.849 E40.72655
G1 X85.438 Y178.492 E40.73188
G1 X85.351 Y177.924 E40.73977
G1 X85.35 Y87.25 E41.9838
G1 X85.39 Y86.863 E41.98913
G1 X85.508 Y86.492 E41.99448
G1 X85.699 Y86.152 E41.99983
G1 X85.955 Y85.859 E42.00516
G1 X86.266 Y85.625 E42.0105
G1 X86.618 Y85.458 E42.01585
G1 X86.997 Y85.367 E42.0212
G1 X87.25 Y85.35 E42.02468
G1 X177.924 Y85.35 E43.26871
G1 X178.311 Y85.39 E43.27404
G1 X178.682 Y85.508 E43.27939
G1 X179.022 Y85.699 E43.28474
G1 X179.315 Y85.955 E43.29007
G1 X179.549 Y86.266 E43.29541
G1 X179.716 Y86.618 E43.30076
G1 X179.807 Y86.997 E43.30611
G1 X179.819 Y87.386 E43.31145
G1 X179.752 Y87.769 E43.31678
G1 X179.607 Y88.131 E43.32213
G1 X179.268 Y88.593 E43.32999
G0 F3600 X179.409 Y88.735
G1 F960 X88.736 Y179.409 E45.08931
G1 X88.42 Y179.669 E45.09492
G1 X88.059 Y179.862 E45.10054
G1 X87.667 Y179.982 E45.10616
G1 X87.26 Y180.024 E45.11177
G1 X86.853 Y179.986 E45.11738
G1 X86.46 Y179.869 E45.12301
G1 X86.098 Y179.679 E45.12862
G1 X85.779 Y179.422 E45.13424
G1 X85.516 Y179.108 E45.13986
G1 X85.32 Y178.749 E45.14547
G1 X85.196 Y178.358 E45.1511
G1 X85.151 Y177.924 E45.15708
G1 X85.15 Y87.25 E46.40111
G1 X85.19 Y86.843 E46.40672
G1 X85.308 Y86.451 E46.41234
G1 X85.5 Y86.089 E46.41796
G1 X85.759 Y85.772 E46.42358
G1 X86.074 Y85.51 E46.4292
G1 X86.434 Y85.315 E46.43482
G1 X86.825 Y85.194 E46.44043
G1 X87.25 Y85.15 E46.44629
G1 X177.924 Y85.15 E47.69032
G1 X178.331 Y85.19 E47.69594
G1 X178.723 Y85.308 E47.70155
G1 X179.085 Y85.5 E47.70717
G1 X179.402 Y85.759 E47.71279
G1 X179.664 Y86.074 E47.71841
G1 X179.859 Y86.434 E47.72403
G1 X179.98 Y86.825 E47.72964
G1 X180.024 Y87.232 E47.73526
G1 X179.988 Y87.639 E47.74087
G1 X179.873 Y88.032 E47.74648
G1 X179.684 Y88.396 E47.75211
G1 X179.409 Y88.735 E47.7581
G0 F3600 X179.55 Y88.876
G1 F960 X88.877 Y179.55 E49.51741
G1 X88.547 Y179.824 E49.5233
G1 X88.173 Y180.031 E49.52916
G1 X87.766 Y180.166 E49.53505
G1 X87.341 Y180.222 E49.54093
G1 X86.913 Y180.199 E49.54681
G1 X86.497 Y180.097 E49.55268
G1 X86.107 Y179.919 E49.55857
G1 X85.757 Y179.673 E49.56444
G1 X85.458 Y179.365 E49.57033
G1 X85.222 Y179.007 E49.57621
G1 X85.056 Y178.612 E49.58209
G1 X84.967 Y178.193 E49.58796
G1 X84.951 Y177.924 E49.59166
G1 X84.95 Y87.25 E50.83569
G1 X84.99 Y86.823 E50.84157
G1 X85.108 Y86.412 E50.84744
G1 X85.301 Y86.029 E50.85333
G1 X85.561 Y85.689 E50.8592
G1 X85.88 Y85.402 E50.86508
G1 X86.247 Y85.18 E50.87097
G1 X86.648 Y85.03 E50.87684
G1 X87.25 Y84.95 E50.88518
G1 X177.924 Y84.95 E52.1292
G1 X178.351 Y84.99 E52.13509
G1 X178.762 Y85.108 E52.14096
G1 X179.145 Y85.301 E52.14684
G1 X179.485 Y85.561 E52.15271
G1 X179.772 Y85.88 E52.1586
G1 X179.994 Y86.247 E52.16448
G1 X180.144 Y86.648 E52.17036
G1 X180.217 Y87.07 E52.17623
G1 X180.211 Y87.499 E52.18212
G1 X180.125 Y87.918 E52.18799
G1 X179.963 Y88.315 E52.19387
G1 X179.73 Y88.675 E52.19975
G1 X179.55 Y88.876 E52.20346
G0 F3600 X179.692 Y89.018
G1 F960 X89.019 Y179.692 E53.96277
G1 X88.676 Y179.978 E53.9689
G1 X88.288 Y180.199 E53.97502
G1 X87.866 Y180.347 E53.98116
G1 X87.425 Y180.418 E53.98729
G1 X86.978 Y180.409 E53.99342
G1 X86.54 Y180.321 E53.99955
G1 X86.125 Y180.156 E54.00568
G1 X85.746 Y179.92 E54.0118
G1 X85.414 Y179.62 E54.01794
G1 X85.142 Y179.266 E54.02407
G1 X84.937 Y178.869 E54.0302
G1 X84.805 Y178.442 E54.03633
G1 X84.751 Y177.924 E54.04348
G1 X84.75 Y87.25 E55.2875
G1 X84.79 Y86.805 E55.29363
G1 X84.908 Y86.374 E55.29977
G1 X85.102 Y85.971 E55.3059
G1 X85.364 Y85.61 E55.31202
G1 X85.686 Y85.3 E55.31815
G1 X86.058 Y85.053 E55.32428
G1 X86.468 Y84.875 E55.33041
G1 X86.903 Y84.774 E55.33654
G1 X87.25 Y84.75 E55.34131
G1 X177.924 Y84.75 E56.58534
G1 X178.369 Y84.79 E56.59147
G1 X178.8 Y84.908 E56.5976
G1 X179.203 Y85.102 E56.60374
G1 X179.565 Y85.364 E56.60987
G1 X179.874 Y85.686 E56.61599
G1 X180.121 Y86.058 E56.62212
G1 X180.299 Y86.468 E56.62825
G1 X180.4 Y86.903 E56.63438
G1 X180.422 Y87.349 E56.6405
G1 X180.364 Y87.792 E56.64663
G1 X180.229 Y88.218 E56.65277
G1 X180.02 Y88.613 E56.6589
G1 X179.692 Y89.018 E56.66605
G0 F3600 X179.833 Y89.159
G1 F960 X89.16 Y179.833 E58.42536
G1 X88.805 Y180.132 E58.43173
G1 X88.404 Y180.366 E58.4381
G1 X87.968 Y180.527 E58.44448
G1 X87.512 Y180.611 E58.45084
G1 X87.047 Y180.616 E58.45722
G1 X86.589 Y180.542 E58.46358
G1 X86.15 Y180.389 E58.46996
G1 X85.744 Y180.164 E58.47633
G1 X85.383 Y179.873 E58.48269
G1 X85.076 Y179.524 E58.48907
G1 X84.834 Y179.128 E58.49543
G1 X84.664 Y178.696 E58.5018
G1 X84.57 Y178.241 E58.50818
G1 X84.551 Y177.924 E58.51254
G1 X84.55 Y87.25 E59.75656
G1 X84.59 Y86.787 E59.76294
G1 X84.709 Y86.338 E59.76931
G1 X84.902 Y85.917 E59.77567
G1 X85.165 Y85.534 E59.78204
G1 X85.49 Y85.202 E59.78842
G1 X85.867 Y84.931 E59.79479
G1 X86.285 Y84.728 E59.80116
G1 X86.731 Y84.6 E59.80753
G1 X87.25 Y84.55 E59.81468
G1 X177.924 Y84.55 E61.05871
G1 X178.387 Y84.59 E61.06509
G1 X178.836 Y84.709 E61.07146
G1 X179.258 Y84.902 E61.07783
G1 X179.64 Y85.165 E61.08419
G1 X179.972 Y85.49 E61.09056
G1 X180.243 Y85.867 E61.09693
G1 X180.446 Y86.285 E61.10331
G1 X180.574 Y86.731 E61.10967
G1 X180.623 Y87.193 E61.11605
G1 X180.593 Y87.656 E61.12241
G1 X180.484 Y88.108 E61.12879
G1 X180.299 Y88.534 E61.13517
G1 X180.044 Y88.922 E61.14154
G1 X179.833 Y89.159 E61.14589
G0 F3600 X179.975 Y89.301
G1 F960 X89.302 Y179.975 E62.9052
G1 X88.934 Y180.285 E62.9118
G1 X88.521 Y180.531 E62.9184
G1 X88.072 Y180.705 E62.92501
G1 X87.601 Y180.803 E62.93161
G1 X87.12 Y180.821 E62.93821
G1 X86.642 Y180.759 E62.94482
G1 X86.182 Y180.62 E62.95142
G1 X85.751 Y180.406 E62.95802
G1 X85.361 Y180.124 E62.96462
G1 X85.023 Y179.781 E62.97123
G1 X84.747 Y179.387 E62.97783
G1 X84.539 Y178.952 E62.98444
G1 X84.407 Y178.49 E62.99104
G1 X84.351 Y177.924 E62.99884
G1 X84.35 Y87.25 E64.24287
G1 X84.39 Y86.77 E64.24948
G1 X84.509 Y86.304 E64.25608
G1 X84.703 Y85.864 E64.26267
G1 X84.967 Y85.462 E64.26927
G1 X85.294 Y85.109 E64.27587
G1 X85.675 Y84.815 E64.28248
G1 X86.1 Y84.588 E64.28909
G1 X86.556 Y84.434 E64.29569
G1 X87.25 Y84.35 E64.30528
G1 X177.924 Y84.35 E65.54931
G1 X178.404 Y84.39 E65.55592
G1 X178.87 Y84.509 E65.56252
G1 X179.31 Y84.703 E65.56912
G1 X179.712 Y84.967 E65.57571
G1 X180.065 Y85.294 E65.58232
G1 X180.359 Y85.675 E65.58892
G1 X180.586 Y86.1 E65.59553
G1 X180.74 Y86.556 E65.60213
G1 X180.816 Y87.031 E65.60873
G1 X180.812 Y87.512 E65.61533
G1 X180.729 Y87.986 E65.62193
G1 X180.569 Y88.44 E65.62854
G1 X180.335 Y88.861 E65.63515
G1 X179.975 Y89.301 E65.64295
G0 F3600 X180.116 Y89.442
G1 F960 X89.443 Y180.116 E67.40226
G1 X89.064 Y180.438 E67.40908
G1 X88.638 Y180.696 E67.41592
G1 X88.177 Y180.882 E67.42274
G1 X87.692 Y180.993 E67.42956
G1 X87.195 Y181.023 E67.43639
G1 X86.7 Y180.975 E67.44322
G1 X86.219 Y180.847 E67.45005
