;FLAVOR:Marlin
;TIME:63340
;Filament used:20.8848m
;Layer height: 0.2
;MINX:41.813
;MINY:41.813
;MINZ:0.15
;MAXX:177.856
;MAXY:177.86
;MAXZ:44.95
                            
;Creality Print GCode Generated by CXEngineDEV
;Generated Time:2022-06-30 15:03:09
;----------Machine Config--------------
;Machine Name:Creality Ender-3
;Machine Height:250
;Machine Width:220
;Machine Depth:220
;Material name:Castable
;Number of Extruders:1
;ExtruderParams[0] Nozzle Diameter1000
;----------Profile Config---------------
;Layer Height:0.2
;Wall Thickness:1.6
;Top/Bottom Thickness:1
;Out Wall Line Width:0.2
;Inner Wall Line Width:0.2
;Inital Layer Height:150
;Wall Line Count:8
;Infill Line Distance:2.22
;Infill Pattern:grid
;Infill Sparse Density:18
;Infill Wipe Distance:0
;Print Temperature:235
;Bed Temperature:74
;Support Enable:false
;Support Density:10
;Support Angle:0
;Adhesion Type:brim
;machine is belt:false
;machine belt offset:10
;machine belt offset Y:0
;Raft Base Line Spacing:1.6
;Wait Heatup Sync:true
;----------Shell Config----------------
;Outer Wall Wipe Distance:200
;Infill Before Walls:false
;Infill Overlap:0.08
;Fill Gaps Between Walls:everywhere
;Minimum Infill Area:1
;Top Surface Skin Layer:0
;Top Layers:6
;Z Seam Alignment:sharpest_corner
;Seam Corner Preference:z_seam_corner_inner
;Z Seam X:110
;Z Seam Y:110
;Horizontal Expansion:0
;Top/Bottom Pattern:zigzag
;Ironing Pattern:zigzag
;Vase Model:false
;----------Support Config----------------
;Support Type:everywhere
;Support Pattern:zigzag
;Support Infill Layer Thickness:0.2
;Minimum Support Area:5
;Enable Support Roof:false
;Support Roof Thickness:0.8
;Support Roof Pattern:lines
;Connect Support Lines:0
;Connect Support ZigZags:1
;Minimum Support X/Y Distance:0.2
;Support Line Distance:2
; ---------PrintSpeed & Travel----------
;Enable Print Cool:true
;Avoid Printed Parts Traveling:true
;Enable Retraction:true
;Retraction Distance:8
;Retraction Speed:100
;Retraction Prime Speed:100
;Maximum Retraction Count:100
;Minimum Extrusion Distance Window:1
;Z Hop When Retracted:false
;Z Hop Height:0.2
;Retract Before Outer Wall:true
;Print Speed:32
;Infill Speed:32

;Prime Tower Speed:32
;Travel Speed:120
;Initial Layer Speed:16
;Skirt/Brim Speed:16
;Combing Mode:off
; --------SpecialModel&Mesh Fixes--------
;Union Overlapping Volum:true
;Remove All Holes:false
;Maximum Travel Resolution:0.4
;Maximum Deviation:0.05
;Maximum Model Angle:0.872665
;IS Mold Print:false
;Make Overhang Printable:false
;Enable Coasting:false
;Coasting Volumes:0.06
;Coasting Speed:0.9
;Raft AirGap:0.25
;Layer0 ZOverLap:0.13
;---------------------End of Head--------------------------
M140 S74
M105
M104 S235
M105
M109 S235
M105
M190 S74
M82 ;absolute extrusion mode
M220 S100 ;Reset Feedrate
M221 S100 ;Reset Flowrate

G28 ;Home

G92 E0 ;Reset Extruder
G1 Z2.0 F3000 ;Move Z Axis up
G1 X10.1 Y20 Z0.28 F5000.0 ;Move to start position
G1 X10.1 Y145.0 Z0.28 F1500.0 E15 ;Draw the first line
G1 X10.4 Y145.0 Z0.28 F5000.0 ;Move to side a little
G1 X10.4 Y20 Z0.28 F1500.0 E30 ;Draw the second line
G92 E0  ;Reset Extruder
G1 E-1.0000 F1800 ;Retract a bit
G1 Z2.0 F3000 ;Move Z Axis up
G1 E0.0000 F1800 

G92 E0
G92 E0
G1 F6000 E-8

;LAYER_COUNT:225

;LAYER:0
M107
G0 F3600 X44.238 Y44.018 Z0.15
;;retract;;
G0 X49.56 Y49.455
;TYPE:SKIRT
G1 F6000 E0
G1 F960 X49.713 Y49.413 E0.00218
G1 X169.962 Y49.413 E1.65197
G1 X170.22 Y49.56 E1.65604
G1 X170.225 Y49.857 E1.66012
G1 X170.174 Y49.925 E1.66129
G1 X49.926 Y170.174 E3.99444
G1 X49.64 Y170.253 E3.99851
G1 X49.426 Y170.046 E4.00259
G1 X49.414 Y169.962 E4.00375
G1 X49.413 Y49.713 E5.65355
G1 X49.56 Y49.455 E5.65762
;;retract;;
G1 F6000 E-2.34238
G0 F3600 X170.033 Y49.784
G1 F6000 E5.65762
G1 F960 X49.785 Y170.033 E7.99077
G1 X49.629 Y170.014 E7.99293
G1 X49.614 Y169.962 E7.99367
G1 X49.613 Y49.713 E9.64346
G1 X49.713 Y49.613 E9.6454
G1 X169.962 Y49.613 E11.2952
G1 X170.059 Y49.736 E11.29735
G1 X170.033 Y49.784 E11.29809
;;retract;;
G1 F6000 E3.29809
G0 F3600 X170.316 Y50.067
G1 F6000 E11.29809
G1 F960 X50.068 Y170.316 E13.63124
G1 X49.706 Y170.462 E13.6366
G1 X49.349 Y170.304 E13.64196
G1 X49.214 Y169.962 E13.647
G1 X49.213 Y49.713 E15.29679
G1 X49.365 Y49.354 E15.30214
G1 X49.713 Y49.213 E15.30729
G1 X169.962 Y49.213 E16.95709
G1 X170.321 Y49.365 E16.96243
G1 X170.462 Y49.729 E16.96779
G1 X170.316 Y50.067 E16.97284
G0 F3600 X170.457 Y50.208
G1 F960 X50.209 Y170.457 E19.30599
G1 X49.79 Y170.658 E19.31237
G1 X49.337 Y170.552 E19.31875
G1 X49.051 Y170.186 E19.32512
G1 X49.014 Y169.962 E19.32824
G1 X49.013 Y49.713 E20.97803
G1 X49.167 Y49.275 E20.9844
G1 X49.562 Y49.029 E20.99079
G1 X49.713 Y49.013 E20.99287
G1 X169.962 Y49.013 E22.64266
G1 X170.4 Y49.167 E22.64903
G1 X170.646 Y49.562 E22.65542
G1 X170.589 Y50.024 E22.6618
G1 X170.457 Y50.208 E22.66491
G0 F3600 X170.598 Y50.349
G1 F960 X50.35 Y170.598 E24.99806
G1 X50.135 Y170.757 E25.00173
G1 X49.883 Y170.846 E25.00539
G1 X49.615 Y170.857 E25.00907
G1 X49.357 Y170.788 E25.01274
G1 X49.13 Y170.646 E25.01641
G1 X48.954 Y170.444 E25.02009
G1 X48.846 Y170.2 E25.02375
G1 X48.814 Y169.962 E25.02704
G1 X48.813 Y49.713 E26.67684
G1 X48.853 Y49.448 E26.68051
G1 X48.969 Y49.207 E26.68418
G1 X49.15 Y49.011 E26.68784
G1 X49.382 Y48.876 E26.69153
G1 X49.713 Y48.813 E26.69615
G1 X169.962 Y48.813 E28.34594
G1 X170.227 Y48.853 E28.34962
G1 X170.468 Y48.969 E28.35329
G1 X170.664 Y49.15 E28.35695
G1 X170.799 Y49.382 E28.36063
G1 X170.859 Y49.642 E28.36429
G1 X170.84 Y49.909 E28.36796
G1 X170.744 Y50.159 E28.37164
G1 X170.598 Y50.349 E28.37493
G0 F3600 X170.74 Y50.491
G1 F960 X50.492 Y170.74 E30.70808
G1 X50.256 Y170.919 E30.71214
G1 X49.981 Y171.029 E30.7162
G1 X49.687 Y171.062 E30.72026
G1 X49.395 Y171.015 E30.72432
G1 X49.126 Y170.892 E30.72838
G1 X48.899 Y170.701 E30.73245
G1 X48.732 Y170.457 E30.73651
G1 X48.635 Y170.177 E30.74057
G1 X48.614 Y169.962 E30.74353
G1 X48.613 Y49.713 E32.39333
G1 X48.653 Y49.42 E32.39738
G1 X48.769 Y49.148 E32.40144
G1 X48.954 Y48.917 E32.4055
G1 X49.194 Y48.743 E32.40957
G1 X49.471 Y48.64 E32.41362
G1 X49.713 Y48.613 E32.41696
G1 X169.962 Y48.613 E34.06676
G1 X170.255 Y48.653 E34.07081
G1 X170.527 Y48.769 E34.07487
G1 X170.758 Y48.954 E34.07893
G1 X170.932 Y49.194 E34.083
G1 X171.035 Y49.471 E34.08705
G1 X171.061 Y49.766 E34.09112
G1 X171.007 Y50.057 E34.09518
G1 X170.877 Y50.323 E34.09924
G1 X170.74 Y50.491 E34.10221
G0 F3600 X170.881 Y50.632
G1 F960 X50.633 Y170.881 E36.43536
G1 X50.379 Y171.079 E36.43978
G1 X50.084 Y171.208 E36.4442
G1 X49.767 Y171.261 E36.44861
G1 X49.446 Y171.234 E36.45303
G1 X49.142 Y171.129 E36.45744
G1 X48.873 Y170.953 E36.46185
G1 X48.655 Y170.716 E36.46627
G1 X48.502 Y170.433 E36.47068
G1 X48.414 Y169.962 E36.47726
G1 X48.413 Y49.713 E38.12705
G1 X48.453 Y49.394 E38.13146
G1 X48.57 Y49.094 E38.13588
G1 X48.757 Y48.832 E38.14029
G1 X49.003 Y48.624 E38.14471
G1 X49.292 Y48.483 E38.14913
G1 X49.713 Y48.413 E38.15498
G1 X169.962 Y48.413 E39.80477
G1 X170.281 Y48.453 E39.80919
G1 X170.581 Y48.57 E39.8136
G1 X170.843 Y48.757 E39.81802
G1 X171.051 Y49.003 E39.82244
G1 X171.192 Y49.292 E39.82685
G1 X171.258 Y49.607 E39.83127
G1 X171.244 Y49.929 E39.83569
G1 X171.152 Y50.237 E39.8401
G1 X170.881 Y50.632 E39.84667
G0 F3600 X171.023 Y50.774
G1 F960 X50.775 Y171.023 E42.17982
G1 X50.504 Y171.237 E42.18456
G1 X50.19 Y171.384 E42.18932
G1 X49.852 Y171.456 E42.19406
G1 X49.506 Y171.448 E42.1988
G1 X49.172 Y171.361 E42.20354
G1 X48.866 Y171.199 E42.20829
G1 X48.605 Y170.972 E42.21304
G1 X48.403 Y170.691 E42.21778
G1 X48.271 Y170.372 E42.22252
G1 X48.214 Y169.962 E42.2282
G1 X48.213 Y49.713 E43.87799
G1 X48.253 Y49.369 E43.88274
G1 X48.37 Y49.044 E43.88748
G1 X48.559 Y48.755 E43.89222
G1 X48.809 Y48.516 E43.89697
G1 X49.108 Y48.341 E43.90172
G1 X49.438 Y48.238 E43.90646
G1 X49.713 Y48.213 E43.91025
G1 X169.962 Y48.213 E45.56004
G1 X170.306 Y48.253 E45.5648
G1 X170.631 Y48.37 E45.56953
G1 X170.921 Y48.559 E45.57428
G1 X171.159 Y48.809 E45.57902
G1 X171.334 Y49.108 E45.58377
G1 X171.437 Y49.438 E45.58852
G1 X171.46 Y49.783 E45.59326
G1 X171.405 Y50.124 E45.598
G1 X171.272 Y50.444 E45.60275
G1 X171.023 Y50.774 E45.60842
G0 F3600 X171.164 Y50.915
G1 F960 X50.916 Y171.164 E47.94157
G1 X50.629 Y171.395 E47.94663
G1 X50.299 Y171.558 E47.95168
G1 X49.942 Y171.647 E47.95673
G1 X49.573 Y171.656 E47.96179
G1 X49.212 Y171.586 E47.96684
G1 X48.874 Y171.44 E47.97189
G1 X48.575 Y171.224 E47.97695
G1 X48.33 Y170.95 E47.98199
G1 X48.15 Y170.628 E47.98705
G1 X48.043 Y170.276 E47.9921
G1 X48.014 Y169.962 E47.99643
G1 X48.013 Y49.713 E49.64622
G1 X48.053 Y49.347 E49.65127
G1 X48.171 Y48.998 E49.65632
G1 X48.361 Y48.683 E49.66137
G1 X48.614 Y48.416 E49.66642
G1 X48.92 Y48.21 E49.67148
G1 X49.262 Y48.074 E49.67653
G1 X49.713 Y48.013 E49.68277
G1 X169.962 Y48.013 E51.33257
G1 X170.328 Y48.053 E51.33762
G1 X170.677 Y48.171 E51.34267
G1 X170.992 Y48.361 E51.34772
G1 X171.259 Y48.614 E51.35276
G1 X171.465 Y48.92 E51.35783
G1 X171.601 Y49.262 E51.36288
G1 X171.66 Y49.625 E51.36792
G1 X171.639 Y49.993 E51.37298
G1 X171.539 Y50.348 E51.37804
G1 X171.365 Y50.672 E51.38308
G1 X171.164 Y50.915 E51.38741
G0 F3600 X171.306 Y51.056
G1 F960 X51.058 Y171.305 E53.72056
G1 X50.755 Y171.551 E53.72591
G1 X50.41 Y171.73 E53.73125
G1 X50.035 Y171.835 E53.73659
G1 X49.646 Y171.861 E53.74194
G1 X49.26 Y171.807 E53.74729
G1 X48.894 Y171.676 E53.75262
G1 X48.562 Y171.473 E53.75796
G1 X48.278 Y171.206 E53.76331
G1 X48.055 Y170.887 E53.76865
G1 X47.901 Y170.53 E53.77398
G1 X47.814 Y169.962 E53.78186
G1 X47.813 Y49.713 E55.43166
G1 X47.853 Y49.326 E55.437
G1 X47.971 Y48.955 E55.44234
G1 X48.162 Y48.615 E55.44769
G1 X48.418 Y48.322 E55.45303
G1 X48.729 Y48.088 E55.45837
G1 X49.081 Y47.921 E55.46371
G1 X49.46 Y47.83 E55.46906
G1 X49.713 Y47.813 E55.47254
G1 X169.962 Y47.813 E57.12233
G1 X170.349 Y47.853 E57.12767
G1 X170.72 Y47.971 E57.13301
G1 X171.06 Y48.162 E57.13836
G1 X171.353 Y48.418 E57.1437
G1 X171.587 Y48.729 E57.14904
G1 X171.754 Y49.081 E57.15438
G1 X171.845 Y49.46 E57.15973
G1 X171.857 Y49.849 E57.16507
G1 X171.79 Y50.232 E57.1704
G1 X171.645 Y50.594 E57.17575
G1 X171.306 Y51.056 E57.18362
G0 F3600 X171.447 Y51.198
G1 F960 X51.199 Y171.447 E59.51677
G1 X50.883 Y171.707 E59.52238
G1 X50.522 Y171.9 E59.528
G1 X50.13 Y172.02 E59.53362
G1 X49.723 Y172.062 E59.53923
G1 X49.316 Y172.024 E59.54484
G1 X48.923 Y171.907 E59.55047
G1 X48.561 Y171.717 E59.55608
G1 X48.242 Y171.46 E59.5617
G1 X47.979 Y171.146 E59.56732
G1 X47.783 Y170.787 E59.57293
G1 X47.659 Y170.396 E59.57856
G1 X47.614 Y169.962 E59.58454
G1 X47.613 Y49.713 E61.23434
G1 X47.653 Y49.306 E61.23995
G1 X47.771 Y48.914 E61.24556
G1 X47.963 Y48.552 E61.25119
G1 X48.222 Y48.235 E61.2568
G1 X48.537 Y47.973 E61.26242
G1 X48.897 Y47.778 E61.26804
G1 X49.288 Y47.657 E61.27366
G1 X49.713 Y47.613 E61.27952
G1 X169.962 Y47.613 E62.92931
G1 X170.369 Y47.653 E62.93492
G1 X170.761 Y47.771 E62.94054
G1 X171.123 Y47.963 E62.94616
G1 X171.44 Y48.222 E62.95178
G1 X171.702 Y48.537 E62.9574
G1 X171.897 Y48.897 E62.96301
G1 X172.018 Y49.288 E62.96863
G1 X172.062 Y49.695 E62.97425
G1 X172.026 Y50.102 E62.97985
G1 X171.911 Y50.495 E62.98547
G1 X171.722 Y50.859 E62.9911
G1 X171.447 Y51.198 E62.99709
G0 F3600 X171.588 Y51.339
G1 F960 X51.34 Y171.588 E65.33024
G1 X51.01 Y171.862 E65.33612
G1 X50.636 Y172.069 E65.34199
G1 X50.229 Y172.204 E65.34787
G1 X49.804 Y172.26 E65.35375
G1 X49.376 Y172.237 E65.35963
G1 X48.96 Y172.135 E65.36551
G1 X48.57 Y171.957 E65.37139
G1 X48.22 Y171.711 E65.37726
G1 X47.921 Y171.403 E65.38315
G1 X47.685 Y171.045 E65.38903
G1 X47.519 Y170.65 E65.39491
G1 X47.43 Y170.231 E65.40079
G1 X47.414 Y169.962 E65.40448
G1 X47.413 Y49.713 E67.05428
G1 X47.453 Y49.286 E67.06016
G1 X47.571 Y48.875 E67.06603
G1 X47.764 Y48.492 E67.07191
G1 X48.024 Y48.152 E67.07778
G1 X48.343 Y47.865 E67.08367
G1 X48.71 Y47.643 E67.08956
G1 X49.111 Y47.493 E67.09543
G1 X49.713 Y47.413 E67.10376
G1 X169.962 Y47.413 E68.75355
G1 X170.389 Y47.453 E68.75944
G1 X170.8 Y47.571 E68.7653
G1 X171.183 Y47.764 E68.77119
G1 X171.523 Y48.024 E68.77706
G1 X171.81 Y48.343 E68.78295
G1 X172.032 Y48.71 E68.78883
G1 X172.182 Y49.111 E68.79471
G1 X172.255 Y49.533 E68.80058
G1 X172.249 Y49.962 E68.80647
G1 X172.163 Y50.381 E68.81234
G1 X172.001 Y50.778 E68.81822
G1 X171.768 Y51.138 E68.8241
G1 X171.588 Y51.339 E68.82781
G0 F3600 X171.73 Y51.481
G1 F960 X51.482 Y171.73 E71.16096
G1 X51.139 Y172.016 E71.16708
G1 X50.751 Y172.237 E71.17321
G1 X50.329 Y172.385 E71.17934
G1 X49.888 Y172.456 E71.18547
G1 X49.441 Y172.447 E71.19161
G1 X49.003 Y172.359 E71.19774
G1 X48.588 Y172.194 E71.20386
G1 X48.209 Y171.958 E71.20999
G1 X47.877 Y171.658 E71.21613
G1 X47.605 Y171.304 E71.22225
G1 X47.4 Y170.907 E71.22838
G1 X47.268 Y170.48 E71.23451
G1 X47.214 Y169.962 E71.24166
G1 X47.213 Y49.713 E72.89145
G1 X47.253 Y49.268 E72.89758
G1 X47.371 Y48.837 E72.90371
G1 X47.565 Y48.434 E72.90985
G1 X47.827 Y48.072 E72.91598
G1 X48.149 Y47.763 E72.9221
G1 X48.521 Y47.516 E72.92823
G1 X48.931 Y47.338 E72.93436
G1 X49.366 Y47.237 E72.94049
G1 X49.713 Y47.213 E72.94526
G1 X169.962 Y47.213 E74.59505
G1 X170.407 Y47.253 E74.60118
G1 X170.838 Y47.371 E74.60732
G1 X171.241 Y47.565 E74.61345
G1 X171.603 Y47.827 E74.61958
G1 X171.912 Y48.149 E74.62571
G1 X172.159 Y48.521 E74.63183
G1 X172.337 Y48.931 E74.63796
G1 X172.438 Y49.366 E74.64409
G1 X172.46 Y49.812 E74.65022
G1 X172.402 Y50.255 E74.65635
G1 X172.267 Y50.681 E74.66248
G1 X172.058 Y51.076 E74.66861
G1 X171.73 Y51.481 E74.67576
G0 F3600 X171.871 Y51.622
G1 F960 X51.623 Y171.871 E77.00891
G1 X51.268 Y172.17 E77.01528
G1 X50.867 Y172.404 E77.02165
G1 X50.431 Y172.565 E77.02802
G1 X49.975 Y172.649 E77.03439
G1 X49.51 Y172.654 E77.04077
G1 X49.052 Y172.58 E77.04713
G1 X48.613 Y172.427 E77.05351
G1 X48.207 Y172.202 E77.05988
G1 X47.846 Y171.911 E77.06624
G1 X47.539 Y171.562 E77.07262
G1 X47.297 Y171.166 E77.07898
G1 X47.127 Y170.734 E77.08535
G1 X47.033 Y170.279 E77.09173
G1 X47.014 Y169.962 E77.09608
G1 X47.013 Y49.713 E78.74588
G1 X47.053 Y49.25 E78.75225
G1 X47.172 Y48.801 E78.75863
G1 X47.365 Y48.38 E78.76498
G1 X47.628 Y47.997 E78.77135
G1 X47.953 Y47.665 E78.77773
G1 X48.33 Y47.394 E78.7841
G1 X48.748 Y47.191 E78.79047
G1 X49.194 Y47.063 E78.79684
G1 X49.713 Y47.013 E78.80399
G1 X169.962 Y47.013 E80.45379
G1 X170.425 Y47.053 E80.46016
G1 X170.874 Y47.172 E80.46654
G1 X171.296 Y47.365 E80.4729
G1 X171.678 Y47.628 E80.47926
G1 X172.01 Y47.953 E80.48564
G1 X172.281 Y48.33 E80.49201
G1 X172.484 Y48.748 E80.49838
G1 X172.612 Y49.194 E80.50475
G1 X172.661 Y49.656 E80.51112
G1 X172.631 Y50.119 E80.51749
G1 X172.522 Y50.571 E80.52387
G1 X172.337 Y50.997 E80.53024
G1 X172.082 Y51.385 E80.53661
G1 X171.871 Y51.622 E80.54096
G0 F3600 X172.013 Y51.764
G1 F960 X51.765 Y172.013 E82.87411
G1 X51.397 Y172.323 E82.88072
G1 X50.984 Y172.569 E82.88731
G1 X50.535 Y172.743 E82.89392
G1 X50.064 Y172.841 E82.90052
G1 X49.583 Y172.859 E82.90712
G1 X49.105 Y172.797 E82.91374
G1 X48.645 Y172.658 E82.92033
G1 X48.214 Y172.444 E82.92693
G1 X47.824 Y172.162 E82.93353
G1 X47.486 Y171.819 E82.94014
G1 X47.21 Y171.425 E82.94674
G1 X47.002 Y170.99 E82.95336
G1 X46.87 Y170.528 E82.95995
G1 X46.814 Y169.962 E82.96775
G1 X46.813 Y49.713 E84.61754
G1 X46.853 Y49.233 E84.62415
G1 X46.972 Y48.767 E84.63075
G1 X47.166 Y48.327 E84.63735
G1 X47.43 Y47.925 E84.64395
G1 X47.757 Y47.572 E84.65055
G1 X48.138 Y47.278 E84.65715
G1 X48.563 Y47.051 E84.66376
G1 X49.019 Y46.897 E84.67036
G1 X49.713 Y46.813 E84.67996
G1 X169.962 Y46.813 E86.32975
G1 X170.442 Y46.853 E86.33636
G1 X170.908 Y46.972 E86.34296
G1 X171.348 Y47.166 E86.34955
G1 X171.75 Y47.43 E86.35615
G1 X172.103 Y47.757 E86.36275
G1 X172.397 Y48.138 E86.36936
G1 X172.624 Y48.563 E86.37597
G1 X172.778 Y49.019 E86.38257
G1 X172.854 Y49.494 E86.38917
G1 X172.85 Y49.975 E86.39577
G1 X172.767 Y50.449 E86.40237
G1 X172.607 Y50.903 E86.40898
G1 X172.373 Y51.324 E86.41558
G1 X172.013 Y51.764 E86.42338
G0 F3600 X172.154 Y51.905
G1 F960 X51.906 Y172.154 E88.75653
G1 X51.527 Y172.477 E88.76336
G1 X51.101 Y172.734 E88.77019
G1 X50.64 Y172.92 E88.77701
